jabarragann/KinematicCalibDVRK/scripts/test_fk_ik/data/classic_tool_fixed.csv
traj_index,measured_q1,measured_q2,measured_q3,measured_q4,measured_q5,measured_q6,measured_x,measured_y,measured_z,measured_rx,measured_ry,measured_rz
0.0,-0.7026991869585624,0.03609605345412536,0.16894936457,-0.0077585279089274015,-0.018855836967630782,0.00287882346860013,-0.10492288472928861,-0.005690358524836392,-0.1238874803934401,-1.8071906859344529,-1.8328286470668025,0.6774604188180418
1.0,-0.7026991869585624,0.03609605345412536,0.16894936457,-0.0077585279089274015,-0.018855836967630782,0.00287882346860013,-0.10492288472928861,-0.005690358524836392,-0.1238874803934401,-1.8071906859344529,-1.8328286470668025,0.6774604188180418
2.0,-0.7026991869585624,0.03609605345412536,0.16894936457,-0.0077585279089274015,-0.018855836967630782,0.00287882346860013,-0.10492288472928861,-0.005690358524836392,-0.1238874803934401,-1.8071906859344529,-1.8328286470668025,0.6774604188180418
3.0,-0.7026991869585624,0.03609605345412536,0.16894936457,-0.0077585279089274015,-0.018855836967630782,0.00287882346860013,-0.10492288472928861,-0.005690358524836392,-0.1238874803934401,-1.8071906859344529,-1.8328286470668025,0.6774604188180418
4.0,-0.7026991869585624,0.03609605345412536,0.16894936457,-0.0077585279089274015,-0.018855836967630782,0.00287882346860013,-0.10492288472928861,-0.005690358524836392,-0.1238874803934401,-1.8071906859344529,-1.8328286470668025,0.6774604188180418
5.0,-0.7026991869585624,0.03609605345412536,0.16894936457,-0.0077585279089274015,-0.018855836967630782,0.00287882346860013,-0.10492288472928861,-0.005690358524836392,-0.1238874803934401,-1.8071906859344529,-1.8328286470668025,0.6774604188180418
6.0,-0.7026991869585624,0.03609605345412536,0.16894936457,-0.0077585279089274015,-0.018855836967630782,0.00287882346860013,-0.10492288472928861,-0.005690358524836392,-0.1238874803934401,-1.8071906859344529,-1.8328286470668025,0.6774604188180418
7.0,-0.7026991869585624,0.03609605345412536,0.16894936457,-0.0077585279089274015,-0.018855836967630782,0.00287882346860013,-0.10492288472928861,-0.005690358524836392,-0.1238874803934401,-1.8071906859344529,-1.8328286470668025,0.6774604188180418
8.0,-0.7026991869585624,0.03609605345412536,0.16894936457,-0.0077585279089274015,-0.018855836967630782,0.00287882346860013,-0.10492288472928861,-0.005690358524836392,-0.1238874803934401,-1.8071906859344529,-1.8328286470668025,0.6774604188180418
9.0,-0.7026991869585624,0.03609605345412536,0.16894936457,-0.0077585279089274015,-0.018855836967630782,0.00287882346860013,-0.10492288472928861,-0.005690358524836392,-0.1238874803934401,-1.8071906859344529,-1.8328286470668025,0.6774604188180418
10.0,-0.7026991869585624,0.03609605345412536,0.16894936457,-0.0077585279089274015,-0.018855836967630782,0.00287882346860013,-0.10492288472928861,-0.005690358524836392,-0.1238874803934401,-1.8071906859344529,-1.8328286470668025,0.6774604188180418
11.0,-0.7026991869585624,0.03609605345412536,0.16894936457,-0.0077585279089274015,-0.018855836967630782,0.00287882346860013,-0.10492288472928861,-0.005690358524836392,-0.1238874803934401,-1.8071906859344529,-1.8328286470668025,0.6774604188180418
12.0,-0.7026991869585624,0.03609605345412536,0.16894936457,-0.0077585279089274015,-0.018855836967630782,0.00287882346860013,-0.10492288472928861,-0.005690358524836392,-0.1238874803934401,-1.8071906859344529,-1.8328286470668025,0.6774604188180418
13.0,-0.7026991869585624,0.03609605345412536,0.16894936457,-0.0077585279089274015,-0.018855836967630782,0.00287882346860013,-0.10492288472928861,-0.005690358524836392,-0.1238874803934401,-1.8071906859344529,-1.8328286470668025,0.6774604188180418
14.0,-0.7026991869585624,0.03609605345412536,0.16894936457,-0.0077585279089274015,-0.018855836967630782,0.00287882346860013,-0.10492288472928861,-0.005690358524836392,-0.1238874803934401,-1.8071906859344529,-1.8328286470668025,0.6774604188180418
15.0,-0.7026991869585624,0.03609605345412536,0.16894936457,-0.0077585279089274015,-0.018855836967630782,0.00287882346860013,-0.10492288472928861,-0.005690358524836392,-0.1238874803934401,-1.8071906859344529,-1.8328286470668025,0.6774604188180418
16.0,-0.7026991869585624,0.03609605345412536,0.16894936457,-0.0077585279089274015,-0.018855836967630782,0.00287882346860013,-0.10492288472928861,-0.005690358524836392,-0.1238874803934401,-1.8071906859344529,-1.8328286470668025,0.6774604188180418
17.0,-0.7026991869585624,0.03609605345412536,0.16894936457,-0.0077585279089274015,-0.018855836967630782,0.00287882346860013,-0.10492288472928861,-0.005690358524836392,-0.1238874803934401,-1.8071906859344529,-1.8328286470668025,0.6774604188180418
18.0,-0.7026991869585624,0.03609605345412536,0.16894936457,-0.0077585279089274015,-0.018855836967630782,0.00287882346860013,-0.10492288472928861,-0.005690358524836392,-0.1238874803934401,-1.8071906859344529,-1.8328286470668025,0.6774604188180418
19.0,-0.7026991869585624,0.03609605345412536,0.16894936457,-0.0077585279089274015,-0.018855836967630782,0.00287882346860013,-0.10492288472928861,-0.005690358524836392,-0.1238874803934401,-1.8071906859344529,-1.8328286470668025,0.6774604188180418
20.0,-0.7026991869585624,0.03609605345412536,0.16894936457,-0.0077585279089274015,-0.018855836967630782,0.00287882346860013,-0.10492288472928861,-0.005690358524836392,-0.1238874803934401,-1.8071906859344529,-1.8328286470668025,0.6774604188180418
21.0,-0.7026991869585624,0.03609605345412536,0.16894936457,-0.0077585279089274015,-0.018855836967630782,0.00287882346860013,-0.10492288472928861,-0.005690358524836392,-0.1238874803934401,-1.8071906859344529,-1.8328286470668025,0.6774604188180418
22.0,-0.7026991869585624,0.03609605345412536,0.16894936457,-0.0077585279089274015,-0.018855836967630782,0.00287882346860013,-0.10492288472928861,-0.005690358524836392,-0.1238874803934401,-1.8071906859344529,-1.8328286470668025,0.6774604188180418
23.0,-0.7026991869585624,0.03609605345412536,0.16894936457,-0.0077585279089274015,-0.018855836967630782,0.00287882346860013,-0.10492288472928861,-0.005690358524836392,-0.1238874803934401,-1.8071906859344529,-1.8328286470668025,0.6774604188180418
24.0,-0.7026991869585624,0.03609605345412536,0.16894936457,-0.0077585279089274015,-0.018855836967630782,0.00287882346860013,-0.10492288472928861,-0.005690358524836392,-0.1238874803934401,-1.8071906859344529,-1.8328286470668025,0.6774604188180418
25.0,-0.7026991869585624,0.03609605345412536,0.16894936457,-0.0077585279089274015,-0.018855836967630782,0.00287882346860013,-0.10492288472928861,-0.005690358524836392,-0.1238874803934401,-1.8071906859344529,-1.8328286470668025,0.6774604188180418
26.0,-0.7026991869585624,0.03609605345412536,0.16894936457,-0.0077585279089274015,-0.018855836967630782,0.00287882346860013,-0.10492288472928861,-0.005690358524836392,-0.1238874803934401,-1.8071906859344529,-1.8328286470668025,0.6774604188180418
27.0,-0.7026991869585624,0.03609605345412536,0.16894936457,-0.0077585279089274015,-0.018855836967630782,0.00287882346860013,-0.10492288472928861,-0.005690358524836392,-0.1238874803934401,-1.8071906859344529,-1.8328286470668025,0.6774604188180418
28.0,-0.7026991869585624,0.03609605345412536,0.16894936457,-0.0077585279089274015,-0.018855836967630782,0.00287882346860013,-0.10492288472928861,-0.005690358524836392,-0.1238874803934401,-1.8071906859344529,-1.8328286470668025,0.6774604188180418
29.0,-0.7026991869585624,0.03609605345412536,0.16894936457,-0.0077585279089274015,-0.018855836967630782,0.00287882346860013,-0.10492288472928861,-0.005690358524836392,-0.1238874803934401,-1.8071906859344529,-1.8328286470668025,0.6774604188180418
30.0,-0.7026991869585624,0.03609605345412536,0.16894936457,-0.0077585279089274015,-0.018855836967630782,0.00287882346860013,-0.10492288472928861,-0.005690358524836392,-0.1238874803934401,-1.8071906859344529,-1.8328286470668025,0.6774604188180418
31.0,-0.7026991869585624,0.03609605345412536,0.16894936457,-0.0077585279089274015,-0.018855836967630782,0.00287882346860013,-0.10492288472928861,-0.005690358524836392,-0.1238874803934401,-1.8071906859344529,-1.8328286470668025,0.6774604188180418
32.0,-0.7026991869585624,0.03609605345412536,0.16894936457,-0.0077585279089274015,-0.018855836967630782,0.00287882346860013,-0.10492288472928861,-0.005690358524836392,-0.1238874803934401,-1.8071906859344529,-1.8328286470668025,0.6774604188180418
33.0,-0.7026991869585624,0.03609605345412536,0.16894936457,-0.0077585279089274015,-0.018855836967630782,0.00287882346860013,-0.10492288472928861,-0.005690358524836392,-0.1238874803934401,-1.8071906859344529,-1.8328286470668025,0.6774604188180418
34.0,-0.7026991869585624,0.03609605345412536,0.16894936457,-0.0077585279089274015,-0.018855836967630782,0.00287882346860013,-0.10492288472928861,-0.005690358524836392,-0.1238874803934401,-1.8071906859344529,-1.8328286470668025,0.6774604188180418
35.0,-0.7026991869585624,0.03609605345412536,0.16894936457,-0.0077585279089274015,-0.018855836967630782,0.00287882346860013,-0.10492288472928861,-0.005690358524836392,-0.1238874803934401,-1.8071906859344529,-1.8328286470668025,0.6774604188180418
36.0,-0.7026991869585624,0.03609605345412536,0.16894936457,-0.0077585279089274015,-0.018855836967630782,0.00287882346860013,-0.10492288472928861,-0.005690358524836392,-0.1238874803934401,-1.8071906859344529,-1.8328286470668025,0.6774604188180418
37.0,-0.7026991869585624,0.03609605345412536,0.16894936457,-0.0077585279089274015,-0.018855836967630782,0.00287882346860013,-0.10492288472928861,-0.005690358524836392,-0.1238874803934401,-1.8071906859344529,-1.8328286470668025,0.6774604188180418
38.0,-0.7026991869585624,0.03609605345412536,0.16894936457,-0.0077585279089274015,-0.018855836967630782,0.00287882346860013,-0.10492288472928861,-0.005690358524836392,-0.1238874803934401,-1.8071906859344529,-1.8328286470668025,0.6774604188180418
39.0,-0.7026991869585624,0.03609605345412536,0.16894936457,-0.0077585279089274015,-0.018855836967630782,0.00287882346860013,-0.10492288472928861,-0.005690358524836392,-0.1238874803934401,-1.8071906859344529,-1.8328286470668025,0.6774604188180418
40.0,-0.7026991869585624,0.03609605345412536,0.16894936457,-0.0077585279089274015,-0.018855836967630782,0.00287882346860013,-0.10492288472928861,-0.005690358524836392,-0.1238874803934401,-1.8071906859344529,-1.8328286470668025,0.6774604188180418
41.0,-0.7026991869585624,0.03609605345412536,0.16894936457,-0.0077585279089274015,-0.018855836967630782,0.00287882346860013,-0.10492288472928861,-0.005690358524836392,-0.1238874803934401,-1.8071906859344529,-1.8328286470668025,0.6774604188180418
42.0,-0.7026991869585624,0.03609605345412536,0.16894936457,-0.0077585279089274015,-0.018855836967630782,0.00287882346860013,-0.10492288472928861,-0.005690358524836392,-0.1238874803934401,-1.8071906859344529,-1.8328286470668025,0.6774604188180418
43.0,-0.7026991869585624,0.03609605345412536,0.16894936457,-0.0077585279089274015,-0.018855836967630782,0.00287882346860013,-0.10492288472928861,-0.005690358524836392,-0.1238874803934401,-1.8071906859344529,-1.8328286470668025,0.6774604188180418
44.0,-0.7026991869585624,0.03609605345412536,0.16894936457,-0.0077585279089274015,-0.018855836967630782,0.00287882346860013,-0.10492288472928861,-0.005690358524836392,-0.1238874803934401,-1.8071906859344529,-1.8328286470668025,0.6774604188180418
45.0,-0.7026991869585624,0.03609605345412536,0.16894936457,-0.0077585279089274015,-0.018855836967630782,0.00287882346860013,-0.10492288472928861,-0.005690358524836392,-0.1238874803934401,-1.8071906859344529,-1.8328286470668025,0.6774604188180418
46.0,-0.7026991869585624,0.03609605345412536,0.16894936457,-0.0077585279089274015,-0.018855836967630782,0.00287882346860013,-0.10492288472928861,-0.005690358524836392,-0.1238874803934401,-1.8071906859344529,-1.8328286470668025,0.6774604188180418
47.0,-0.7026991869585624,0.03609605345412536,0.16894936457,-0.0077585279089274015,-0.018855836967630782,0.00287882346860013,-0.10492288472928861,-0.005690358524836392,-0.1238874803934401,-1.8071906859344529,-1.8328286470668025,0.6774604188180418
48.0,-0.7026991869585624,0.03609605345412536,0.16894936457,-0.0077585279089274015,-0.018855836967630782,0.00287882346860013,-0.10492288472928861,-0.005690358524836392,-0.1238874803934401,-1.8071906859344529,-1.8328286470668025,0.6774604188180418
49.0,-0.7026991869585624,0.03609605345412536,0.16894936457,-0.0077585279089274015,-0.018855836967630782,0.00287882346860013,-0.10492288472928861,-0.005690358524836392,-0.1238874803934401,-1.8071906859344529,-1.8328286470668025,0.6774604188180418
50.0,-0.7026991869585624,0.03609605345412536,0.16894936457,-0.0077585279089274015,-0.018855836967630782,0.00287882346860013,-0.10492288472928861,-0.005690358524836392,-0.1238874803934401,-1.8071906859344529,-1.8328286470668025,0.6774604188180418
51.0,-0.7026991869585624,0.03609605345412536,0.16894936457,-0.0077585279089274015,-0.018855836967630782,0.00287882346860013,-0.10492288472928861,-0.005690358524836392,-0.1238874803934401,-1.8071906859344529,-1.8328286470668025,0.6774604188180418
52.0,-0.7026991869585624,0.03609605345412536,0.16894936457,-0.0077585279089274015,-0.018855836967630782,0.00287882346860013,-0.10492288472928861,-0.005690358524836392,-0.1238874803934401,-1.8071906859344529,-1.8328286470668025,0.6774604188180418
53.0,-0.7026991869585624,0.03609605345412536,0.16894936457,-0.0077585279089274015,-0.018855836967630782,0.00287882346860013,-0.10492288472928861,-0.005690358524836392,-0.1238874803934401,-1.8071906859344529,-1.8328286470668025,0.6774604188180418
54.0,-0.7026991869585624,0.03609605345412536,0.16894936457,-0.0077585279089274015,-0.018855836967630782,0.00287882346860013,-0.10492288472928861,-0.005690358524836392,-0.1238874803934401,-1.8071906859344529,-1.8328286470668025,0.6774604188180418
55.0,-0.7026991869585624,0.03609605345412536,0.16894936457,-0.0077585279089274015,-0.018855836967630782,0.00287882346860013,-0.10492288472928861,-0.005690358524836392,-0.1238874803934401,-1.8071906859344529,-1.8328286470668025,0.6774604188180418
56.0,-0.7026991869585624,0.03609605345412536,0.16894936457,-0.0077585279089274015,-0.018855836967630782,0.00287882346860013,-0.10492288472928861,-0.005690358524836392,-0.1238874803934401,-1.8071906859344529,-1.8328286470668025,0.6774604188180418
57.0,-0.7026991869585624,0.03609605345412536,0.16894936457,-0.0077585279089274015,-0.018855836967630782,0.00287882346860013,-0.10492288472928861,-0.005690358524836392,-0.1238874803934401,-1.8071906859344529,-1.8328286470668025,0.6774604188180418
58.0,-0.7026991869585624,0.03609605345412536,0.16894936457,-0.0077585279089274015,-0.018855836967630782,0.00287882346860013,-0.10492288472928861,-0.005690358524836392,-0.1238874803934401,-1.8071906859344529,-1.8328286470668025,0.6774604188180418
59.0,-0.7026991869585624,0.03609605345412536,0.16894936457,-0.0077585279089274015,-0.018855836967630782,0.00287882346860013,-0.10492288472928861,-0.005690358524836392,-0.1238874803934401,-1.8071906859344529,-1.8328286470668025,0.6774604188180418
60.0,-0.7026991869585624,0.03609605345412536,0.16894936457,-0.0077585279089274015,-0.018855836967630782,0.00287882346860013,-0.10492288472928861,-0.005690358524836392,-0.1238874803934401,-1.8071906859344529,-1.8328286470668025,0.6774604188180418
61.0,-0.7026991869585624,0.03609605345412536,0.16894936457,-0.0077585279089274015,-0.018855836967630782,0.00287882346860013,-0.10492288472928861,-0.005690358524836392,-0.1238874803934401,-1.8071906859344529,-1.8328286470668025,0.6774604188180418
62.0,-0.7026991869585624,0.03609605345412536,0.16894936457,-0.0077585279089274015,-0.018855836967630782,0.00287882346860013,-0.10492288472928861,-0.005690358524836392,-0.1238874803934401,-1.8071906859344529,-1.8328286470668025,0.6774604188180418
63.0,-0.7026991869585624,0.03609605345412536,0.16894936457,-0.0077585279089274015,-0.018855836967630782,0.00287882346860013,-0.10492288472928861,-0.005690358524836392,-0.1238874803934401,-1.8071906859344529,-1.8328286470668025,0.6774604188180418
64.0,-0.7026991869585624,0.03609605345412536,0.16894936457,-0.0077585279089274015,-0.018855836967630782,0.00287882346860013,-0.10492288472928861,-0.005690358524836392,-0.1238874803934401,-1.8071906859344529,-1.8328286470668025,0.6774604188180418
65.0,-0.7026991869585624,0.03609605345412536,0.16894936457,-0.0077585279089274015,-0.018855836967630782,0.00287882346860013,-0.10492288472928861,-0.005690358524836392,-0.1238874803934401,-1.8071906859344529,-1.8328286470668025,0.6774604188180418
66.0,-0.7026991869585624,0.03609605345412536,0.16894936457,-0.0077585279089274015,-0.018855836967630782,0.00287882346860013,-0.10492288472928861,-0.005690358524836392,-0.1238874803934401,-1.8071906859344529,-1.8328286470668025,0.6774604188180418
67.0,-0.7026991869585624,0.03609605345412536,0.16894936457,-0.0077585279089274015,-0.018855836967630782,0.00287882346860013,-0.10492288472928861,-0.005690358524836392,-0.1238874803934401,-1.8071906859344529,-1.8328286470668025,0.6774604188180418
68.0,-0.7026991869585624,0.03609605345412536,0.16894936457,-0.0077585279089274015,-0.018855836967630782,0.00287882346860013,-0.10492288472928861,-0.005690358524836392,-0.1238874803934401,-1.8071906859344529,-1.8328286470668025,0.6774604188180418
69.0,-0.7026991869585624,0.03609605345412536,0.16894936457,-0.0077585279089274015,-0.018855836967630782,0.00287882346860013,-0.10492288472928861,-0.005690358524836392,-0.1238874803934401,-1.8071906859344529,-1.8328286470668025,0.6774604188180418
70.0,-0.7026991869585624,0.03609605345412536,0.16894936457,-0.0077585279089274015,-0.018855836967630782,0.00287882346860013,-0.10492288472928861,-0.005690358524836392,-0.1238874803934401,-1.8071906859344529,-1.8328286470668025,0.6774604188180418
71.0,-0.7026991869585624,0.03609605345412536,0.16894936457,-0.0077585279089274015,-0.018855836967630782,0.00287882346860013,-0.10492288472928861,-0.005690358524836392,-0.1238874803934401,-1.8071906859344529,-1.8328286470668025,0.6774604188180418
72.0,-0.7026991869585624,0.03609605345412536,0.16894936457,-0.0077585279089274015,-0.018855836967630782,0.00287882346860013,-0.10492288472928861,-0.005690358524836392,-0.1238874803934401,-1.8071906859344529,-1.8328286470668025,0.6774604188180418
73.0,-0.7026991869585624,0.03609605345412536,0.16894936457,-0.0077585279089274015,-0.018855836967630782,0.00287882346860013,-0.10492288472928861,-0.005690358524836392,-0.1238874803934401,-1.8071906859344529,-1.8328286470668025,0.6774604188180418
74.0,-0.7026991869585624,0.03609605345412536,0.16894936457,-0.0077585279089274015,-0.018855836967630782,0.00287882346860013,-0.10492288472928861,-0.005690358524836392,-0.1238874803934401,-1.8071906859344529,-1.8328286470668025,0.6774604188180418
75.0,-0.7026991869585624,0.03609605345412536,0.16894936457,-0.0077585279089274015,-0.018855836967630782,0.00287882346860013,-0.10492288472928861,-0.005690358524836392,-0.1238874803934401,-1.8071906859344529,-1.8328286470668025,0.6774604188180418
76.0,-0.7026991869585624,0.03609605345412536,0.16894936457,-0.0077585279089274015,-0.018855836967630782,0.00287882346860013,-0.10492288472928861,-0.005690358524836392,-0.1238874803934401,-1.8071906859344529,-1.8328286470668025,0.6774604188180418
77.0,-0.7026991869585624,0.03609605345412536,0.16894936457,-0.0077585279089274015,-0.018855836967630782,0.00287882346860013,-0.10492288472928861,-0.005690358524836392,-0.1238874803934401,-1.8071906859344529,-1.8328286470668025,0.6774604188180418
78.0,-0.7026991869585624,0.03609605345412536,0.16894936457,-0.0077585279089274015,-0.018855836967630782,0.00287882346860013,-0.10492288472928861,-0.005690358524836392,-0.1238874803934401,-1.8071906859344529,-1.8328286470668025,0.6774604188180418
79.0,-0.7026991869585624,0.03609605345412536,0.16894936457,-0.0077585279089274015,-0.018855836967630782,0.00287882346860013,-0.10492288472928861,-0.005690358524836392,-0.1238874803934401,-1.8071906859344529,-1.8328286470668025,0.6774604188180418
80.0,-0.7026991869585624,0.03609605345412536,0.16894936457,-0.0077585279089274015,-0.018855836967630782,0.00287882346860013,-0.10492288472928861,-0.005690358524836392,-0.1238874803934401,-1.8071906859344529,-1.8328286470668025,0.6774604188180418
81.0,-0.7026991869585624,0.03609605345412536,0.16894936457,-0.0077585279089274015,-0.018855836967630782,0.00287882346860013,-0.10492288472928861,-0.005690358524836392,-0.1238874803934401,-1.8071906859344529,-1.8328286470668025,0.6774604188180418
82.0,-0.7026991869585624,0.03609605345412536,0.16894936457,-0.0077585279089274015,-0.018855836967630782,0.00287882346860013,-0.10492288472928861,-0.005690358524836392,-0.1238874803934401,-1.8071906859344529,-1.8328286470668025,0.6774604188180418
83.0,-0.7026991869585624,0.03609605345412536,0.16894936457,-0.0077585279089274015,-0.018855836967630782,0.00287882346860013,-0.10492288472928861,-0.005690358524836392,-0.1238874803934401,-1.8071906859344529,-1.8328286470668025,0.6774604188180418
84.0,-0.7026991869585624,0.03609605345412536,0.16894936457,-0.0077585279089274015,-0.018855836967630782,0.00287882346860013,-0.10492288472928861,-0.005690358524836392,-0.1238874803934401,-1.8071906859344529,-1.8328286470668025,0.6774604188180418
85.0,-0.7026991869585624,0.03609605345412536,0.16894936457,-0.0077585279089274015,-0.018855836967630782,0.00287882346860013,-0.10492288472928861,-0.005690358524836392,-0.1238874803934401,-1.8071906859344529,-1.8328286470668025,0.6774604188180418
86.0,-0.7026991869585624,0.03609605345412536,0.16894936457,-0.0077585279089274015,-0.018855836967630782,0.00287882346860013,-0.10492288472928861,-0.005690358524836392,-0.1238874803934401,-1.8071906859344529,-1.8328286470668025,0.6774604188180418
87.0,-0.7026991869585624,0.03609605345412536,0.16894936457,-0.0077585279089274015,-0.018855836967630782,0.00287882346860013,-0.10492288472928861,-0.005690358524836392,-0.1238874803934401,-1.8071906859344529,-1.8328286470668025,0.6774604188180418
88.0,-0.7026991869585624,0.03609605345412536,0.16894936457,-0.0077585279089274015,-0.018855836967630782,0.00287882346860013,-0.10492288472928861,-0.005690358524836392,-0.1238874803934401,-1.8071906859344529,-1.8328286470668025,0.6774604188180418
89.0,-0.7026991869585624,0.03609605345412536,0.16894936457,-0.0077585279089274015,-0.018855836967630782,0.00287882346860013,-0.10492288472928861,-0.005690358524836392,-0.1238874803934401,-1.8071906859344529,-1.8328286470668025,0.6774604188180418
90.0,-0.7026991869585624,0.03609605345412536,0.16894936457,-0.0077585279089274015,-0.018855836967630782,0.00287882346860013,-0.10492288472928861,-0.005690358524836392,-0.1238874803934401,-1.8071906859344529,-1.8328286470668025,0.6774604188180418
91.0,-0.7026991869585624,0.03609605345412536,0.16894936457,-0.0077585279089274015,-0.018855836967630782,0.00287882346860013,-0.10492288472928861,-0.005690358524836392,-0.1238874803934401,-1.8071906859344529,-1.8328286470668025,0.6774604188180418
92.0,-0.7026991869585624,0.03609605345412536,0.16894936457,-0.0077585279089274015,-0.018855836967630782,0.00287882346860013,-0.10492288472928861,-0.005690358524836392,-0.1238874803934401,-1.8071906859344529,-1.8328286470668025,0.6774604188180418
93.0,-0.7026991869585624,0.03609605345412536,0.16894936457,-0.0077585279089274015,-0.018855836967630782,0.00287882346860013,-0.10492288472928861,-0.005690358524836392,-0.1238874803934401,-1.8071906859344529,-1.8328286470668025,0.6774604188180418
94.0,-0.7026991869585624,0.03609605345412536,0.16894936457,-0.0077585279089274015,-0.018855836967630782,0.00287882346860013,-0.10492288472928861,-0.005690358524836392,-0.1238874803934401,-1.8071906859344529,-1.8328286470668025,0.6774604188180418
95.0,-0.7026991869585624,0.03609605345412536,0.16894936457,-0.0077585279089274015,-0.018855836967630782,0.00287882346860013,-0.10492288472928861,-0.005690358524836392,-0.1238874803934401,-1.8071906859344529,-1.8328286470668025,0.6774604188180418
96.0,-0.7026991869585624,0.03609605345412536,0.16894936457,-0.0077585279089274015,-0.018855836967630782,0.00287882346860013,-0.10492288472928861,-0.005690358524836392,-0.1238874803934401,-1.8071906859344529,-1.8328286470668025,0.6774604188180418
97.0,-0.7026991869585624,0.03609605345412536,0.16894936457,-0.0077585279089274015,-0.018855836967630782,0.00287882346860013,-0.10492288472928861,-0.005690358524836392,-0.1238874803934401,-1.8071906859344529,-1.8328286470668025,0.6774604188180418
98.0,-0.7026991869585624,0.03609605345412536,0.16894936457,-0.0077585279089274015,-0.018855836967630782,0.00287882346860013,-0.10492288472928861,-0.005690358524836392,-0.1238874803934401,-1.8071906859344529,-1.8328286470668025,0.6774604188180418
99.0,-0.7026991869585624,0.03609605345412536,0.16894936457,-0.0077585279089274015,-0.018855836967630782,0.00287882346860013,-0.10492288472928861,-0.005690358524836392,-0.1238874803934401,-1.8071906859344529,-1.8328286470668025,0.6774604188180418
100.0,-0.7026991869585624,0.03609605345412536,0.16894936457,-0.0077585279089274015,-0.018855836967630782,0.00287882346860013,-0.10492288472928861,-0.005690358524836392,-0.1238874803934401,-1.8071906859344529,-1.8328286470668025,0.6774604188180418
101.0,-0.7026991869585624,0.03609605345412536,0.16894936457,-0.0077585279089274015,-0.018855836967630782,0.00287882346860013,-0.10492288472928861,-0.005690358524836392,-0.1238874803934401,-1.8071906859344529,-1.8328286470668025,0.6774604188180418
102.0,-0.7026991869585624,0.03609605345412536,0.16894936457,-0.0077585279089274015,-0.018855836967630782,0.00287882346860013,-0.10492288472928861,-0.005690358524836392,-0.1238874803934401,-1.8071906859344529,-1.8328286470668025,0.6774604188180418
103.0,-0.7026991869585624,0.03609605345412536,0.16894936457,-0.0077585279089274015,-0.018855836967630782,0.00287882346860013,-0.10492288472928861,-0.005690358524836392,-0.1238874803934401,-1.8071906859344529,-1.8328286470668025,0.6774604188180418
104.0,-0.7026991869585624,0.03609605345412536,0.16894936457,-0.0077585279089274015,-0.018855836967630782,0.00287882346860013,-0.10492288472928861,-0.005690358524836392,-0.1238874803934401,-1.8071906859344529,-1.8328286470668025,0.6774604188180418
105.0,-0.7026991869585624,0.03609605345412536,0.16894936457,-0.0077585279089274015,-0.018855836967630782,0.00287882346860013,-0.10492288472928861,-0.005690358524836392,-0.1238874803934401,-1.8071906859344529,-1.8328286470668025,0.6774604188180418
106.0,-0.7026991869585624,0.03609605345412536,0.16894936457,-0.0077585279089274015,-0.018855836967630782,0.00287882346860013,-0.10492288472928861,-0.005690358524836392,-0.1238874803934401,-1.8071906859344529,-1.8328286470668025,0.6774604188180418
107.0,-0.7026991869585624,0.03609605345412536,0.16894936457,-0.0077585279089274015,-0.018855836967630782,0.00287882346860013,-0.10492288472928861,-0.005690358524836392,-0.1238874803934401,-1.8071906859344529,-1.8328286470668025,0.6774604188180418
108.0,-0.7026991869585624,0.03609605345412536,0.16894936457,-0.0077585279089274015,-0.018855836967630782,0.00287882346860013,-0.10492288472928861,-0.005690358524836392,-0.1238874803934401,-1.8071906859344529,-1.8328286470668025,0.6774604188180418
109.0,-0.7026991869585624,0.03609605345412536,0.16894936457,-0.0077585279089274015,-0.018855836967630782,0.00287882346860013,-0.10492288472928861,-0.005690358524836392,-0.1238874803934401,-1.8071906859344529,-1.8328286470668025,0.6774604188180418
110.0,-0.7026991869585624,0.03609605345412536,0.16894936457,-0.0077585279089274015,-0.018855836967630782,0.00287882346860013,-0.10492288472928861,-0.005690358524836392,-0.1238874803934401,-1.8071906859344529,-1.8328286470668025,0.6774604188180418
111.0,-0.7026991869585624,0.03609605345412536,0.16894936457,-0.0077585279089274015,-0.018855836967630782,0.00287882346860013,-0.10492288472928861,-0.005690358524836392,-0.1238874803934401,-1.8071906859344529,-1.8328286470668025,0.6774604188180418
112.0,-0.7026991869585624,0.03609605345412536,0.16894936457,-0.0077585279089274015,-0.018855836967630782,0.00287882346860013,-0.10492288472928861,-0.005690358524836392,-0.1238874803934401,-1.8071906859344529,-1.8328286470668025,0.6774604188180418
113.0,-0.7026991869585624,0.03609605345412536,0.16894936457,-0.0077585279089274015,-0.018855836967630782,0.00287882346860013,-0.10492288472928861,-0.005690358524836392,-0.1238874803934401,-1.8071906859344529,-1.8328286470668025,0.6774604188180418
114.0,-0.7026991869585624,0.03609605345412536,0.16894936457,-0.0077585279089274015,-0.018855836967630782,0.00287882346860013,-0.10492288472928861,-0.005690358524836392,-0.1238874803934401,-1.8071906859344529,-1.8328286470668025,0.6774604188180418
115.0,-0.7026991869585624,0.03609605345412536,0.16894936457,-0.0077585279089274015,-0.018855836967630782,0.00287882346860013,-0.10492288472928861,-0.005690358524836392,-0.1238874803934401,-1.8071906859344529,-1.8328286470668025,0.6774604188180418
116.0,-0.7026991869585624,0.03609605345412536,0.16894936457,-0.0077585279089274015,-0.018855836967630782,0.00287882346860013,-0.10492288472928861,-0.005690358524836392,-0.1238874803934401,-1.8071906859344529,-1.8328286470668025,0.6774604188180418
117.0,-0.7026991869585624,0.03609605345412536,0.16894936457,-0.0077585279089274015,-0.018855836967630782,0.00287882346860013,-0.10492288472928861,-0.005690358524836392,-0.1238874803934401,-1.8071906859344529,-1.8328286470668025,0.6774604188180418
118.0,-0.7026991869585624,0.03609605345412536,0.16894936457,-0.0077585279089274015,-0.018855836967630782,0.00287882346860013,-0.10492288472928861,-0.005690358524836392,-0.1238874803934401,-1.8071906859344529,-1.8328286470668025,0.6774604188180418
119.0,-0.7026991869585624,0.03609605345412536,0.16894936457,-0.0077585279089274015,-0.018855836967630782,0.00287882346860013,-0.10492288472928861,-0.005690358524836392,-0.1238874803934401,-1.8071906859344529,-1.8328286470668025,0.6774604188180418
120.0,-0.7026991869585624,0.03609605345412536,0.16894936457,-0.0077585279089274015,-0.018855836967630782,0.00287882346860013,-0.10492288472928861,-0.005690358524836392,-0.1238874803934401,-1.8071906859344529,-1.8328286470668025,0.6774604188180418
121.0,-0.7026991869585624,0.03609605345412536,0.16894936457,-0.0077585279089274015,-0.018855836967630782,0.00287882346860013,-0.10492288472928861,-0.005690358524836392,-0.1238874803934401,-1.8071906859344529,-1.8328286470668025,0.6774604188180418
122.0,-0.7026991869585624,0.03609605345412536,0.16894936457,-0.0077585279089274015,-0.018855836967630782,0.00287882346860013,-0.10492288472928861,-0.005690358524836392,-0.1238874803934401,-1.8071906859344529,-1.8328286470668025,0.6774604188180418
123.0,-0.7026991869585624,0.03609605345412536,0.16894936457,-0.0077585279089274015,-0.018855836967630782,0.00287882346860013,-0.10492288472928861,-0.005690358524836392,-0.1238874803934401,-1.8071906859344529,-1.8328286470668025,0.6774604188180418
124.0,-0.7026991869585624,0.03609605345412536,0.16894936457,-0.0077585279089274015,-0.018855836967630782,0.00287882346860013,-0.10492288472928861,-0.005690358524836392,-0.1238874803934401,-1.8071906859344529,-1.8328286470668025,0.6774604188180418
125.0,-0.7026991869585624,0.03609605345412536,0.16894936457,-0.0077585279089274015,-0.018855836967630782,0.00287882346860013,-0.10492288472928861,-0.005690358524836392,-0.1238874803934401,-1.8071906859344529,-1.8328286470668025,0.6774604188180418
126.0,-0.7026991869585624,0.03609605345412536,0.16894936457,-0.0077585279089274015,-0.018855836967630782,0.00287882346860013,-0.10492288472928861,-0.005690358524836392,-0.1238874803934401,-1.8071906859344529,-1.8328286470668025,0.6774604188180418
127.0,-0.7026991869585624,0.03609605345412536,0.16894936457,-0.0077585279089274015,-0.018855836967630782,0.00287882346860013,-0.10492288472928861,-0.005690358524836392,-0.1238874803934401,-1.8071906859344529,-1.8328286470668025,0.6774604188180418
128.0,-0.7026991869585624,0.03609605345412536,0.16894936457,-0.0077585279089274015,-0.018855836967630782,0.00287882346860013,-0.10492288472928861,-0.005690358524836392,-0.1238874803934401,-1.8071906859344529,-1.8328286470668025,0.6774604188180418
129.0,-0.7026991869585624,0.03609605345412536,0.16894936457,-0.0077585279089274015,-0.018855836967630782,0.00287882346860013,-0.10492288472928861,-0.005690358524836392,-0.1238874803934401,-1.8071906859344529,-1.8328286470668025,0.6774604188180418
130.0,-0.7026991869585624,0.03609605345412536,0.16894936457,-0.0077585279089274015,-0.018855836967630782,0.00287882346860013,-0.10492288472928861,-0.005690358524836392,-0.1238874803934401,-1.8071906859344529,-1.8328286470668025,0.6774604188180418
131.0,-0.7026991869585624,0.03609605345412536,0.16894936457,-0.0077585279089274015,-0.018855836967630782,0.00287882346860013,-0.10492288472928861,-0.005690358524836392,-0.1238874803934401,-1.8071906859344529,-1.8328286470668025,0.6774604188180418
132.0,-0.7026991869585624,0.03609605345412536,0.16894936457,-0.0077585279089274015,-0.018855836967630782,0.00287882346860013,-0.10492288472928861,-0.005690358524836392,-0.1238874803934401,-1.8071906859344529,-1.8328286470668025,0.6774604188180418
133.0,-0.7026991869585624,0.03609605345412536,0.16894936457,-0.0077585279089274015,-0.018855836967630782,0.00287882346860013,-0.10492288472928861,-0.005690358524836392,-0.1238874803934401,-1.8071906859344529,-1.8328286470668025,0.6774604188180418
134.0,-0.7026991869585624,0.03609605345412536,0.16894936457,-0.0077585279089274015,-0.018855836967630782,0.00287882346860013,-0.10492288472928861,-0.005690358524836392,-0.1238874803934401,-1.8071906859344529,-1.8328286470668025,0.6774604188180418
135.0,-0.7026991869585624,0.03609605345412536,0.16894936457,-0.0077585279089274015,-0.018855836967630782,0.00287882346860013,-0.10492288472928861,-0.005690358524836392,-0.1238874803934401,-1.8071906859344529,-1.8328286470668025,0.6774604188180418
136.0,-0.7026991869585624,0.03609605345412536,0.16894936457,-0.0077585279089274015,-0.018855836967630782,0.00287882346860013,-0.10492288472928861,-0.005690358524836392,-0.1238874803934401,-1.8071906859344529,-1.8328286470668025,0.6774604188180418
137.0,-0.7026991869585624,0.03609605345412536,0.16894936457,-0.0077585279089274015,-0.018855836967630782,0.00287882346860013,-0.10492288472928861,-0.005690358524836392,-0.1238874803934401,-1.8071906859344529,-1.8328286470668025,0.6774604188180418
138.0,-0.7026991869585624,0.03609605345412536,0.16894936457,-0.0077585279089274015,-0.018855836967630782,0.00287882346860013,-0.10492288472928861,-0.005690358524836392,-0.1238874803934401,-1.8071906859344529,-1.8328286470668025,0.6774604188180418
139.0,-0.7026991869585624,0.03609605345412536,0.16894936457,-0.0077585279089274015,-0.018855836967630782,0.00287882346860013,-0.10492288472928861,-0.005690358524836392,-0.1238874803934401,-1.8071906859344529,-1.8328286470668025,0.6774604188180418
140.0,-0.7026991869585624,0.03609605345412536,0.16894936457,-0.0077585279089274015,-0.018855836967630782,0.00287882346860013,-0.10492288472928861,-0.005690358524836392,-0.1238874803934401,-1.8071906859344529,-1.8328286470668025,0.6774604188180418
141.0,-0.7026991869585624,0.03609605345412536,0.16894936457,-0.0077585279089274015,-0.018855836967630782,0.00287882346860013,-0.10492288472928861,-0.005690358524836392,-0.1238874803934401,-1.8071906859344529,-1.8328286470668025,0.6774604188180418
142.0,-0.7026991869585624,0.03609605345412536,0.16894936457,-0.0077585279089274015,-0.018855836967630782,0.00287882346860013,-0.10492288472928861,-0.005690358524836392,-0.1238874803934401,-1.8071906859344529,-1.8328286470668025,0.6774604188180418
143.0,-0.7026991869585624,0.03609605345412536,0.16894936457,-0.0077585279089274015,-0.018855836967630782,0.00287882346860013,-0.10492288472928861,-0.005690358524836392,-0.1238874803934401,-1.8071906859344529,-1.8328286470668025,0.6774604188180418
144.0,-0.7026991869585624,0.03609605345412536,0.16894936457,-0.0077585279089274015,-0.018855836967630782,0.00287882346860013,-0.10492288472928861,-0.005690358524836392,-0.1238874803934401,-1.8071906859344529,-1.8328286470668025,0.6774604188180418
145.0,-0.7026991869585624,0.03609605345412536,0.16894936457,-0.0077585279089274015,-0.018855836967630782,0.00287882346860013,-0.10492288472928861,-0.005690358524836392,-0.1238874803934401,-1.8071906859344529,-1.8328286470668025,0.6774604188180418
146.0,-0.7026991869585624,0.03609605345412536,0.16894936457,-0.0077585279089274015,-0.018855836967630782,0.00287882346860013,-0.10492288472928861,-0.005690358524836392,-0.1238874803934401,-1.8071906859344529,-1.8328286470668025,0.6774604188180418
147.0,-0.7026991869585624,0.03609605345412536,0.16894936457,-0.0077585279089274015,-0.018855836967630782,0.00287882346860013,-0.10492288472928861,-0.005690358524836392,-0.1238874803934401,-1.8071906859344529,-1.8328286470668025,0.6774604188180418
148.0,-0.7026991869585624,0.03609605345412536,0.16894936457,-0.0077585279089274015,-0.018855836967630782,0.00287882346860013,-0.10492288472928861,-0.005690358524836392,-0.1238874803934401,-1.8071906859344529,-1.8328286470668025,0.6774604188180418
149.0,-0.7026991869585624,0.03609605345412536,0.16894936457,-0.0077585279089274015,-0.018855836967630782,0.00287882346860013,-0.10492288472928861,-0.005690358524836392,-0.1238874803934401,-1.8071906859344529,-1.8328286470668025,0.6774604188180418
150.0,-0.7026991869585624,0.03609605345412536,0.16894936457,-0.0077585279089274015,-0.018855836967630782,0.00287882346860013,-0.10492288472928861,-0.005690358524836392,-0.1238874803934401,-1.8071906859344529,-1.8328286470668025,0.6774604188180418
151.0,-0.7026991869585624,0.03609605345412536,0.16894936457,-0.0077585279089274015,-0.018855836967630782,0.00287882346860013,-0.10492288472928861,-0.005690358524836392,-0.1238874803934401,-1.8071906859344529,-1.8328286470668025,0.6774604188180418
152.0,-0.7026991869585624,0.03609605345412536,0.16894936457,-0.0077585279089274015,-0.018855836967630782,0.00287882346860013,-0.10492288472928861,-0.005690358524836392,-0.1238874803934401,-1.8071906859344529,-1.8328286470668025,0.6774604188180418
153.0,-0.7026991869585624,0.03609605345412536,0.16894936457,-0.0077585279089274015,-0.018855836967630782,0.00287882346860013,-0.10492288472928861,-0.005690358524836392,-0.1238874803934401,-1.8071906859344529,-1.8328286470668025,0.6774604188180418
154.0,-0.7026991869585624,0.03609605345412536,0.16894936457,-0.0077585279089274015,-0.018855836967630782,0.00287882346860013,-0.10492288472928861,-0.005690358524836392,-0.1238874803934401,-1.8071906859344529,-1.8328286470668025,0.6774604188180418
155.0,-0.7026991869585624,0.03609605345412536,0.16894936457,-0.0077585279089274015,-0.018855836967630782,0.00287882346860013,-0.10492288472928861,-0.005690358524836392,-0.1238874803934401,-1.8071906859344529,-1.8328286470668025,0.6774604188180418
156.0,-0.7026991869585624,0.03609605345412536,0.16894936457,-0.0077585279089274015,-0.018855836967630782,0.00287882346860013,-0.10492288472928861,-0.005690358524836392,-0.1238874803934401,-1.8071906859344529,-1.8328286470668025,0.6774604188180418
157.0,-0.7026991869585624,0.03609605345412536,0.16894936457,-0.0077585279089274015,-0.018855836967630782,0.00287882346860013,-0.10492288472928861,-0.005690358524836392,-0.1238874803934401,-1.8071906859344529,-1.8328286470668025,0.6774604188180418
158.0,-0.7026991869585624,0.03609605345412536,0.16894936457,-0.0077585279089274015,-0.018855836967630782,0.00287882346860013,-0.10492288472928861,-0.005690358524836392,-0.1238874803934401,-1.8071906859344529,-1.8328286470668025,0.6774604188180418
159.0,-0.7026991869585624,0.03609605345412536,0.16894936457,-0.0077585279089274015,-0.018855836967630782,0.00287882346860013,-0.10492288472928861,-0.005690358524836392,-0.1238874803934401,-1.8071906859344529,-1.8328286470668025,0.6774604188180418
160.0,-0.7026991869585624,0.03609605345412536,0.16894936457,-0.0077585279089274015,-0.018855836967630782,0.00287882346860013,-0.10492288472928861,-0.005690358524836392,-0.1238874803934401,-1.8071906859344529,-1.8328286470668025,0.6774604188180418
161.0,-0.7026991869585624,0.03609605345412536,0.16894936457,-0.0077585279089274015,-0.018855836967630782,0.00287882346860013,-0.10492288472928861,-0.005690358524836392,-0.1238874803934401,-1.8071906859344529,-1.8328286470668025,0.6774604188180418
162.0,-0.7026991869585624,0.03609605345412536,0.16894936457,-0.0077585279089274015,-0.018855836967630782,0.00287882346860013,-0.10492288472928861,-0.005690358524836392,-0.1238874803934401,-1.8071906859344529,-1.8328286470668025,0.6774604188180418
163.0,-0.7026991869585624,0.03609605345412536,0.16894936457,-0.0077585279089274015,-0.018855836967630782,0.00287882346860013,-0.10492288472928861,-0.005690358524836392,-0.1238874803934401,-1.8071906859344529,-1.8328286470668025,0.6774604188180418
164.0,-0.7026991869585624,0.03609605345412536,0.16894936457,-0.0077585279089274015,-0.018855836967630782,0.00287882346860013,-0.10492288472928861,-0.005690358524836392,-0.1238874803934401,-1.8071906859344529,-1.8328286470668025,0.6774604188180418
165.0,-0.7026991869585624,0.03609605345412536,0.16894936457,-0.0077585279089274015,-0.018855836967630782,0.00287882346860013,-0.10492288472928861,-0.005690358524836392,-0.1238874803934401,-1.8071906859344529,-1.8328286470668025,0.6774604188180418
166.0,-0.7026991869585624,0.03609605345412536,0.16894936457,-0.0077585279089274015,-0.018855836967630782,0.00287882346860013,-0.10492288472928861,-0.005690358524836392,-0.1238874803934401,-1.8071906859344529,-1.8328286470668025,0.6774604188180418
167.0,-0.7026991869585624,0.03609605345412536,0.16894936457,-0.0077585279089274015,-0.018855836967630782,0.00287882346860013,-0.10492288472928861,-0.005690358524836392,-0.1238874803934401,-1.8071906859344529,-1.8328286470668025,0.6774604188180418
168.0,-0.7026991869585624,0.03609605345412536,0.16894936457,-0.0077585279089274015,-0.018855836967630782,0.00287882346860013,-0.10492288472928861,-0.005690358524836392,-0.1238874803934401,-1.8071906859344529,-1.8328286470668025,0.6774604188180418
169.0,-0.7026991869585624,0.03609605345412536,0.16894936457,-0.0077585279089274015,-0.018855836967630782,0.00287882346860013,-0.10492288472928861,-0.005690358524836392,-0.1238874803934401,-1.8071906859344529,-1.8328286470668025,0.6774604188180418
170.0,-0.7026991869585624,0.03609605345412536,0.16894936457,-0.0077585279089274015,-0.018855836967630782,0.00287882346860013,-0.10492288472928861,-0.005690358524836392,-0.1238874803934401,-1.8071906859344529,-1.8328286470668025,0.6774604188180418
171.0,-0.7026991869585624,0.03609605345412536,0.16894936457,-0.0077585279089274015,-0.018855836967630782,0.00287882346860013,-0.10492288472928861,-0.005690358524836392,-0.1238874803934401,-1.8071906859344529,-1.8328286470668025,0.6774604188180418
172.0,-0.7026991869585624,0.03609605345412536,0.16894936457,-0.0077585279089274015,-0.018855836967630782,0.00287882346860013,-0.10492288472928861,-0.005690358524836392,-0.1238874803934401,-1.8071906859344529,-1.8328286470668025,0.6774604188180418
173.0,-0.7026991869585624,0.03609605345412536,0.16894936457,-0.0077585279089274015,-0.018855836967630782,0.00287882346860013,-0.10492288472928861,-0.005690358524836392,-0.1238874803934401,-1.8071906859344529,-1.8328286470668025,0.6774604188180418
174.0,-0.7026991869585624,0.03609605345412536,0.16894936457,-0.0077585279089274015,-0.018855836967630782,0.00287882346860013,-0.10492288472928861,-0.005690358524836392,-0.1238874803934401,-1.8071906859344529,-1.8328286470668025,0.6774604188180418
175.0,-0.7026991869585624,0.03609605345412536,0.16894936457,-0.0077585279089274015,-0.018855836967630782,0.00287882346860013,-0.10492288472928861,-0.005690358524836392,-0.1238874803934401,-1.8071906859344529,-1.8328286470668025,0.6774604188180418
176.0,-0.7026991869585624,0.03609605345412536,0.16894936457,-0.0077585279089274015,-0.018855836967630782,0.00287882346860013,-0.10492288472928861,-0.005690358524836392,-0.1238874803934401,-1.8071906859344529,-1.8328286470668025,0.6774604188180418
177.0,-0.7026991869585624,0.03609605345412536,0.16894936457,-0.0077585279089274015,-0.018855836967630782,0.00287882346860013,-0.10492288472928861,-0.005690358524836392,-0.1238874803934401,-1.8071906859344529,-1.8328286470668025,0.6774604188180418
178.0,-0.7026991869585624,0.03609605345412536,0.16894936457,-0.0077585279089274015,-0.018855836967630782,0.00287882346860013,-0.10492288472928861,-0.005690358524836392,-0.1238874803934401,-1.8071906859344529,-1.8328286470668025,0.6774604188180418
179.0,-0.7026991869585624,0.03609605345412536,0.16894936457,-0.0077585279089274015,-0.018855836967630782,0.00287882346860013,-0.10492288472928861,-0.005690358524836392,-0.1238874803934401,-1.8071906859344529,-1.8328286470668025,0.6774604188180418
180.0,-0.7026991869585624,0.03609605345412536,0.16894936457,-0.0077585279089274015,-0.018855836967630782,0.00287882346860013,-0.10492288472928861,-0.005690358524836392,-0.1238874803934401,-1.8071906859344529,-1.8328286470668025,0.6774604188180418
181.0,-0.7026991869585624,0.03609605345412536,0.16894936457,-0.0077585279089274015,-0.018855836967630782,0.00287882346860013,-0.10492288472928861,-0.005690358524836392,-0.1238874803934401,-1.8071906859344529,-1.8328286470668025,0.6774604188180418
182.0,-0.7026991869585624,0.03609605345412536,0.16894936457,-0.0077585279089274015,-0.018855836967630782,0.00287882346860013,-0.10492288472928861,-0.005690358524836392,-0.1238874803934401,-1.8071906859344529,-1.8328286470668025,0.6774604188180418
183.0,-0.7026991869585624,0.03609605345412536,0.16894936457,-0.0077585279089274015,-0.018855836967630782,0.00287882346860013,-0.10492288472928861,-0.005690358524836392,-0.1238874803934401,-1.8071906859344529,-1.8328286470668025,0.6774604188180418
184.0,-0.7026991869585624,0.03609605345412536,0.16894936457,-0.0077585279089274015,-0.018855836967630782,0.00287882346860013,-0.10492288472928861,-0.005690358524836392,-0.1238874803934401,-1.8071906859344529,-1.8328286470668025,0.6774604188180418
185.0,-0.7026991869585624,0.03609605345412536,0.16894936457,-0.0077585279089274015,-0.018855836967630782,0.00287882346860013,-0.10492288472928861,-0.005690358524836392,-0.1238874803934401,-1.8071906859344529,-1.8328286470668025,0.6774604188180418
186.0,-0.7026991869585624,0.03609605345412536,0.16894936457,-0.0077585279089274015,-0.018855836967630782,0.00287882346860013,-0.10492288472928861,-0.005690358524836392,-0.1238874803934401,-1.8071906859344529,-1.8328286470668025,0.6774604188180418
187.0,-0.7026991869585624,0.03609605345412536,0.16894936457,-0.0077585279089274015,-0.018855836967630782,0.00287882346860013,-0.10492288472928861,-0.005690358524836392,-0.1238874803934401,-1.8071906859344529,-1.8328286470668025,0.6774604188180418
188.0,-0.7026991869585624,0.03609605345412536,0.16894936457,-0.0077585279089274015,-0.018855836967630782,0.00287882346860013,-0.10492288472928861,-0.005690358524836392,-0.1238874803934401,-1.8071906859344529,-1.8328286470668025,0.6774604188180418
189.0,-0.7026991869585624,0.03609605345412536,0.16894936457,-0.0077585279089274015,-0.018855836967630782,0.00287882346860013,-0.10492288472928861,-0.005690358524836392,-0.1238874803934401,-1.8071906859344529,-1.8328286470668025,0.6774604188180418
190.0,-0.7026991869585624,0.03609605345412536,0.16894936457,-0.0077585279089274015,-0.018855836967630782,0.00287882346860013,-0.10492288472928861,-0.005690358524836392,-0.1238874803934401,-1.8071906859344529,-1.8328286470668025,0.6774604188180418
191.0,-0.7026991869585624,0.03609605345412536,0.16894936457,-0.0077585279089274015,-0.018855836967630782,0.00287882346860013,-0.10492288472928861,-0.005690358524836392,-0.1238874803934401,-1.8071906859344529,-1.8328286470668025,0.6774604188180418
192.0,-0.7026991869585624,0.03609605345412536,0.16894936457,-0.0077585279089274015,-0.018855836967630782,0.00287882346860013,-0.10492288472928861,-0.005690358524836392,-0.1238874803934401,-1.8071906859344529,-1.8328286470668025,0.6774604188180418
193.0,-0.7026991869585624,0.03609605345412536,0.16894936457,-0.0077585279089274015,-0.018855836967630782,0.00287882346860013,-0.10492288472928861,-0.005690358524836392,-0.1238874803934401,-1.8071906859344529,-1.8328286470668025,0.6774604188180418
194.0,-0.7026991869585624,0.03609605345412536,0.16894936457,-0.0077585279089274015,-0.018855836967630782,0.00287882346860013,-0.10492288472928861,-0.005690358524836392,-0.1238874803934401,-1.8071906859344529,-1.8328286470668025,0.6774604188180418
195.0,-0.7026991869585624,0.03609605345412536,0.16894936457,-0.0077585279089274015,-0.018855836967630782,0.00287882346860013,-0.10492288472928861,-0.005690358524836392,-0.1238874803934401,-1.8071906859344529,-1.8328286470668025,0.6774604188180418
196.0,-0.7026991869585624,0.03609605345412536,0.16894936457,-0.0077585279089274015,-0.018855836967630782,0.00287882346860013,-0.10492288472928861,-0.005690358524836392,-0.1238874803934401,-1.8071906859344529,-1.8328286470668025,0.6774604188180418
197.0,-0.7026991869585624,0.03609605345412536,0.16894936457,-0.0077585279089274015,-0.018855836967630782,0.00287882346860013,-0.10492288472928861,-0.005690358524836392,-0.1238874803934401,-1.8071906859344529,-1.8328286470668025,0.6774604188180418
198.0,-0.7026991869585624,0.03609605345412536,0.16894936457,-0.0077585279089274015,-0.018855836967630782,0.00287882346860013,-0.10492288472928861,-0.005690358524836392,-0.1238874803934401,-1.8071906859344529,-1.8328286470668025,0.6774604188180418
199.0,-0.7026991869585624,0.03609605345412536,0.16894936457,-0.0077585279089274015,-0.018855836967630782,0.00287882346860013,-0.10492288472928861,-0.005690358524836392,-0.1238874803934401,-1.8071906859344529,-1.8328286470668025,0.6774604188180418
200.0,-0.7026991869585624,0.03609605345412536,0.16894936457,-0.0077585279089274015,-0.018855836967630782,0.00287882346860013,-0.10492288472928861,-0.005690358524836392,-0.1238874803934401,-1.8071906859344529,-1.8328286470668025,0.6774604188180418
201.0,-0.7026991869585624,0.03609605345412536,0.16894936457,-0.0077585279089274015,-0.018855836967630782,0.00287882346860013,-0.10492288472928861,-0.005690358524836392,-0.1238874803934401,-1.8071906859344529,-1.8328286470668025,0.6774604188180418
202.0,-0.7026991869585624,0.03609605345412536,0.16894936457,-0.0077585279089274015,-0.018855836967630782,0.00287882346860013,-0.10492288472928861,-0.005690358524836392,-0.1238874803934401,-1.8071906859344529,-1.8328286470668025,0.6774604188180418
203.0,-0.7026991869585624,0.03609605345412536,0.16894936457,-0.0077585279089274015,-0.018855836967630782,0.00287882346860013,-0.10492288472928861,-0.005690358524836392,-0.1238874803934401,-1.8071906859344529,-1.8328286470668025,0.6774604188180418
204.0,-0.7026991869585624,0.03609605345412536,0.16894936457,-0.0077585279089274015,-0.018855836967630782,0.00287882346860013,-0.10492288472928861,-0.005690358524836392,-0.1238874803934401,-1.8071906859344529,-1.8328286470668025,0.6774604188180418
205.0,-0.7026991869585624,0.03609605345412536,0.16894936457,-0.0077585279089274015,-0.018855836967630782,0.00287882346860013,-0.10492288472928861,-0.005690358524836392,-0.1238874803934401,-1.8071906859344529,-1.8328286470668025,0.6774604188180418
206.0,-0.7026991869585624,0.03609605345412536,0.16894936457,-0.0077585279089274015,-0.018855836967630782,0.00287882346860013,-0.10492288472928861,-0.005690358524836392,-0.1238874803934401,-1.8071906859344529,-1.8328286470668025,0.6774604188180418
207.0,-0.7026991869585624,0.03609605345412536,0.16894936457,-0.0077585279089274015,-0.018855836967630782,0.00287882346860013,-0.10492288472928861,-0.005690358524836392,-0.1238874803934401,-1.8071906859344529,-1.8328286470668025,0.6774604188180418
208.0,-0.7026991869585624,0.03609605345412536,0.16894936457,-0.0077585279089274015,-0.018855836967630782,0.00287882346860013,-0.10492288472928861,-0.005690358524836392,-0.1238874803934401,-1.8071906859344529,-1.8328286470668025,0.6774604188180418
209.0,-0.7026991869585624,0.03609605345412536,0.16894936457,-0.0077585279089274015,-0.018855836967630782,0.00287882346860013,-0.10492288472928861,-0.005690358524836392,-0.1238874803934401,-1.8071906859344529,-1.8328286470668025,0.6774604188180418
210.0,-0.7026991869585624,0.03609605345412536,0.16894936457,-0.0077585279089274015,-0.018855836967630782,0.00287882346860013,-0.10492288472928861,-0.005690358524836392,-0.1238874803934401,-1.8071906859344529,-1.8328286470668025,0.6774604188180418
211.0,-0.7026991869585624,0.03609605345412536,0.16894936457,-0.0077585279089274015,-0.018855836967630782,0.00287882346860013,-0.10492288472928861,-0.005690358524836392,-0.1238874803934401,-1.8071906859344529,-1.8328286470668025,0.6774604188180418
212.0,-0.7026991869585624,0.03609605345412536,0.16894936457,-0.0077585279089274015,-0.018855836967630782,0.00287882346860013,-0.10492288472928861,-0.005690358524836392,-0.1238874803934401,-1.8071906859344529,-1.8328286470668025,0.6774604188180418
213.0,-0.7026991869585624,0.03609605345412536,0.16894936457,-0.0077585279089274015,-0.018855836967630782,0.00287882346860013,-0.10492288472928861,-0.005690358524836392,-0.1238874803934401,-1.8071906859344529,-1.8328286470668025,0.6774604188180418
214.0,-0.7026991869585624,0.03609605345412536,0.16894936457,-0.0077585279089274015,-0.018855836967630782,0.00287882346860013,-0.10492288472928861,-0.005690358524836392,-0.1238874803934401,-1.8071906859344529,-1.8328286470668025,0.6774604188180418
215.0,-0.7026991869585624,0.03609605345412536,0.16894936457,-0.0077585279089274015,-0.018855836967630782,0.00287882346860013,-0.10492288472928861,-0.005690358524836392,-0.1238874803934401,-1.8071906859344529,-1.8328286470668025,0.6774604188180418
216.0,-0.7026991869585624,0.03609605345412536,0.16894936457,-0.0077585279089274015,-0.018855836967630782,0.00287882346860013,-0.10492288472928861,-0.005690358524836392,-0.1238874803934401,-1.8071906859344529,-1.8328286470668025,0.6774604188180418
217.0,-0.7026991869585624,0.03609605345412536,0.16894936457,-0.0077585279089274015,-0.018855836967630782,0.00287882346860013,-0.10492288472928861,-0.005690358524836392,-0.1238874803934401,-1.8071906859344529,-1.8328286470668025,0.6774604188180418
218.0,-0.7026991869585624,0.03609605345412536,0.16894936457,-0.0077585279089274015,-0.018855836967630782,0.00287882346860013,-0.10492288472928861,-0.005690358524836392,-0.1238874803934401,-1.8071906859344529,-1.8328286470668025,0.6774604188180418
219.0,-0.7026991869585624,0.03609605345412536,0.16894936457,-0.0077585279089274015,-0.018855836967630782,0.00287882346860013,-0.10492288472928861,-0.005690358524836392,-0.1238874803934401,-1.8071906859344529,-1.8328286470668025,0.6774604188180418
220.0,-0.7026991869585624,0.03609605345412536,0.16894936457,-0.0077585279089274015,-0.018855836967630782,0.00287882346860013,-0.10492288472928861,-0.005690358524836392,-0.1238874803934401,-1.8071906859344529,-1.8328286470668025,0.6774604188180418
221.0,-0.7026991869585624,0.03609605345412536,0.16894936457,-0.0077585279089274015,-0.018855836967630782,0.00287882346860013,-0.10492288472928861,-0.005690358524836392,-0.1238874803934401,-1.8071906859344529,-1.8328286470668025,0.6774604188180418
222.0,-0.7026991869585624,0.03609605345412536,0.16894936457,-0.0077585279089274015,-0.018855836967630782,0.00287882346860013,-0.10492288472928861,-0.005690358524836392,-0.1238874803934401,-1.8071906859344529,-1.8328286470668025,0.6774604188180418
223.0,-0.7026991869585624,0.03609605345412536,0.16894936457,-0.0077585279089274015,-0.018855836967630782,0.00287882346860013,-0.10492288472928861,-0.005690358524836392,-0.1238874803934401,-1.8071906859344529,-1.8328286470668025,0.6774604188180418
224.0,-0.7026991869585624,0.03609605345412536,0.16894936457,-0.0077585279089274015,-0.018855836967630782,0.00287882346860013,-0.10492288472928861,-0.005690358524836392,-0.1238874803934401,-1.8071906859344529,-1.8328286470668025,0.6774604188180418
225.0,-0.7026991869585624,0.03609605345412536,0.16894936457,-0.0077585279089274015,-0.018855836967630782,0.00287882346860013,-0.10492288472928861,-0.005690358524836392,-0.1238874803934401,-1.8071906859344529,-1.8328286470668025,0.6774604188180418
226.0,-0.7026991869585624,0.03609605345412536,0.16894936457,-0.0077585279089274015,-0.018855836967630782,0.00287882346860013,-0.10492288472928861,-0.005690358524836392,-0.1238874803934401,-1.8071906859344529,-1.8328286470668025,0.6774604188180418
227.0,-0.7026991869585624,0.03609605345412536,0.16894936457,-0.0077585279089274015,-0.018855836967630782,0.00287882346860013,-0.10492288472928861,-0.005690358524836392,-0.1238874803934401,-1.8071906859344529,-1.8328286470668025,0.6774604188180418
228.0,-0.7026991869585624,0.03609605345412536,0.16894936457,-0.0077585279089274015,-0.018855836967630782,0.00287882346860013,-0.10492288472928861,-0.005690358524836392,-0.1238874803934401,-1.8071906859344529,-1.8328286470668025,0.6774604188180418
229.0,-0.7026991869585624,0.03609605345412536,0.16894936457,-0.0077585279089274015,-0.018855836967630782,0.00287882346860013,-0.10492288472928861,-0.005690358524836392,-0.1238874803934401,-1.8071906859344529,-1.8328286470668025,0.6774604188180418
230.0,-0.7026991869585624,0.03609605345412536,0.16894936457,-0.0077585279089274015,-0.018855836967630782,0.00287882346860013,-0.10492288472928861,-0.005690358524836392,-0.1238874803934401,-1.8071906859344529,-1.8328286470668025,0.6774604188180418
231.0,-0.7026991869585624,0.03609605345412536,0.16894936457,-0.0077585279089274015,-0.018855836967630782,0.00287882346860013,-0.10492288472928861,-0.005690358524836392,-0.1238874803934401,-1.8071906859344529,-1.8328286470668025,0.6774604188180418
232.0,-0.7026991869585624,0.03609605345412536,0.16894936457,-0.0077585279089274015,-0.018855836967630782,0.00287882346860013,-0.10492288472928861,-0.005690358524836392,-0.1238874803934401,-1.8071906859344529,-1.8328286470668025,0.6774604188180418
233.0,-0.7026991869585624,0.03609605345412536,0.16894936457,-0.0077585279089274015,-0.018855836967630782,0.00287882346860013,-0.10492288472928861,-0.005690358524836392,-0.1238874803934401,-1.8071906859344529,-1.8328286470668025,0.6774604188180418
234.0,-0.7026991869585624,0.03609605345412536,0.16894936457,-0.0077585279089274015,-0.018855836967630782,0.00287882346860013,-0.10492288472928861,-0.005690358524836392,-0.1238874803934401,-1.8071906859344529,-1.8328286470668025,0.6774604188180418
235.0,-0.7026991869585624,0.03609605345412536,0.16894936457,-0.0077585279089274015,-0.018855836967630782,0.00287882346860013,-0.10492288472928861,-0.005690358524836392,-0.1238874803934401,-1.8071906859344529,-1.8328286470668025,0.6774604188180418
236.0,-0.7026991869585624,0.03609605345412536,0.16894936457,-0.0077585279089274015,-0.018855836967630782,0.00287882346860013,-0.10492288472928861,-0.005690358524836392,-0.1238874803934401,-1.8071906859344529,-1.8328286470668025,0.6774604188180418
237.0,-0.7026991869585624,0.03609605345412536,0.16894936457,-0.0077585279089274015,-0.018855836967630782,0.00287882346860013,-0.10492288472928861,-0.005690358524836392,-0.1238874803934401,-1.8071906859344529,-1.8328286470668025,0.6774604188180418
238.0,-0.7026991869585624,0.03609605345412536,0.16894936457,-0.0077585279089274015,-0.018855836967630782,0.00287882346860013,-0.10492288472928861,-0.005690358524836392,-0.1238874803934401,-1.8071906859344529,-1.8328286470668025,0.6774604188180418
239.0,-0.7026991869585624,0.03609605345412536,0.16894936457,-0.0077585279089274015,-0.018855836967630782,0.00287882346860013,-0.10492288472928861,-0.005690358524836392,-0.1238874803934401,-1.8071906859344529,-1.8328286470668025,0.6774604188180418
240.0,-0.7026991869585624,0.03609605345412536,0.16894936457,-0.0077585279089274015,-0.018855836967630782,0.00287882346860013,-0.10492288472928861,-0.005690358524836392,-0.1238874803934401,-1.8071906859344529,-1.8328286470668025,0.6774604188180418
241.0,-0.7026991869585624,0.03609605345412536,0.16894936457,-0.0077585279089274015,-0.018855836967630782,0.00287882346860013,-0.10492288472928861,-0.005690358524836392,-0.1238874803934401,-1.8071906859344529,-1.8328286470668025,0.6774604188180418
242.0,-0.7026991869585624,0.03609605345412536,0.16894936457,-0.0077585279089274015,-0.018855836967630782,0.00287882346860013,-0.10492288472928861,-0.005690358524836392,-0.1238874803934401,-1.8071906859344529,-1.8328286470668025,0.6774604188180418
243.0,-0.7026991869585624,0.03609605345412536,0.16894936457,-0.0077585279089274015,-0.018855836967630782,0.00287882346860013,-0.10492288472928861,-0.005690358524836392,-0.1238874803934401,-1.8071906859344529,-1.8328286470668025,0.6774604188180418
244.0,-0.7026991869585624,0.03609605345412536,0.16894936457,-0.0077585279089274015,-0.018855836967630782,0.00287882346860013,-0.10492288472928861,-0.005690358524836392,-0.1238874803934401,-1.8071906859344529,-1.8328286470668025,0.6774604188180418
245.0,-0.7026991869585624,0.03609605345412536,0.16894936457,-0.0077585279089274015,-0.018855836967630782,0.00287882346860013,-0.10492288472928861,-0.005690358524836392,-0.1238874803934401,-1.8071906859344529,-1.8328286470668025,0.6774604188180418
246.0,-0.7026991869585624,0.03609605345412536,0.16894936457,-0.0077585279089274015,-0.018855836967630782,0.00287882346860013,-0.10492288472928861,-0.005690358524836392,-0.1238874803934401,-1.8071906859344529,-1.8328286470668025,0.6774604188180418
247.0,-0.7026991869585624,0.03609605345412536,0.16894936457,-0.0077585279089274015,-0.018855836967630782,0.00287882346860013,-0.10492288472928861,-0.005690358524836392,-0.1238874803934401,-1.8071906859344529,-1.8328286470668025,0.6774604188180418
248.0,-0.7026991869585624,0.03609605345412536,0.16894936457,-0.0077585279089274015,-0.018855836967630782,0.00287882346860013,-0.10492288472928861,-0.005690358524836392,-0.1238874803934401,-1.8071906859344529,-1.8328286470668025,0.6774604188180418
249.0,-0.7026991869585624,0.03609605345412536,0.16894936457,-0.0077585279089274015,-0.018855836967630782,0.00287882346860013,-0.10492288472928861,-0.005690358524836392,-0.1238874803934401,-1.8071906859344529,-1.8328286470668025,0.6774604188180418
250.0,-0.7026991869585624,0.03609605345412536,0.16894936457,-0.0077585279089274015,-0.018855836967630782,0.00287882346860013,-0.10492288472928861,-0.005690358524836392,-0.1238874803934401,-1.8071906859344529,-1.8328286470668025,0.6774604188180418
251.0,-0.7026991869585624,0.03609605345412536,0.16894936457,-0.0077585279089274015,-0.018855836967630782,0.00287882346860013,-0.10492288472928861,-0.005690358524836392,-0.1238874803934401,-1.8071906859344529,-1.8328286470668025,0.6774604188180418
252.0,-0.7026991869585624,0.03609605345412536,0.16894936457,-0.0077585279089274015,-0.018855836967630782,0.00287882346860013,-0.10492288472928861,-0.005690358524836392,-0.1238874803934401,-1.8071906859344529,-1.8328286470668025,0.6774604188180418
253.0,-0.7026991869585624,0.03609605345412536,0.16894936457,-0.0077585279089274015,-0.018855836967630782,0.00287882346860013,-0.10492288472928861,-0.005690358524836392,-0.1238874803934401,-1.8071906859344529,-1.8328286470668025,0.6774604188180418
254.0,-0.7026991869585624,0.03609605345412536,0.16894936457,-0.0077585279089274015,-0.018855836967630782,0.00287882346860013,-0.10492288472928861,-0.005690358524836392,-0.1238874803934401,-1.8071906859344529,-1.8328286470668025,0.6774604188180418
255.0,-0.7026991869585624,0.03609605345412536,0.16894936457,-0.0077585279089274015,-0.018855836967630782,0.00287882346860013,-0.10492288472928861,-0.005690358524836392,-0.1238874803934401,-1.8071906859344529,-1.8328286470668025,0.6774604188180418
256.0,-0.7026991869585624,0.03609605345412536,0.16894936457,-0.0077585279089274015,-0.018855836967630782,0.00287882346860013,-0.10492288472928861,-0.005690358524836392,-0.1238874803934401,-1.8071906859344529,-1.8328286470668025,0.6774604188180418
257.0,-0.7026991869585624,0.03609605345412536,0.16894936457,-0.0077585279089274015,-0.018855836967630782,0.00287882346860013,-0.10492288472928861,-0.005690358524836392,-0.1238874803934401,-1.8071906859344529,-1.8328286470668025,0.6774604188180418
258.0,-0.7026991869585624,0.03609605345412536,0.16894936457,-0.0077585279089274015,-0.018855836967630782,0.00287882346860013,-0.10492288472928861,-0.005690358524836392,-0.1238874803934401,-1.8071906859344529,-1.8328286470668025,0.6774604188180418
259.0,-0.7026991869585624,0.03609605345412536,0.16894936457,-0.0077585279089274015,-0.018855836967630782,0.00287882346860013,-0.10492288472928861,-0.005690358524836392,-0.1238874803934401,-1.8071906859344529,-1.8328286470668025,0.6774604188180418
260.0,-0.7026991869585624,0.03609605345412536,0.16894936457,-0.0077585279089274015,-0.018855836967630782,0.00287882346860013,-0.10492288472928861,-0.005690358524836392,-0.1238874803934401,-1.8071906859344529,-1.8328286470668025,0.6774604188180418
261.0,-0.7026991869585624,0.03609605345412536,0.16894936457,-0.0077585279089274015,-0.018855836967630782,0.00287882346860013,-0.10492288472928861,-0.005690358524836392,-0.1238874803934401,-1.8071906859344529,-1.8328286470668025,0.6774604188180418
262.0,-0.7026991869585624,0.03609605345412536,0.16894936457,-0.0077585279089274015,-0.018855836967630782,0.00287882346860013,-0.10492288472928861,-0.005690358524836392,-0.1238874803934401,-1.8071906859344529,-1.8328286470668025,0.6774604188180418
263.0,-0.7026991869585624,0.03609605345412536,0.16894936457,-0.0077585279089274015,-0.018855836967630782,0.00287882346860013,-0.10492288472928861,-0.005690358524836392,-0.1238874803934401,-1.8071906859344529,-1.8328286470668025,0.6774604188180418
264.0,-0.7026991869585624,0.03609605345412536,0.16894936457,-0.0077585279089274015,-0.018855836967630782,0.00287882346860013,-0.10492288472928861,-0.005690358524836392,-0.1238874803934401,-1.8071906859344529,-1.8328286470668025,0.6774604188180418
265.0,-0.7026991869585624,0.03609605345412536,0.16894936457,-0.0077585279089274015,-0.018855836967630782,0.00287882346860013,-0.10492288472928861,-0.005690358524836392,-0.1238874803934401,-1.8071906859344529,-1.8328286470668025,0.6774604188180418
266.0,-0.7026991869585624,0.03609605345412536,0.16894936457,-0.0077585279089274015,-0.018855836967630782,0.00287882346860013,-0.10492288472928861,-0.005690358524836392,-0.1238874803934401,-1.8071906859344529,-1.8328286470668025,0.6774604188180418
267.0,-0.7026991869585624,0.03609605345412536,0.16894936457,-0.0077585279089274015,-0.018855836967630782,0.00287882346860013,-0.10492288472928861,-0.005690358524836392,-0.1238874803934401,-1.8071906859344529,-1.8328286470668025,0.6774604188180418
268.0,-0.7026991869585624,0.03609605345412536,0.16894936457,-0.0077585279089274015,-0.018855836967630782,0.00287882346860013,-0.10492288472928861,-0.005690358524836392,-0.1238874803934401,-1.8071906859344529,-1.8328286470668025,0.6774604188180418
269.0,-0.7026991869585624,0.03609605345412536,0.16894936457,-0.0077585279089274015,-0.018855836967630782,0.00287882346860013,-0.10492288472928861,-0.005690358524836392,-0.1238874803934401,-1.8071906859344529,-1.8328286470668025,0.6774604188180418
270.0,-0.7026991869585624,0.03609605345412536,0.16894936457,-0.0077585279089274015,-0.018855836967630782,0.00287882346860013,-0.10492288472928861,-0.005690358524836392,-0.1238874803934401,-1.8071906859344529,-1.8328286470668025,0.6774604188180418
271.0,-0.7026991869585624,0.03609605345412536,0.16894936457,-0.0077585279089274015,-0.018855836967630782,0.00287882346860013,-0.10492288472928861,-0.005690358524836392,-0.1238874803934401,-1.8071906859344529,-1.8328286470668025,0.6774604188180418
272.0,-0.7026991869585624,0.03609605345412536,0.16894936457,-0.0077585279089274015,-0.018855836967630782,0.00287882346860013,-0.10492288472928861,-0.005690358524836392,-0.1238874803934401,-1.8071906859344529,-1.8328286470668025,0.6774604188180418
273.0,-0.7026991869585624,0.03609605345412536,0.16894936457,-0.007968217852411925,-0.018855836967630782,0.00287882346860013,-0.10492291218223511,-0.005690358807614068,-0.12388745712997484,-1.8069716164639156,-1.8329903213771788,0.6773855294227835
274.0,-0.7026914642256882,0.03609605345412536,0.16894936457,-0.01258139660907146,-0.018855836967630782,0.00287882346860013,-0.10492255933987914,-0.0056903669364632295,-0.1238877555854077,-1.8021543585254454,-1.8365465625341795,0.6757308247197714
275.0,-0.7027146324243108,0.03608060798837691,0.16895066086000002,-0.022017444065875056,-0.018855836967630782,0.00320553842916238,-0.10492755844952953,-0.005687934142926906,-0.1238853331179945,-1.7924665904791104,-1.8439647532715908,0.6720904828242517
276.0,-0.7027300778900593,0.03608060798837691,0.16895325344,-0.032292251296616746,-0.018855836967630782,0.0035322533897246284,-0.10493249030538543,-0.005688075499160602,-0.12388454901711989,-1.7818787899696507,-1.8519878414850264,0.6681461602766364
277.0,-0.702753246088682,0.03608060798837691,0.16895454973000001,-0.042776748470842965,-0.018855836967630782,0.003777289610146315,-0.10493756813931897,-0.005688189729370018,-0.12388194247305861,-1.7709865639382922,-1.8600561238068387,0.6641850983464672
278.0,-0.7027609688215561,0.03607288525550269,0.1689584386,-0.05242248587113109,-0.018855836967630782,0.00394064709042744,-0.10494232490862958,-0.005687154866497607,-0.12388306028013685,-1.7609115615480961,-1.8673929638735303,0.6605618177248199
279.0,-0.702791859753053,0.03607288525550269,0.16896492005000002,-0.06479419253671803,-0.01899247346739622,0.004542137434967234,-0.10495006844738451,-0.005686211592364895,-0.12388331437479339,-1.7495263256525169,-1.875955915410593,0.6559163844291079
280.0,-0.7028073052188015,0.03607288525550269,0.16896880892000002,-0.07213334055867637,-0.01899247346739622,0.004705494915248357,-0.10495741683893928,-0.005686499241127871,-0.12388387561087934,-1.7405031360325882,-1.8824092543408353,0.6526708062274473
281.0,-0.7028381961502984,0.03606516252262846,0.16897788295000002,-0.08324690756335616,-0.0192657464669271,0.004846651982500642,-0.10496877616912978,-0.005683243644573383,-0.12388624210414023,-1.7287740635946507,-1.8904591372738817,0.6482465583680187
282.0,-0.7028690870817953,0.03605743978975424,0.16898695698000002,-0.09498954439848953,-0.019675655966223424,0.004935869473168219,-0.10498036308692113,-0.005678786999870728,-0.12388843926019028,-1.7163147371031742,-1.8987737723857223,0.6434930662287545
283.0,-0.7029077007461664,0.03605743978975424,0.16899732730000003,-0.10840970078149909,-0.020358838465050627,0.00557463773179089,-0.10499424123948264,-0.005673224930686973,-0.12389038071589245,-1.7023662775033581,-1.9083768436575237,0.6373977230841394
284.0,-0.7029463144105376,0.03605743978975424,0.16901158649,-0.12581396609071463,-0.020495474964816067,0.006584521777033496,-0.10501080309904962,-0.005672882042070488,-0.12389503124229692,-1.684315531878981,-1.9213198488631984,0.6300218756742909
285.0,-0.702992650807783,0.03604971705688001,0.16902454939000003,-0.1427988515129611,-0.020495474964816067,0.008299775319985301,-0.10502733260301646,-0.0056725188949623764,-0.12389804042736097,-1.6670645390390584,-1.9343248773119623,0.6222734060289301
286.0,-0.7030621554036509,0.03603427159113156,0.16904399374,-0.1652356754658052,-0.019539019466457985,0.01046028463917059,-0.10505052475595118,-0.005679936411535193,-0.12390376185933476,-1.6440796833529436,-1.9518646656306435,0.6129377985869064
287.0,-0.703131659999519,0.03601882612538311,0.1690621418,-0.1832690106054743,-0.018309290968569022,0.01337810303264979,-0.10507164165387906,-0.005689638113844235,-0.12390948212061748,-1.6262073663891567,-1.9668062844714074,0.6047290595661836
288.0,-0.7032166100611354,0.03598793519388622,0.16908417873,-0.20109265580165883,-0.016533016471618294,0.01797389705499791,-0.10509608427978469,-0.005701815112240391,-0.123917454821038,-1.609454980082327,-1.9828164860131814,0.5954741167243757
289.0,-0.7032938373898776,0.03596476699526354,0.16910232679,-0.21493219207163747,-0.015030014974198449,0.02271084814459832,-0.1051166168401123,-0.005712493017906557,-0.12392362672927487,-1.5970561045718465,-1.9959010206369683,0.5872423800398332
290.0,-0.7033942329172426,0.03594932152951509,0.16912566001,-0.22940079817206963,-0.013527013476778605,0.027284441753917605,-0.105143104357456,-0.005724573570934065,-0.12393145841058173,-1.5837839346352152,-2.009166792792411,0.5788267839748779
291.0,-0.7034946284446075,0.03594159879664087,0.16915028952000002,-0.24240157466811013,-0.012433921478655081,0.03039535679123378,-0.10517071333918282,-0.005734231177511583,-0.12394006687702973,-1.5712116981463902,-2.020190303570023,0.5718784483482916
292.0,-0.7036027467048467,0.03591070786514397,0.16917232645000002,-0.2549829712771816,-0.011614102480062437,0.03250392653383437,-0.10519797527444567,-0.005737568456797107,-0.1239458086248583,-1.5584755390219898,-2.03003248262836,0.5656999606608764
293.0,-0.7037340331637084,0.03587209420077285,0.16919695596,-0.2690321974906447,-0.010657646981704355,0.034174363412176285,-0.10522950583973875,-0.005740946924969693,-0.12395133415091614,-1.5438044147975698,-2.0405405380642474,0.5594204553792538
294.0,-0.7038730423554445,0.03584892600215017,0.16922158547000002,-0.28203297398668525,-0.00956455498358083,0.035733382386821784,-0.10526140099144349,-0.005747956592068641,-0.12395638285657301,-1.5301781519911057,-2.0503307356249674,0.5537523360908037
295.0,-0.7040043288143063,0.03581803507065327,0.16924362240000002,-0.29482406053924126,-0.008471462985457307,0.03753743758188897,-0.10529048438444831,-0.0057535534463159805,-0.12396046436900028,-1.516891277733477,-2.060041507187721,0.5478724174593036
296.0,-0.7041587834717908,0.03577942140628215,0.16927214078000002,-0.3115992560180032,-0.007378370987333784,0.04015828017836177,-0.1053266635360432,-0.005758143940901981,-0.12396705745905792,-1.499566832817999,-2.0725311793079713,0.5395427561342404
297.0,-0.7043055153964011,0.03574080774191103,0.16929677029,-0.3273260017793425,-0.006148642489444821,0.04274938361127872,-0.10535875246312491,-0.005763666294321555,-0.12397196823215394,-1.4833332088608675,-2.084325680175085,0.5316954259250215
298.0,-0.7044908609853825,0.03569447134466568,0.16932399238,-0.34577871680598066,-0.004782277491790415,0.04645425024260767,-0.1053968179610522,-0.005769132701696191,-0.12397519237407117,-1.4645734881883885,-2.0982762326687148,0.5216810667780434
299.0,-0.7046607611086154,0.03565585768029456,0.16934862189000002,-0.3617151525108045,-0.0038258219934323326,0.04992161940404195,-0.10543194854280952,-0.00577210423063881,-0.12397757931450043,-1.4484489477266782,-2.110114681677127,0.5124995326837041
300.0,-0.7048383839647225,0.035648134947420335,0.16937714027,-0.37786127815911286,-0.0035525489939014516,0.05402775682409892,-0.10547211121785174,-0.005774377117305413,-0.12398078661328023,-1.4323782228805193,-2.1217081948620944,0.5020033112900392
301.0,-0.7050391750194523,0.035624966748797664,0.16940695494000002,-0.3948461635813594,-0.0035525489939014516,0.058520087531829836,-0.10551678243025191,-0.005771874716165284,-0.12398206464960157,-1.415495551742539,-2.1335375351834798,0.4904660833168987
302.0,-0.7052554115399307,0.035555462152929644,0.16943288074,-0.41225042889057484,-0.002732729995308809,0.062343910817382234,-0.1055586153124762,-0.005768533392515086,-0.12398070777300263,-1.3976778380122243,-2.145673427188522,0.47992898241464593
303.0,-0.7054330343960379,0.035501403022810074,0.16945102880000001,-0.4256705852735844,-0.0013663649976544045,0.06482359634660274,-0.10558867286478767,-0.005771828929375751,-0.12397884219717453,-1.3836094787715436,-2.155253342562914,0.47277968209302385
304.0,-0.7057033300466357,0.0354473438926905,0.16947306573,-0.44559112990461425,0.0017762744969507258,0.06797849637142442,-0.10562685610818587,-0.005789700272070973,-0.12397444249991715,-1.3623255214170225,-2.169951890028154,0.46345525897026485
305.0,-0.7058886756356171,0.035401007495445155,0.16949121379,-0.45964035611807735,0.004509004492259535,0.06991575404466467,-0.10565266091534148,-0.005804966685206667,-0.1239755014127387,-1.3470970170181138,-2.180479455402267,0.4574489356400042
306.0,-0.7061744167519634,0.03533150289957713,0.16951973217000002,-0.48102873035349886,0.009154645484284511,0.07241680830980964,-0.10569032376395675,-0.005831698788067865,-0.1239792826928426,-1.323577597550512,-2.196501731175534,0.44896359475661757
307.0,-0.7064447124025612,0.03527744376945756,0.16954436168,-0.5030461744193739,0.013800286476309485,0.07450946887425178,-0.10572213924207238,-0.005859890290868245,-0.12398261242796638,-1.2990291336667847,-2.2124369504499475,0.4404342438182045
308.0,-0.7066609489230395,0.03523883010508644,0.16956250974,-0.520660129672074,0.017216198970445497,0.07629803072971274,-0.10574673946060313,-0.005880084364971488,-0.12398394533609684,-1.2793916916727122,-2.2248148814177875,0.4331409829445778
309.0,-0.7069544127722601,0.03516160277634419,0.16958713925000002,-0.5458229228902169,0.02158856696293959,0.07869520584168829,-0.10577988767248524,-0.0059003161149642535,-0.123986143497563,-1.2511896648792182,-2.2417104983210314,0.42229965594517616
310.0,-0.7072401538886064,0.03509209818047617,0.16961565763000003,-0.5705663362213907,0.026097571455199125,0.0808176055696863,-0.1058127571152156,-0.005921883335343665,-0.12399336776316751,-1.2232202594579349,-2.25808841103314,0.411817037539239
311.0,-0.7074950040734558,0.0350380390503566,0.16964028714,-0.5900675009654516,0.029923393448631458,0.08235359245419854,-0.10584166588322842,-0.005940261690934549,-0.12399900640270756,-1.2010093575186462,-2.270932019752562,0.40374293540340367
312.0,-0.7077961906555506,0.03496853445448858,0.16967010181000003,-0.611036495313904,0.034432397940890994,0.08406759848149375,-0.10587564556274119,-0.005960272239997555,-0.12400662576162517,-1.1770616885596237,-2.2848835807667984,0.3950877822769987
313.0,-0.7080664863061484,0.03489902985862056,0.16969602761000002,-0.6271826209622123,0.03825821993432332,0.085603585366006,-0.10590624654175555,-0.005975019654497076,-0.12401232865901468,-1.158650539588418,-2.2958516336214347,0.3882873858153982
314.0,-0.7083599501553689,0.034821802529878314,0.16971936083000003,-0.6426996767800671,0.04235731492728654,0.08716177266354709,-0.10593625883857741,-0.005989801128629988,-0.12401482027721418,-1.1409239032701892,-2.306653178266874,0.38181735213833884
315.0,-0.7086148003402183,0.034752297934010294,0.16973750889000003,-0.6554907633326231,0.04577322742142255,0.08870529829858637,-0.10596120142366736,-0.0060006741282695435,-0.12401516914196431,-1.126398948869002,-2.315600211396006,0.3761282298230757
316.0,-0.7089005414565647,0.034682793338142275,0.16976084211,-0.6703787493200244,0.049735685914620326,0.09053826098010499,-0.10598972006741646,-0.006014479089513636,-0.1240187038228285,-1.1094738696317072,-2.325926712428171,0.3693606078188929
317.0,-0.7091090552441687,0.034636456940896926,0.16978028646,-0.6817020062681887,0.05260505240969457,0.09179234956866489,-0.10601165591936847,-0.006024580398990281,-0.12402340102390608,-1.0965168183984908,-2.3335232669959214,0.3642140294976687
318.0,-0.7091399461756656,0.034628734208022705,0.16978287904000003,-0.6833795258160649,0.05315159840875633,0.09191842913486314,-0.10601410545723547,-0.0060267440965129804,-0.12402428827423344,-1.0945613431564483,-2.33472828935706,0.36358457842517666
319.0,-0.7096805374768613,0.03450517048203511,0.16982436032,-0.709800458695115,0.060120059896793795,0.09448566880054243,-0.10606667178613292,-0.0060476933175707456,-0.12402847549223303,-1.064038359387401,-2.352221056365648,0.3518873456084566
320.0,-0.7099585558603334,0.03444338861904132,0.16984510096000002,-0.7204946458128256,0.06339933589116437,0.09565053989843474,-0.10609503736769423,-0.00605679900531605,-0.12402879070489536,-1.0516656049802924,-2.359617270122969,0.34718521863367474
321.0,-0.7101902378465601,0.03441249768754442,0.16986324902000002,-0.7297210033261448,0.06626870238623862,0.09690462848699463,-0.10611806829169192,-0.006068207536405289,-0.12403032565747867,-1.0410821947133888,-2.3661068058368726,0.34283593334868495
322.0,-0.7104528107642838,0.03438160675604752,0.16988398966,-0.74062488038734,0.06982125138014007,0.0982550574781969,-0.10614221282552634,-0.006083188735117839,-0.12403351407850953,-1.0284871120810288,-2.3738275103941127,0.33787436443679036
323.0,-0.7106613245518878,0.03435843855742484,0.16990084143,-0.7506899976745972,0.07310052737451063,0.09909321361552698,-0.10615842507450834,-0.006097331773671474,-0.12403849052903401,-1.016668019790334,-2.380770481833056,0.3336965193153946
324.0,-0.7108930065381146,0.0343429930916764,0.16991898949,-0.7620132546227615,0.07692634936794297,0.09997577057891473,-0.10617459739314883,-0.006115283412858505,-0.12404442350276929,-1.0033137061172097,-2.388633217193919,0.329084012394151
325.0,-0.7111169657914671,0.0343429930916764,0.16993454497000002,-0.7741752713448639,0.08047889836184442,0.10083612712927362,-0.10618877537681619,-0.006132854219284618,-0.12404874820371219,-0.9889456130301293,-2.396484310862987,0.3238660143063175
326.0,-0.7113409250448196,0.0343429930916764,0.16995269303000002,-0.7886438774452961,0.08403144735574587,0.10185984115991367,-0.1062033157100033,-0.0061486309934249035,-0.12405612150183858,-0.9718835605143693,-2.405134085492396,0.3171959466789293
327.0,-0.7115417160995494,0.03435843855742484,0.16997213738000003,-0.8024834137152747,0.08758399634964732,0.10231180400956977,-0.10621556579979019,-0.006166550593771971,-0.1240669120638329,-0.9552937625141823,-2.413272082208657,0.3114448132845992
328.0,-0.7117425071542792,0.03438160675604752,0.16999028544000003,-0.8159035700982842,0.09113654534354877,0.10268208811908527,-0.10622668296411802,-0.006185183049096916,-0.12407678444923945,-0.93914284933325,-2.421148417448019,0.30593875148542027
329.0,-0.7119201300103865,0.03442022042041864,0.17001102608000002,-0.8289043465943249,0.09414254833838846,0.10317132888282425,-0.10623946819182785,-0.006202624631249276,-0.1240891419749762,-0.9235612642802074,-2.428352281333896,0.3001760545736456
330.0,-0.712043693736374,0.03445111135191554,0.17002398898,-0.8375016342771904,0.09632873233463551,0.10343061092719558,-0.10624684571143386,-0.006215860089444506,-0.12409688633139286,-0.913201337479959,-2.433230299013885,0.296511347727965
331.0,-0.7121904256609843,0.03450517048203511,0.17003954446000002,-0.8460989219600556,0.09878818933041343,0.10379377212473631,-0.10625694577928743,-0.006234301436886457,-0.12410509370547854,-0.9028406357868478,-2.438355650154714,0.29285959128048905
332.0,-0.7123448803184688,0.034582397810777356,0.17005769252000003,-0.8546962096429211,0.10138428282595681,0.10429055163900228,-0.10626862040256471,-0.006257090480452493,-0.1241149219539473,-0.8925053665889117,-2.4436225490669226,0.2891085930400109
333.0,-0.7124607213115821,0.03464417967377115,0.17007065542000002,-0.8611965978909416,0.10370710332196931,0.10484680948037997,-0.10627455772844645,-0.006276724169296422,-0.1241232318796147,-0.8847351440320038,-2.4479874114312334,0.2862036664824812
334.0,-0.7125842850375698,0.03472912973538762,0.17008361832000002,-0.8687454358563844,0.10643983331727812,0.10531384983109013,-0.10627829302295609,-0.006301516973923213,-0.12413260930329767,-0.8756228243588919,-2.4530155738485866,0.2830417903635249
335.0,-0.7126769578320604,0.03481407979700409,0.17009658122000001,-0.8748264442174356,0.1087626538132906,0.10570675019218667,-0.10628116436250058,-0.006324739066838411,-0.12414322219236296,-0.8682692672933726,-2.457179383404489,0.28052330656198626
336.0,-0.7127696306265511,0.03490675259149478,0.17010954412,-0.8811171425219714,0.11135874730883397,0.10604017222617154,-0.1062823006532362,-0.006348019183272131,-0.12415354458569339,-0.861346895587865,-2.461149530275486,0.2784022229975825
337.0,-0.7128391352224192,0.03499170265311125,0.17011991444000002,-0.8859400112221155,0.11354493130508102,0.10638113301068342,-0.10628159263055327,-0.006373297149273262,-0.12416510263745573,-0.8547500681176428,-2.4652551260987035,0.276181580115913
338.0,-0.7128854716196645,0.03507665271472772,0.17012509960000002,-0.8892950503178678,0.11491129630273542,0.10673717129624932,-0.10628042807015166,-0.006392409297344415,-0.12417018364841204,-0.8507196183377598,-2.4676724180369254,0.27467120377654997
339.0,-0.7129318080169098,0.03522338463933799,0.17013287734000002,-0.8943276089614964,0.11682420729945157,0.10770936158885687,-0.10627648650850406,-0.006423328713458594,-0.12417970240970023,-0.8448595768374428,-2.4713306958403143,0.27181321569827793
340.0,-0.7129626989484067,0.03533922563245136,0.17013935879000003,-0.8974729581137642,0.1179172992975751,0.10853327190223727,-0.10627580981083223,-0.0064460035212934395,-0.12418619447444751,-0.8412784079128777,-2.4735894239479164,0.26973889193159845
341.0,-0.7129781444141552,0.0354473438926905,0.17014454395,-0.8999892374355786,0.11887375479593319,0.10889684893833021,-0.10627352351855901,-0.006467085300769611,-0.12419260534786103,-0.8382790594128288,-2.475386240552405,0.26848496274588785
342.0,-0.7129781444141552,0.035594075817300765,0.17014972911,-0.9043927262487536,0.11996684679405671,0.10931236555100785,-0.106267360608689,-0.006493586191560903,-0.12420185078508317,-0.8330091564452393,-2.477900728091796,0.266235398442819
343.0,-0.7129935898799036,0.03574080774191103,0.17015491427,-0.9119415642141964,0.12119657529194568,0.10945310677970789,-0.1062606867507626,-0.00651802736867327,-0.1242114345306776,-0.8238286517650405,-2.4813269396351223,0.26266032464716954
344.0,-0.7130090353456521,0.0358875396665213,0.17016009943000002,-0.9232648211623607,0.12283621328913097,0.1088512005966159,-0.10624954245728357,-0.006541174151835529,-0.12422431964651418,-0.8097696499672337,-2.485931861742544,0.2580885056105332
345.0,-0.7130090353456521,0.03609605345412536,0.17016917346000002,-0.942556295962937,0.12515903378514345,0.10761052615490124,-0.1062304627018015,-0.00657054269722224,-0.12424778218667894,-0.7857737652697372,-2.4931252109663857,0.2502560401130147
346.0,-0.7130090353456521,0.036258230844484075,0.17017954378000003,-0.9582830417242763,0.12707194478185962,0.10629571172357302,-0.10621667790406111,-0.006592745787182594,-0.12426932039706878,-0.7660744129797095,-2.498783455708705,0.24420171712528765
347.0,-0.7129935898799036,0.036451299166339685,0.1701899141,-0.9744291673725846,0.1289848557785758,0.10465418233168254,-0.10620057475168757,-0.006618984139879994,-0.12429257490156591,-0.7457135119158652,-2.504363196733196,0.23831625905332532
348.0,-0.7129781444141552,0.03665981295394375,0.17020028442000001,-0.9893171533599859,0.13035122077623018,0.10304993085387501,-0.10618854728697137,-0.006645680324565278,-0.12431307665341998,-0.7269057914215424,-2.509005009903932,0.23285645718312026
349.0,-0.712970421681281,0.03686060400867359,0.17020806216,-1.0010597901951193,0.13130767627458828,0.10161657560687555,-0.10618000721036497,-0.006671760565082579,-0.12432779878999436,-0.711986178411719,-2.512438382788783,0.22874379901554853
350.0,-0.7129549762155325,0.03706911779627765,0.17021583990000003,-1.0111249074823765,0.13185422227365004,0.10043579533082478,-0.10617399877100199,-0.006698608130080434,-0.12434091090746828,-0.699215663178975,-2.515100229711438,0.22509216699305917
351.0,-0.7129163625511614,0.037308522515378605,0.17022491393000003,-1.02056095493918,0.13226413177294635,0.0993664329584705,-0.10616705815144965,-0.006730415007657626,-0.12435644997819319,-0.6872450317439401,-2.517500953239464,0.2216271561780584
352.0,-0.7128777488867902,0.03755564996735379,0.17023398796000003,-1.0287388627350764,0.13253740477247725,0.09857184597009369,-0.10616160210222007,-0.006764040852834343,-0.12437081557492997,-0.6769055414386926,-2.519520939364877,0.21847487650121425
353.0,-0.7128468579552933,0.03782594561795165,0.17024306199000003,-1.0367070805874885,0.133083950771539,0.0977177806546052,-0.10615527669514502,-0.006802841947648193,-0.12438521915686732,-0.6667583361610476,-2.521712671341902,0.21563707509456362
354.0,-0.712831412489545,0.038111686734297955,0.17025213602000003,-1.0459334381008074,0.13363049677060077,0.09686371533911667,-0.1061502716836332,-0.006842747545899633,-0.12439841842073401,-0.6550725517234917,-2.524137149221099,0.2121217539558657
355.0,-0.7128159670237965,0.03837425965202159,0.17025991376000002,-1.0555791755010957,0.13431367926942794,0.0960615896002129,-0.106143437705065,-0.006878844810478361,-0.12441145924185941,-0.6428966976873346,-2.52674990103819,0.20832267468279536
356.0,-0.7127927988251738,0.03867544623411635,0.17027028408000003,-1.06690243244926,0.13527013476778604,0.09487327057363515,-0.10613460121647064,-0.006920579866528427,-0.12442887184138285,-0.6284945243653305,-2.5298513048210327,0.20420403856887212
357.0,-0.7127541851608027,0.039007523747707995,0.1702806544,-1.0807419687192383,0.13636322676590956,0.09357353364336096,-0.10612174148135772,-0.006964957597852445,-0.12444933079447514,-0.6109701377931682,-2.533525004270739,0.1988937671893579
358.0,-0.71273101696218,0.03933187852842543,0.17028972843,-1.0943718150457327,0.13731968226426766,0.09246689335692375,-0.10611108638113584,-0.007007348180754673,-0.12446649561671064,-0.5937762172815937,-2.5369636432445675,0.19339409328778917
359.0,-0.7127078487635573,0.039671678774891306,0.17030009875000002,-1.107791971428742,0.13841277426239118,0.09124883516679015,-0.1061003999552427,-0.007052783481655359,-0.12448497890280674,-0.5767671432669587,-2.540385877401578,0.18819706587152588
360.0,-0.7126924032978089,0.04004236995285408,0.17031306165,-1.1207927479247826,0.13936922976074928,0.09014219488035292,-0.10609341122301529,-0.007102991792954003,-0.12450363013087885,-0.5602941003173559,-2.543538713315165,0.18307664034850687
361.0,-0.7126769578320604,0.04038217019931996,0.17032472826000003,-1.1323256948164315,0.14005241225957646,0.0890133541808869,-0.10608828078064801,-0.007148467433449758,-0.1245196645957713,-0.5456248924069447,-2.5460757941317467,0.17867515533072906
362.0,-0.712661512366312,0.04077602957590541,0.17033898745,-1.146584610973379,0.14073559475840366,0.08780283474128028,-0.10608365201587264,-0.007199531952897278,-0.12453833443282142,-0.5275769735274642,-2.548995524046337,0.1729137902005934
363.0,-0.712661512366312,0.04113127528811974,0.17035454293000002,-1.1600047673563887,0.1415554137569963,0.08639921865783672,-0.10608141234164543,-0.007245544927207959,-0.12455672230779342,-0.5104754386285866,-2.551754860499952,0.16784915988683835
364.0,-0.712661512366312,0.04159463926057321,0.17037398728000003,-1.1763605829481816,0.1425118692553544,0.08463914845027501,-0.10607929495638688,-0.0073061157148193705,-0.12457902088859885,-0.4895930599871665,-2.5549584405572165,0.16175083011330396
365.0,-0.712661512366312,0.04194216223991331,0.17038954276,-1.1878935298398305,0.14346832475371246,0.08312411446313502,-0.10607694986099699,-0.007353011122227991,-0.1245971677468902,-0.47472837140859475,-2.557372599686258,0.15788424416733304
366.0,-0.7126537896334377,0.0424441398767379,0.17041546856,-1.204039655488139,0.14469805325160143,0.08114120844818047,-0.10607623812142719,-0.007420618417984591,-0.12462585069850364,-0.4539655273144144,-2.5605814492065324,0.1522681123368407
367.0,-0.7126460669005635,0.04278394012320379,0.17043361662,-1.2147338426058496,0.14551787225019408,0.07981927110487744,-0.10607607693129435,-0.0074664145880956375,-0.12464576773682831,-0.44020295558695155,-2.5626494152194677,0.14855785566154264
368.0,-0.7126383441676893,0.04323958136278303,0.17045824613000002,-1.2287830688193129,0.14633769124878673,0.0784973337615744,-0.10607862270377298,-0.007527074603945931,-0.12467097863674755,-0.42228721726919116,-2.5651037435333697,0.1430963346518622
369.0,-0.712630621434815,0.04371839080098495,0.17048546822000002,-1.2424129151458068,0.1470208737476139,0.07777688676281116,-0.10608400412924976,-0.007591518592731277,-0.12469714283616808,-0.40509984651083786,-2.5673824954190647,0.13708912223349648
370.0,-0.7126228987019408,0.04422809117068377,0.17051528289,-1.2560427614723009,0.14770405624644115,0.07721979724432908,-0.10609104913563444,-0.007660920494561456,-0.12472495609190543,-0.38795112987924,-2.5695938166994736,0.13089934360997554
371.0,-0.7126151759690666,0.04464511874589189,0.17054120869000003,-1.266527258646527,0.14825060224550288,0.07661076814926226,-0.10609800258639963,-0.007718439301814892,-0.12474865684371272,-0.3746737702687342,-2.5712246011764632,0.12639545395241558
372.0,-0.7126074532361925,0.04513165091696803,0.17057102336000002,-1.2776408256512068,0.14879714824456466,0.07583838157391433,-0.10610705351900436,-0.007786582967431961,-0.12477499213356635,-0.3605270458585634,-2.5728445338742905,0.12182483101721317
373.0,-0.7125842850375698,0.045641351286666854,0.17060343061000002,-1.2883350127689177,0.1493436942436264,0.07482095877814471,-0.10611593593170567,-0.007859059014703228,-0.12480456483289994,-0.34678718316191914,-2.574345246932027,0.1178240670235228
374.0,-0.7125611168389471,0.04610471525912032,0.17062935641000002,-1.2967226105082985,0.14989024024268818,0.07388521472251566,-0.10612144539510973,-0.0079265461475445,-0.12482876011100341,-0.33591484513131004,-2.575594493786377,0.11495556749629195
375.0,-0.7125379486403244,0.04665302929319026,0.17066046737,-1.306158657965102,0.1503001497419845,0.07289753109030186,-0.10613072001330215,-0.008006420506875849,-0.12485596599725149,-0.3237051106601421,-2.5767638726694195,0.11163947531321716
376.0,-0.7125147804417017,0.047201343327260205,0.1706954672,-1.3158043953653904,0.15084669574104626,0.07171675081425116,-0.1061415070639613,-0.008086435064204775,-0.12488670304056902,-0.31115667316052686,-2.5780153065168654,0.10847146704460917
377.0,-0.7124838895102048,0.04769559823121057,0.17072528187000002,-1.3237726132178023,0.15111996874057715,0.07116720004629604,-0.10615070533070343,-0.008158900246730388,-0.12491288246861147,-0.3009382619449918,-2.5789080538001987,0.105324820691855
378.0,-0.7124375531129594,0.04829797139540008,0.17075898541,-1.3325795908441522,0.15152987823987346,0.07091462507534735,-0.10615633352497161,-0.008233595091993699,-0.12493826710240377,-0.29155276012279063,-2.5798943488597583,0.10228218756721305
379.0,-0.7123989394485883,0.0488076717650989,0.17079009637,-1.3394993589791415,0.15180315123940433,0.07110018296865733,-0.10616803252936648,-0.008324802320539244,-0.12497120713788211,-0.2810586404903423,-2.5808719114081784,0.09798169132121211
380.0,-0.7123448803184688,0.04937915399779152,0.17082509620000003,-1.3466288170576155,0.1520764242389352,0.07120406212182673,-0.10617755257112749,-0.008411218422947597,-0.12500284843315868,-0.2720605301911428,-2.5817136951365356,0.09455102970400012
381.0,-0.7122908211883492,0.04995835896335835,0.17085750345,-1.3527098254186665,0.15221306073870067,0.07158271665897367,-0.10618658216997848,-0.00849991525512488,-0.1250315198966237,-0.26444784362046503,-2.5823595957388057,0.0913477060851023
382.0,-0.7122290393253554,0.050545286661799416,0.17088602183,-1.3579520740057798,0.15289624323752785,0.0715973783214755,-0.10618804927543858,-0.008591821604095483,-0.1250602829759593,-0.25767961279247614,-2.5834506563062267,0.08916271440711693
383.0,-0.7121595347294873,0.05105498703149823,0.17091324392,-1.36214587287547,0.15385269873588595,0.07147088291672504,-0.10618621889897024,-0.008672863992166801,-0.12509035024169915,-0.25216195940462943,-2.5847291873263774,0.08768613895884175
384.0,-0.7120823074007452,0.05165736019568774,0.17094565117000002,-1.3665493616886453,0.15480915423424405,0.07126270877183402,-0.10618534629872117,-0.008757991973316122,-0.12511949206855455,-0.24713314635636585,-2.5858374527003574,0.08652078424931686
385.0,-0.7120128028048771,0.052197951496883464,0.17097546584,-1.3703237806713666,0.15576560973260212,0.07080949840652134,-0.10618591298415234,-0.008855767663537989,-0.12515618757600055,-0.2411600269729752,-2.587222121612418,0.08551328623092894
386.0,-0.7119432982090091,0.05279260192819875,0.17101046567000003,-1.3747272694845416,0.15685870173072564,0.07065326383821502,-0.1061874983793804,-0.008950954603350117,-0.1251921126095571,-0.23531332102688843,-2.588618651973002,0.08405974029497025
387.0,-0.7118506254145184,0.05340269782526248,0.17104416921,-1.3791307582977166,0.1580884302286146,0.07030393262607174,-0.10618416170147704,-0.009048777184986477,-0.12522998879491556,-0.22937770713010167,-2.5901446299410353,0.08288116418930609
388.0,-0.7117656753529019,0.0539432891264582,0.17107528017,-1.3831148672239226,0.15890824922720723,0.07004381890459599,-0.10618368927904127,-0.009134920356691957,-0.12526352239387617,-0.22405564518522775,-2.591227904716336,0.0816914735120065
389.0,-0.7116730025584113,0.05456883048927039,0.17111157629,-1.3885668057545204,0.16000134122533075,0.06972422685600857,-0.10618277122722694,-0.009233602171517846,-0.12530275746873623,-0.21684964326065193,-2.592634552473349,0.07987004334515521
390.0,-0.7115880524967948,0.05509397632471765,0.17114268725,-1.3938090543416335,0.16095779672368885,0.06927101649069586,-0.10618110490538508,-0.00931552928575736,-0.12533722017047705,-0.2099170230584654,-2.593851148874823,0.07819866546807118
391.0,-0.7115031024351783,0.05567318129028449,0.17117768708000003,-1.400938512420107,0.16205088872181236,0.06886974570196788,-0.10618031580589743,-0.009403958634541555,-0.12537524163332298,-0.2006559300686006,-2.5952497149670344,0.07545558454251879
392.0,-0.7114027069078134,0.056360504516090475,0.17121916836,-1.411632699537818,0.16396379971852854,0.06779996749106132,-0.10617435701308454,-0.009506307624294752,-0.12542350588990403,-0.18667347592008124,-2.5974855827660894,0.07173405615412713
393.0,-0.7113023113804484,0.05691654128303464,0.17125416819000003,-1.420859057051137,0.1654668012159484,0.06690108551096294,-0.10616837116035886,-0.009588031821447834,-0.1254654981569327,-0.17465202764748708,-2.59923259801635,0.06841373879046282
394.0,-0.7111941931202094,0.05754208264584682,0.17129435318000003,-1.430504794451425,0.16696980271336823,0.06583884605058343,-0.10616434548186264,-0.009680619991278503,-0.12551171351904133,-0.16201972266873868,-2.6009410514331215,0.06513209315518469
395.0,-0.7111092430585928,0.058167624008659005,0.17133583446000003,-1.4382633223603525,0.16874607721031895,0.06504384322365447,-0.10616216151760474,-0.009776198483341504,-0.12555722260348154,-0.1517648094635039,-2.602857625757136,0.06259042763352297
396.0,-0.7110165702641021,0.058793165371471195,0.17137731574,-1.4445540206648884,0.17079562470680054,0.06418936206961376,-0.10615826668187152,-0.00986208647082041,-0.12559802548476215,-0.14439965632492038,-2.604726654952219,0.06116068021727809
397.0,-0.7109393429353599,0.05927197480967311,0.17140972299,-1.4483284396476097,0.17243526270398585,0.0636691346266623,-0.10615220517420786,-0.009950608834956331,-0.12564178769554227,-0.13806259902030255,-2.6067342191085943,0.060152494138365015
398.0,-0.710838947407995,0.059897516172485295,0.17145509314000001,-1.4529416184042694,0.17448481020046747,0.06305968969304332,-0.1061486767644909,-0.010051033505172018,-0.12569228155955514,-0.13169252114201985,-2.608881354796179,0.05915786321517151
399.0,-0.7107153836820074,0.06055394846679438,0.17150305587,-1.4571354172739597,0.17612444819765274,0.06253946225009188,-0.10614690618738447,-0.010156860678206371,-0.1257449324275449,-0.12588117198748353,-2.6106379854526356,0.05829232509924701
400.0,-0.7106072654217682,0.06117176709673234,0.17154712973000003,-1.460909836256681,0.1773541766955417,0.0621901310379486,-0.10614799275401808,-0.01025633081243523,-0.1257912850142688,-0.12069571382110612,-2.611969151505493,0.0573710974901842
401.0,-0.7105145926272776,0.0617278038636765,0.17158342585000003,-1.4642648753524337,0.17831063219389978,0.061818599412776454,-0.1061485054771076,-0.01034555313424556,-0.12582921827240523,-0.11607083178932202,-2.613001477902797,0.056628706607097214
402.0,-0.7104064743670384,0.062361067959362915,0.17163009229,-1.4676199144481858,0.1794037241920233,0.061580686104329596,-0.10615219557100271,-0.010448224652388616,-0.12587659842637294,-0.1114371103326183,-2.6141894482065675,0.05580799265727023
403.0,-0.7102983561067993,0.0629557183906782,0.17167675873000002,-1.4703458837134846,0.18049681619014685,0.06126109405574212,-0.10615614234339521,-0.010545542250288508,-0.1259241117495687,-0.10756459686697364,-2.615370452520614,0.055409215701002316
