jabarragann/KinematicCalibDVRK/scripts/test_fk_ik/data/raw_sensor_rosbag_09_traj3.csv
traj_index,marker_x,marker_y,marker_z,marker_rx,marker_ry,marker_rz,marker_reg_error,measured_q1,measured_q2,measured_q3,measured_q4,measured_q5,measured_q6,measured_x,measured_y,measured_z,measured_rx,measured_ry,measured_rz,setpoint_q1,setpoint_q2,setpoint_q3,setpoint_q4,setpoint_q5,setpoint_q6,setpoint_x,setpoint_y,setpoint_z,setpoint_rx,setpoint_ry,setpoint_rz
0.0,0.1854147033691406,0.2179349365234375,1.337994873046875,-2.9731698957181982,0.1300273016394206,0.8462261994562907,0.0001170448809862,0.134120701826657,-0.035879816933647,0.20208512955,-0.0702461310673156,-0.2790117325210294,-0.2605151129917668,0.0259039642756199,0.0095025794365345,-0.1932898638374027,-1.8677832747440988,-2.1313409439221145,-0.1629312059987221,0.1347385312240051,-0.0374275647872904,0.2021902534682952,-0.0730139574540928,-0.2853904540999996,-0.2511946665103661,0.0260221509868486,0.0098628020418959,-0.1933465407499804,-1.864701499970883,-2.13421805957343,-0.1803079172517812
1.0,0.1839079437255859,0.2170687255859375,1.3391959228515626,-2.9498547154150563,0.0286346849487963,0.8709569093940228,0.000117720760405,0.1358892076548544,-0.0359802124610119,0.20211494422,-0.0702461310673156,-0.2790117325210294,-0.1896179665497588,0.0262496649889407,0.0095232309231446,-0.1932723247656083,-1.90710799363342,-2.1532122382481456,-0.2433726548562181,0.1367536326649102,-0.0377050201814059,0.2022377622767822,-0.07348100310561,-0.2850772223443972,-0.1814155959721827,0.0264169494914885,0.0099159382454726,-0.1933390588287395,-1.902961345425343,-2.155840778971302,-0.2598099679825227
2.0,0.1813438415527344,0.2152982788085937,1.3409029541015625,-2.8955817379934525,-0.1878611586207478,0.8868237214548609,0.0001332060694694,0.1384299867704743,-0.0370922859949003,0.20252846073,-0.0945701645115204,-0.2775087310236095,-0.0359806721839134,0.0267378554877013,0.0097375089571776,-0.1936162722911679,-1.961786324648637,-2.217842213079372,-0.416993567826077,0.139361368869155,-0.0389150203602117,0.2026637035103281,-0.0982563848368903,-0.2817763828185191,-0.0290777560959266,0.0269200680731561,0.010134832484847,-0.1936969917778206,-1.957255721348742,-2.2202079547102715,-0.4309897910132163
3.0,0.1804328460693359,0.2140191802978515,1.340530029296875,-2.8594662246063423,-0.3583429633292649,0.8110405587654305,0.0001361778825521,0.139966810612445,-0.0389457418847142,0.20285382952,-0.1711069938833718,-0.2564667100597317,0.0800789958160946,0.0269302462769088,0.0099072867631035,-0.1939586609464101,-1.940711086076477,-2.3295993837669813,-0.5291653622793124,0.1409799871644612,-0.0406385954935794,0.2029763489691836,-0.1738544184623396,-0.2570806605299464,0.0839723075195597,0.0271342176718942,0.0102479159483431,-0.1940350323287875,-1.9378914068673083,-2.3321430265337644,-0.5369923004840282
4.0,0.1783260955810547,0.2110724945068359,1.3417618408203125,-2.768525244049262,-0.5878036676930681,0.8201600850293443,0.0001408935636281,0.1413877934613023,-0.0413397890757238,0.20282271856,-0.1968988569319683,-0.2124697571352599,0.2342688591329352,0.0272308808596117,0.0099861968140121,-0.193970974824984,1.9142939709983344,2.3147426079446483,0.6670783179573798,0.1424347373438463,-0.0430818269868024,0.2028509604281142,-0.2003923040949435,-0.2116089471047192,0.2374200028705587,0.0274307275000338,0.0103198671776008,-0.1939554982066967,1.908403199182684,2.3155018373915444,0.6722638680545557
5.0,0.1766855316162109,0.2087126007080078,1.3430738525390624,-2.654512467819984,-0.7665490496496323,0.8055324667812199,0.0001572291404008,0.1441525318302747,-0.0448381870677475,0.20256605314,-0.2170290915064827,-0.1609577967236888,0.3743262212126976,0.0278011944150495,0.0102065357115037,-0.1937029474472151,1.8071372897672184,2.208421984717253,0.7576051436166478,0.145105493820103,-0.0465010100417138,0.2025231227909754,-0.2204551105008344,-0.1585954708551443,0.3760101204292346,0.0279774854996776,0.0105083081556354,-0.1936212891449142,1.8014156746404928,2.209588354791274,0.7596823410364024
6.0,0.1748291625976562,0.2058039398193359,1.3438410644531251,-2.561062497594682,-0.9288350930659643,0.8398915248645566,0.0001440023332834,0.1463071743021833,-0.0501514272852139,0.20272808939,-0.1610418765961147,-0.1538526987358859,0.5058344523967688,0.0283250607859778,0.0112071246762817,-0.1937455133480398,1.7962771576394496,2.044895314365341,0.8736605100859095,0.1472919328032466,-0.051743678510823,0.2028268517811958,-0.160336566866335,-0.1506654408264059,0.5072907055066148,0.0285340057381495,0.0114961112763547,-0.1938021628393677,1.794446668171748,2.041942551941914,0.8740358282164381
7.0,0.1733195495605468,0.2033643188476562,1.34583642578125,-2.444185734100768,-1.0402506705982788,0.9109707823716444,0.000145145907998,0.1474115251031974,-0.054831403406994,0.20278771873,-0.1058934214596847,-0.1375929552637985,0.6132152210445051,0.0286346674662838,0.0119926696565304,-0.1937340979949877,1.7825496322470835,1.899363495442407,0.9416125736529184,0.148471251260203,-0.0564608184371837,0.202894762574067,-0.1051343453828394,-0.1349721412497599,0.6153883469956675,0.0288568950621598,0.0122946193589162,-0.1937937578533402,1.7805179400560398,1.89600233254056,0.9429900857878905
8.0,0.1727140808105468,0.2030280303955078,1.3483762207031251,-2.4000607401181657,-1.0217251106387883,0.9943332956977065,0.0001494066864252,0.1486317168973249,-0.0537579435374768,0.20271512649,-0.0333407010140393,-0.1702490787077388,0.6351884118399378,0.0289327147919836,0.0120754346273755,-0.1935670969408245,1.848813706107461,1.8059687682454928,0.9768946532455984,0.1496264233558699,-0.05495375485648,0.2026842390963779,-0.0311380684586994,-0.1703402597605147,0.6383424709659558,0.0291217746157754,0.0123086881359853,-0.1934926171246489,1.8486252616209944,1.8004677972220595,0.9808578361970096
9.0,0.1725926666259765,0.2027250823974609,1.3491273193359374,-2.3875191132657414,-1.0215216769917508,1.039057916423653,0.0001330249309539,0.1479057800071478,-0.0537579435374768,0.20284864436,-0.0029356592087833,-0.192657464669271,0.6391671685215525,0.0288506033409019,0.0122817544478763,-0.1936660489407702,1.8837504843893893,1.770276077931969,0.99667499015192,0.1484778941381988,-0.0549413601303236,0.2029490196033701,-0.0012241535685279,-0.1954184880468967,0.6429383405270609,0.0289760574554741,0.012543331585012,-0.1937275619583165,1.8843696788484352,1.7649378702608505,1.0037186370182427
10.0,0.1729509887695312,0.2026065368652344,1.34947314453125,-2.37614407298037,-1.0235696870887534,1.0742818452782057,0.0001543749570846,0.1446545094670993,-0.0534490342225078,0.20304308786,0.0203399245179988,-0.2096003906401856,0.6481639429116156,0.0282869018174789,0.0123804826705263,-0.1939100172293737,1.9081744959095923,1.7386767762989996,1.013248455725571,0.1451056637040804,-0.0544259775110581,0.2031651499674643,0.0226467174522683,-0.2140607866238698,0.6527328115519018,0.0283939104208899,0.012617616679792,-0.1939944518609669,1.9095420573792663,1.7318918876128244,1.0221775962250887
11.0,0.173262939453125,0.2023399505615234,1.3495826416015626,-2.374848794480558,-1.022857845045931,1.0785658680334078,0.0001360229551792,0.1434883768030914,-0.0525995336063431,0.2027267931,0.0239046535572357,-0.2115133016369018,0.6502138660042088,0.0280235190386152,0.0122140318637105,-0.1936351028132728,1.9112606617634804,1.7336183882261182,1.0140573510981998,0.1436646316439124,-0.0534817910498003,0.2026907226675383,0.0273496510448711,-0.2164672733887266,0.6556555028878441,0.0280569364274492,0.0124280077258269,-0.1935708755646347,1.913409952705622,1.7249499348812989,1.0235066709279768
12.0,0.1734775848388672,0.2020210418701171,1.349312255859375,-2.423685786029932,-0.970677076520813,1.1000491076221603,0.0001483169645071,0.1433184766798584,-0.0514797373395805,0.20164179837,0.0331310110705548,-0.2269532261103966,0.5724674025264427,0.0278543619850118,0.01207390637387,-0.1925405048104241,1.9726947006430957,1.7874466940261766,0.9741323951512828,0.1432789843059533,-0.0522117269930493,0.2015753105425836,0.036549556663909,-0.2312316123579685,0.5737620296699347,0.0278427614807037,0.0122499719658746,-0.1924552082898548,1.9771146495656111,1.7825210367485034,0.980038647487809
13.0,0.1744459838867187,0.2056373443603515,1.3469217529296875,-2.5882835485456823,-0.7535261267072716,1.076454711221706,0.0001669137477874,0.1422141258788443,-0.0505916230590447,0.20121402267,0.0167751954787619,-0.2456724265782619,0.36801584435474,0.0275454367079854,0.0120436796603101,-0.1921153643749722,2.0836988034213517,1.977906820948339,0.8406883815291303,0.1421283640218993,-0.0512646561974085,0.2011259400441557,0.0168308536935138,-0.2502694986828139,0.369427162046866,0.0275143958286674,0.0122097517923252,-0.1920102568822317,2.0852120491345034,1.9775014922506595,0.8480306995852044
14.0,0.1777147216796875,0.2105761566162109,1.3408037109375,-2.828191846536245,-0.4254718919227401,0.9503213825747168,0.0001391414999961,0.1390632508661607,-0.0502518228125788,0.20126846685,-0.086811636602593,-0.279831551519622,0.0842659266426003,0.026682287355379,0.0122670533541987,-0.1922001152748165,-2.018661128074183,-2.2247374884957942,-0.579793884950242,0.1389323562882196,-0.050780442436075,0.2013146129081104,-0.0883348818715953,-0.2843915274321575,0.0854455061921914,0.0266534761231006,0.0124106971528938,-0.1922304099537481,-2.0141397939862182,-2.223069877274109,-0.5852927825671551
15.0,0.182820327758789,0.2145055084228515,1.3344075927734376,-3.025135251071219,-0.0096596206079106,0.7833381615887288,0.0001166983693838,0.1382060275171218,-0.049603113251144,0.20137735521,-0.1318949744517658,-0.317679861954649,-0.2349463942759406,0.0263630743471645,0.012455078662219,-0.1922442600233279,-1.782985072548657,-2.179334124758765,-0.2239289252769455,0.1379294690606557,-0.0500776391216082,0.2014609327435785,-0.1339705228531324,-0.3219019007929235,-0.2344677925889631,0.0263080484381661,0.0125860544845978,-0.1923161195491093,-1.7776644454817792,-2.1791332964136645,-0.2276965828860351
16.0,0.1879052276611328,0.2165709991455078,1.33047607421875,3.041004668736269,-0.2771158326246106,-0.6078690521116764,7.094127684831619e-05,0.1370707857846108,-0.0486918307719855,0.20136309602,-0.1815914910575981,-0.3225987759462049,-0.4404413182034116,0.0259965430334776,0.0122965819945292,-0.1922763428552187,-1.617960248326705,-2.159554298656736,0.0185764996548718,0.1368072663907464,-0.0491376655624715,0.2013684449832108,-0.183629017057519,-0.3270807840313668,-0.4407377233734885,0.0259311125976488,0.0124195984467014,-0.1922701026801763,-1.612026504704025,-2.159454584283633,0.0156127733553094
17.0,0.1933053741455078,0.2170877990722656,1.327677490234375,2.981800747219685,-0.547829261479927,-0.4823629333039204,3.42424176633358e-05,0.1332866466762408,-0.0460197651975038,0.20069939554,-0.1962697871015148,-0.3286107819358843,-0.633528196541492,0.0251310943789608,0.011789591604901,-0.1917356911735944,-1.4903132654511873,-2.0953923859543404,0.2275452710042139,0.1331777644979336,-0.0465218629810773,0.200595137857479,-0.1994122537906767,-0.3328705783162906,-0.6344784275464658,0.0250775513952145,0.011915334490412,-0.1916174419893652,-1.483155476242343,-2.096587339120925,0.2259400820202078
18.0,0.1991659545898437,0.2163439331054687,1.32556640625,2.9213422783891443,-0.7482727728100453,-0.3543523025987688,1.509041152894497e-05,0.1272629150343457,-0.0397720743022562,0.19978680738,-0.228352348454647,-0.3469200729044532,-0.775012984815348,0.0237344838133416,0.010675896735078,-0.1910046485300513,-1.3659417637025382,-2.052654024747145,0.3797069201289563,0.1272336176096481,-0.0404596057110902,0.1997051347916214,-0.2305405406955677,-0.3508541998327844,-0.775798756211312,0.0237017182021528,0.0108356142106253,-0.1909055018819585,-1.3598930857672076,-2.0534119199628984,0.3776712734763111
19.0,0.2036971282958984,0.2151398620605469,1.3241630859375,2.884634331871413,-0.8452504828510446,-0.261523764897436,2.110794559121132e-05,0.1195479048929954,-0.0338564609206002,0.19889236728,-0.2619027394121709,-0.3694650953657509,-0.8408398117903582,0.0220021105475268,0.0096647092262774,-0.1902950689757684,-1.2800158251786609,-2.03825855417892,0.4538708598873712,0.1196008998851194,-0.0344511852665979,0.1988196129628119,-0.2640077224434509,-0.3734001911628999,-0.8416476026087969,0.0219858776132116,0.0098060746399755,-0.190203869740654,-1.274117995591885,-2.038989040014255,0.4519601377071582
20.0,0.2051463928222656,0.2146613311767578,1.323661865234375,2.8757754435380187,-0.8630466365070271,-0.2667774573975389,2.08569560199976e-05,0.1125974453061933,-0.0321574596882708,0.19818848181,-0.2541442115032435,-0.3620867243784171,-0.8526555691399449,0.0206447685176573,0.009263218260413,-0.1897814125243305,-1.2835723105059127,-2.021939340433728,0.472505386942655,0.1126009154789823,-0.0323124309256951,0.198115392126658,-0.2544692371725625,-0.3630133188598205,-0.8573930066432164,0.020633714706992,0.0092977064287094,-0.1897044537032865,-1.279596346083599,-2.019817555692031,0.476279766987279
21.0,0.2051168212890625,0.2149698181152343,1.3235531005859376,2.8665795551028195,-0.863155392023448,-0.2891996607093003,2.0503954961895944e-05,0.1096782522797364,-0.0321729051540193,0.19847107303,-0.2059155245018029,-0.3608569958805282,-0.8521064342105421,0.020274491307043,0.0093005696528645,-0.190107799450626,-1.3248224081323103,-1.9832552472763303,0.4474044653232287,0.109506815713158,-0.0325314402375507,0.1985556621192252,-0.2055285399496794,-0.3612324199113533,-0.8554297594985685,0.0202511914509023,0.0093752088873831,-0.1901906134018291,-1.322464033311028,-1.9812469576743812,0.4497240379909644
22.0,0.2042615814208984,0.2160009002685547,1.323812255859375,2.864086028330429,-0.8598798803011137,-0.3237071021876483,1.2478537857532502e-05,0.1097477568756045,-0.0334857697426374,0.19934995765,-0.1696391642789802,-0.3558014453892069,-0.8249459391734744,0.0205054453073539,0.0095608331778192,-0.1909705756296816,-1.3754615645826878,-1.9681430095851724,0.4047065174920041,0.1097137548642012,-0.0344493015981856,0.1994532825466934,-0.1684474577251765,-0.3564494431022927,-0.8242845371042148,0.0205117730060126,0.0097554607402373,-0.1910621130815045,-1.375651809359558,-1.9674433181932924,0.401952235905255
23.0,0.2017945404052734,0.2174172668457031,1.3245697021484375,2.8841669432127737,-0.8049457273022274,-0.3938732040764147,9.864798747003078e-06,0.1109061668067381,-0.0370768405291518,0.20035717498,-0.1388147425867551,-0.3366723354220452,-0.7723426976736039,0.0209597315269774,0.0101429715947774,-0.1919625795587557,-1.447414554308288,-1.9698125606856045,0.3511339890633841,0.1111585397480119,-0.0382137118694299,0.2004575958145062,-0.1379540552672996,-0.336849854809222,-0.7695952465987459,0.0210202872499174,0.0103681805040455,-0.1920445657886447,-1.449009651702488,-1.9704913150748355,0.3466696736269869
24.0,0.1963965148925781,0.2196007690429687,1.3260328369140626,2.960948633865287,-0.5816600019417386,-0.4802569350680895,2.4545053020119663e-05,0.1157946567161223,-0.0434558178832613,0.20294456982,-0.1377662928693325,-0.3264245979396372,-0.6110522971788876,0.0222076886497714,0.0114014635811804,-0.1943894083730785,-1.5529902445237491,-2.0415995894115926,0.1942882777007871,0.1161947911001231,-0.0449103442021056,0.2030400528946027,-0.1363756052630831,-0.3261956281134593,-0.6082241036679108,0.0222989250192632,0.0116889521185877,-0.1944588008733552,-1.5552405222077603,-2.0417119213948163,0.1892887014456626
25.0,0.1881528625488281,0.2203919372558593,1.3290264892578123,3.0567579323523213,-0.1444179969361785,-0.5759185828950697,7.730504870414734e-05,0.1273478650959621,-0.0490779674156967,0.2064601083,-0.2275135886807089,-0.3614035418795899,-0.2832584099575838,0.0245518703793765,0.0129125719446706,-0.1974591568082865,-1.6241988620454253,-2.224580940443348,-0.1630107218147863,0.1279571345022753,-0.0507556957768389,0.2065464614037757,-0.2289596289496507,-0.3647552575247015,-0.277508677365238,0.0246679097744521,0.01327689787514,-0.1974972634898741,-1.622327390415369,-2.225631082995515,-0.1740486522158808
26.0,0.1812151336669921,0.2168840637207031,1.33191064453125,-3.02074371312178,-0.3029734712421141,0.6188536325677074,0.0001139529719948,0.1410479932148364,-0.0550167489959754,0.20697603172,-0.2939853007653031,-0.323555231444563,0.0001786227793909,0.0272234084889769,0.0137637017302343,-0.197684977521105,-1.7091359726341409,-2.37327678832765,-0.4720594328220912,0.1416909340562763,-0.0567775163935067,0.2070782171410796,-0.2961268662560894,-0.3232934749635544,0.0032089610400956,0.027356365916751,0.0141169258632781,-0.1977458488741949,-1.7070982574712668,-2.3753144543104177,-0.4776717848807286
27.0,0.1764324340820312,0.2135362701416015,1.3345001220703123,-2.884150727306308,-0.6026193689972078,0.6509117712686981,0.0001240783035755,0.1511029914170767,-0.0625155226168474,0.20650288587,-0.318728714096477,-0.2477219740747435,0.1995502971973951,0.0292951688127649,0.0145933150657642,-0.1970378572803346,-1.7962165124851217,-2.481428581498751,-0.6929563717058083,0.1517769240428194,-0.0641595921085104,0.2064546205392756,-0.3209589565049824,-0.2454077492470107,0.2011938808328839,0.0294196791393933,0.0148971316218733,-0.1969526127897314,1.7928606183377842,2.482674544382077,0.6951964474777901
28.0,0.1725238800048828,0.209751708984375,1.3368251953125,-2.748357775891133,-0.8476527881442566,0.7150687749726525,0.0001234169080853,0.1586635469009425,-0.0685392542587425,0.20643029363,-0.2616930494686864,-0.2167054886279885,0.3848262251406769,0.0309614075640094,0.0155641004984951,-0.1966978326588998,1.7753352491483398,2.257714729891936,0.8696556130903601,0.1594230530320382,-0.0703502370935279,0.2063679801288784,-0.2612973570129838,-0.2140536251453769,0.3864676508283161,0.0311042173406393,0.0158981399506651,-0.1965902989527317,1.77372799588831,2.254905030110584,0.8712746605598757
29.0,0.1696184844970703,0.2062192230224609,1.338206787109375,-2.6448559145699835,-1.0257808587094892,0.7708122941462865,0.0001143360137939,0.1657144020151095,-0.0747637769553674,0.20643288621,-0.2409337450637185,-0.2102835731390128,0.5216289127713828,0.0323861632339182,0.0167590951421258,-0.1963846173272575,1.72955083791815,2.115037121525277,1.001505171739318,0.1664674856709193,-0.0766266570474152,0.2064161274398491,-0.2396754459619034,-0.2071018836905668,0.5232782801396192,0.0325363021402662,0.017102155949457,-0.1963189983259084,1.728438695771234,2.111297064420715,1.0022747701640715
30.0,0.1674558410644531,0.2020021514892578,1.3391348876953126,-2.522641585087801,-1.2179818104008873,0.806439079025619,0.0001125150322914,0.1726648616019115,-0.080872458658879,0.20622936868,-0.2384174657419041,-0.2030418386514445,0.6724652662052114,0.0337200030880797,0.0178979398577793,-0.195865190357718,1.6518205223847364,1.9755720858764203,1.133155119823547,0.1735231996035043,-0.0827904137938446,0.2061692360047481,-0.236990870869905,-0.1999933662723161,0.6744974096423678,0.033881887690927,0.0182488639501385,-0.1957489877667925,1.6504560711391436,1.97137453939423,1.1341871892663002
31.0,0.1658253936767578,0.19847265625,1.340417236328125,-2.417460003618757,-1.3436598170044902,0.8591782457459668,0.0001071230694651,0.1785341385863222,-0.0858536213627538,0.2058378891,-0.2126256026933077,-0.2020853831530864,0.7778677030620674,0.0348309074980113,0.0188565217291446,-0.1951829220135909,1.617586885696826,1.851484560806618,1.2169418838124808,0.1793592321640839,-0.0878753907729129,0.2057782818053387,-0.2116040888138728,-0.1992412133102422,0.7800392293596637,0.0349828081611729,0.0192282424785642,-0.1950636697407198,1.615823431447264,1.847692192142084,1.2182099913122006
32.0,0.1651500244140625,0.19653564453125,1.34138427734375,-2.370563970976056,-1.3942916481884469,0.8782081283092381,0.0001070790961384,0.1831600555779827,-0.0859231259586219,0.2052545586,-0.2031895552365041,-0.205364659147457,0.8230146776238738,0.0356365207167677,0.0188517837216161,-0.1944363358397879,1.5994775554051044,1.7985605618592604,1.2530762614208069,0.1838804323604051,-0.0879637372057633,0.2051739071414462,-0.2017381862369998,-0.2050418819100987,0.827201517817835,0.035758085431304,0.0192458216204746,-0.194293598247802,1.598464463330478,1.7925616809397826,1.2580550190369784
33.0,0.1650127563476562,0.1963114929199219,1.3421859130859377,-2.35884341764175,-1.3889446053380636,0.8984068747988513,0.0001083559766411,0.1838010424065433,-0.0846411523015006,0.20510937412,-0.1859949798707731,-0.227089862610162,0.8322355353369864,0.0357240120574147,0.0187777240043242,-0.1942377930912008,1.6203102001877123,1.7719612578633204,1.2755817085380434,0.1848124197729116,-0.0862819684010575,0.2050209686400683,-0.1847816656330343,-0.2269066276464537,0.8346794944533363,0.0359013270116156,0.0190930311301476,-0.194084399378683,1.619657223240642,1.7676197816046062,1.2792002259436464
34.0,0.1650850219726562,0.1961194915771484,1.3426734619140626,-2.366114044259973,-1.3813036656455655,0.921351539686178,0.0001091052442789,0.1837933196736691,-0.0833746241101278,0.2049823377,-0.1734135832617016,-0.2494982485716942,0.8161213219440229,0.0356832059979455,0.018712078350536,-0.1940749294835152,1.6515684714439942,1.7730379849269162,1.2825121975133569,0.1846536626503689,-0.0848245014313044,0.2048780216608285,-0.1720708632398432,-0.2503962415806021,0.8160626740753079,0.0358271495101057,0.018997439482185,-0.1939121416294645,1.653019095944961,1.770918906965659,1.2852170583972993
35.0,0.1650171508789062,0.1976234588623047,1.3419510498046876,-2.479319568861503,-1.273109767472574,0.9148622276927796,0.0001132824867963,0.1848204431459409,-0.0813744362957036,0.20454289539,-0.2015120356886279,-0.2818810990161036,0.6977926375909984,0.0356737708742893,0.0185412662243779,-0.1935687833751722,1.703855961267407,1.912150721579616,1.2365489116454744,0.1859600984691847,-0.0825625937638767,0.2044262436139141,-0.2016565628386958,-0.2857705359508577,0.6987179235999611,0.0358593825184988,0.0187977804962541,-0.1933808902271567,1.7046144468939948,1.91081204955618,1.243545153878603
36.0,0.1654206237792968,0.1997911071777343,1.340527587890625,-2.74015034805073,-1.0316747083432876,0.9710394390013636,9.468495100736618e-05,0.1850598478650419,-0.0750495180717137,0.20432511867,-0.1409116420216003,-0.4114125007937412,0.4606928166654068,0.0356076956488739,0.0183694803979592,-0.1929839799390308,1.926611123529632,2.0820314990176727,1.1817182288859964,0.1863043425374206,-0.0761364739823174,0.2042213559408961,-0.1397802136657816,-0.4161611221579127,0.4624747882478938,0.0358197711847397,0.0186132004249987,-0.1927983793934574,1.9278525414452172,2.0789032382424084,1.190996589034456
37.0,0.1663642425537109,0.2026246185302734,1.3382987060546876,-2.8689218607345657,-0.8398737521229539,0.921772793303611,9.85637903213501e-05,0.1843339109748648,-0.0748718952156066,0.20419808225,-0.1685907145615575,-0.4268524252672359,0.3020844004484839,0.0353139908530494,0.018431527193403,-0.1928464209260806,-1.908724045474124,-2.2072090276913374,-1.028445926177021,0.1848912083359748,-0.0756847458002173,0.2040898456536085,-0.1687997713632841,-0.4322045125048877,0.3035674595490096,0.0353864518392228,0.0186245575446749,-0.1926842290476775,-1.9051495994977945,-2.202335708876031,-1.0351585330304938
38.0,0.1700574188232421,0.2069189758300781,1.334200439453125,2.9559921251115626,0.4741430133316902,-0.7909820034204104,0.0001075975075364,0.1781711701412336,-0.0734663578324977,0.20356808531,-0.1545414883480944,-0.4353238882526933,0.0379822506912766,0.0340521657958255,0.0181848490211781,-0.1924227630844497,-1.8033941073748991,-2.1914066870480453,-0.6969559414862978,0.1784092606350552,-0.0740894318195599,0.2034560578987395,-0.1541967558787758,-0.4409484528949827,0.0397934396566174,0.034065968034504,0.0183425771741912,-0.1922698839705413,-1.8002918058361852,-2.187153754980197,-0.7042596699033984
39.0,0.1754090728759765,0.210524169921875,1.3300081787109377,2.9749295545344325,0.1471907580425737,-0.6692447383941541,0.0001108580529689,0.1661623205218145,-0.0724932934903454,0.20323104991,-0.1503476894784039,-0.4279455172653595,-0.1932226026758602,0.0317163251933338,0.0179146134085475,-0.1925312669894343,-1.69539357916473,-2.1621295159975054,-0.406150672153338,0.166276826156059,-0.0730215150991493,0.2031178102558904,-0.1494386377494457,-0.4294981960505691,-0.1954961823953412,0.0317184388645563,0.0180221745991433,-0.1923999209717017,-1.6936034957338009,-2.16003580619949,-0.4057320143660712
40.0,0.1812464294433594,0.2124979553222656,1.3269970703125,2.964212797811964,-0.1036116365612792,-0.5737818150737546,8.423816412687302e-05,0.1525625879303052,-0.0685392542587425,0.20251160896,-0.1734135832617016,-0.4059470408031236,-0.3799091623013857,0.0289571106799254,0.0169053503110761,-0.1924052318361692,-1.586915695636694,-2.1465457599068207,-0.1538385327626812,0.1526448842807528,-0.0692329048883334,0.2024169490850099,-0.1736005251474063,-0.4058377549073904,-0.3839021352563684,0.0289563677221488,0.0170327755520067,-0.1922984100702666,-1.5841063733204392,-2.14562732301257,-0.1500472887175027
41.0,0.1858748168945312,0.2124743041992187,1.3260372314453126,2.96457057037792,-0.2048079141785789,-0.5259955686704743,6.5673828125e-05,0.140105819804181,-0.060646621261285,0.2010416161,-0.2057058345583184,-0.3870912038354928,-0.4505813400866525,0.0263068752957253,0.0151076026736926,-0.1915109105167801,-1.532494343786,-2.154411642145362,-0.0296168787259927,0.1401667590557424,-0.0614376104116397,0.2009617480512372,-0.2067923234358632,-0.3858559442315434,-0.4556804514684253,0.0262989985902246,0.0152449249095631,-0.1914243571145127,-1.5289818750980149,-2.154097175881228,-0.0234324445959181
42.0,0.1880927581787109,0.2126665344238281,1.3250699462890625,2.971595526681873,-0.2198288175585729,-0.4962825482953092,6.768756359815598e-05,0.1320432866834906,-0.0584919787893764,0.20080050616,-0.2281426585111625,-0.3965191223193082,-0.4379111015830251,0.0246314241576189,0.0147355925647367,-0.1914871056404532,-1.5095057204809836,-2.1675727418140784,-0.0330276098856746,0.1320103130585065,-0.0588245842902335,0.2006794271506582,-0.2303174276275572,-0.3969575737405271,-0.4400459069970623,0.0246001251358745,0.0147944390645259,-0.1913626878621807,-1.5056065736112938,-2.1684751658116026,-0.0304407890760489
43.0,0.1882514038085937,0.2128660888671875,1.324889892578125,2.972384552422149,-0.2212293541926097,-0.4925428647937744,7.029496133327484e-05,0.1312092315330744,-0.0588163335700938,0.20098587563,-0.2312880076634303,-0.3982953968162588,-0.434339021591317,0.0244803212775856,0.0148207117820535,-0.1916812576685529,-1.5065660497485922,-2.1698061033305494,-0.036717734733092,0.1309313119898143,-0.059516961665539,0.2010332015803004,-0.233558574089549,-0.3987182010183527,-0.4355735291538945,0.0244231021267742,0.0149604224635579,-0.1917241027535901,-1.5027537314274528,-2.1707785476160177,-0.0352489797334633
44.0,0.1876326904296875,0.2129344787597656,1.3253812255859376,2.972773100992025,-0.2164022087486662,-0.4950821487563663,6.262291222810745e-05,0.1347539659223434,-0.0584147514606341,0.20115180075,-0.2285620383981315,-0.402667764808753,-0.4332240108772484,0.0251798594550426,0.0147912009924211,-0.1917457012048051,-1.5078813287245991,-2.1690282214049663,-0.0449788230543642,0.1349481249213813,-0.0587074582783619,0.2012503513722717,-0.230112074390634,-0.4035032612427911,-0.4352859767124656,0.0252238781630403,0.0148574643871099,-0.1918315813689111,-1.504438974427315,-2.1694813566563784,-0.0431845079250904
45.0,0.1857622528076171,0.2134507141113281,1.3266434326171874,2.984102477960514,-0.2004982446413449,-0.5004199589162535,6.442531943321228e-05,0.1448244095903322,-0.0584070287277599,0.20182716784,-0.2270942087937398,-0.3888674783324435,-0.4076401073471934,0.027247108302049,0.0147189403152566,-0.1921993618387587,-1.5366861916128536,-2.1884605568896505,-0.0701827478174182,0.1451659958891238,-0.058714165191929,0.201918910516495,-0.2277059809330943,-0.3887796224293181,-0.4066291350461259,0.0273235371432734,0.014782767924266,-0.1922768245655342,-1.5365751742924905,-2.189488428966364,-0.0715509129257146
46.0,0.1811361236572265,0.21417041015625,1.3298209228515625,2.9990641476830637,-0.1618136963818681,-0.5088912479533434,7.294046133756638e-05,0.1698306186370712,-0.0573876279883623,0.20344234518,-0.2086414937671017,-0.4006182173122714,-0.3888284699934176,0.0323524371572906,0.0147214807786746,-0.1930082521420101,-1.5638253322911917,-2.1927924490453674,-0.127476401913637,0.1704210760610731,-0.0575754258608989,0.2035313762095594,-0.2080616171575169,-0.4011951833453139,-0.386193351730919,0.0324816028444722,0.0147683850093433,-0.1930715030827522,-1.5653956372519575,-2.1931617933143217,-0.1318080469369976
47.0,0.1754207000732422,0.213453628540039,1.33339404296875,3.010996756242553,-0.1186596155578574,-0.5045646674201714,8.234186470508575e-05,0.202814410742884,-0.0565149591735749,0.20426419304,-0.1872531195316802,-0.4119590467928029,-0.4116805288618556,0.038913861779943,0.014702712366267,-0.1925952853991535,-1.5727918393481233,-2.1895091789745256,-0.1468356023271644,0.2035183497357088,-0.0566460756549341,0.2043785986347123,-0.1866571103527687,-0.4123723039192909,-0.4141719388859758,0.039073240225591,0.0147386505036611,-0.1926758344530054,-1.5717754450972274,-2.188708735920819,-0.1453744799575513
48.0,0.1683734130859375,0.2127850341796875,1.3376448974609376,3.023260739999289,-0.0752880387104936,-0.4975311780712796,8.708909153938293e-05,0.2430652944833422,-0.0562446635229771,0.20573807477,-0.1805430413401755,-0.412915502291161,-0.4349141531373059,0.0470084478351375,0.0147445617931107,-0.1922960464871879,-1.5765092891966783,-2.208083077210794,-0.1574943890485493,0.2439464375637134,-0.0563474277118769,0.2058521500627117,-0.1793810981686806,-0.4136910173678076,-0.4390460468749974,0.0472071649750906,0.0147782773018916,-0.1923597362791509,-1.574919660379321,-2.206397329433466,-0.1548691061856571
49.0,0.1607601928710937,0.2125450134277343,1.342180908203125,3.0345715868225684,-0.0439979337018903,-0.4916745169107294,9.807588160037996e-05,0.2855789389559481,-0.0563759499818389,0.20803510065,-0.1648162955788361,-0.4202938732784948,-0.4531561721594461,0.0558201088245628,0.0149687802429672,-0.1922800888080008,-1.5859591579882224,-2.2194416776361083,-0.1861633680191727,0.2866347152598624,-0.0568637673329361,0.2081381464359261,-0.1628801213803428,-0.421591845686101,-0.4570115399858439,0.05605367268367,0.0150838219440454,-0.1923059257842423,-1.5844715411782833,-2.217078206367519,-0.1851947056935828
50.0,0.1529495086669922,0.2119230346679687,1.34671484375,3.039500720383127,-0.037430923212207,-0.4778135442957801,9.770216047763824e-05,0.3303785123593245,-0.0564068409133358,0.21043582973,-0.1537027285741563,-0.4321812487580881,-0.4909998412996647,0.0651605961187793,0.0152115115567661,-0.1917980271487742,-1.5767890292571816,-2.2307762406480567,-0.195853461517836,0.3315986391226704,-0.056923322706159,0.2105535598959466,-0.1511762896130337,-0.4366216299233107,-0.4917333477967432,0.0654278190983916,0.015359498352157,-0.1918026789418498,-1.5745425090447158,-2.2279667322395507,-0.2014711998636028
51.0,0.1444466857910156,0.2108431701660156,1.3517860107421875,3.03498597030209,-0.0115460122440639,-0.5100319866912281,0.0001099234968423,0.3728998795648047,-0.0569783231460284,0.2128767438,-0.1161682286904264,-0.4297217917623102,-0.5224913887569433,0.0742770384550041,0.0154658649130309,-0.1910723607235353,-1.605331623890231,-2.2220581273777373,-0.216114710111603,0.3742431063614401,-0.0579259256485495,0.2130029635369978,-0.1142406229622673,-0.4317546709262387,-0.5257252023594288,0.0745760818781553,0.0156844887170287,-0.191065900686362,-1.6028736794243053,-2.2199618871222984,-0.217183461184165
52.0,0.1351666412353515,0.2087865600585937,1.35755029296875,2.986620513252778,0.0572804896562397,-0.6471020878932945,0.0001292927712202,0.4068258450812729,-0.0580054466183002,0.21522562128,-0.0073391480219583,-0.4239830587721617,-0.522515252524181,0.0820243073592515,0.0157918043435278,-0.1904398074300401,-1.7076803246604235,-2.145631212564135,-0.3079261953681045,0.4083182438347988,-0.0592016253723865,0.2153304996569175,-0.0049746746269447,-0.4242384423218616,-0.524566434848426,0.082350123873045,0.0160481422555888,-0.1903912921721854,-1.707368805344197,-2.1437778154574643,-0.3096205683037247
53.0,0.1285836334228515,0.2073512268066406,1.361729736328125,2.937793594713473,0.1068540207983251,-0.7540501194104609,0.0001232577189803,0.4294534524027507,-0.0599129616382337,0.21720375982,0.0790531086936656,-0.4205671462780256,-0.5118237079933987,0.0874196442667269,0.0162667346771253,-0.1901828749116612,-1.7865656107323793,-2.0780591432098103,-0.3917539500522201,0.4310249356451598,-0.0612762044103596,0.2173157759611751,0.0820005591100371,-0.4210269951035006,-0.5113953423790208,0.0877651857374836,0.0165617386487388,-0.1901201132669407,-1.7875176591933757,-2.0759352625766927,-0.3969469126085937
54.0,0.123646255493164,0.206468032836914,1.364384765625,2.8784985330016832,0.1295865720952197,-0.8695856111219181,0.0001360205560922,0.4414082428920503,-0.0660602570061164,0.21858819754,0.1704779240529183,-0.3749305553563686,-0.5456067807420999,0.0905589946926121,0.0172365073060575,-0.1903332136292426,-1.872500626161623,-1.9883320742135389,-0.3858756151535911,0.4430453065814354,-0.0673187487534945,0.218702102926801,0.1726017600611243,-0.3731296410442444,-0.5479792377184294,0.090916773005643,0.0174936213442625,-0.1902721517764479,-1.873251115716847,-1.986645213357437,-0.3855503848158746
55.0,0.1212291641235351,0.2071500091552734,1.3654852294921875,2.8562380667893748,0.1354302416500188,-0.9188540144768916,0.0001315349340438,0.4463276237329313,-0.0702305327581977,0.2201359678,0.2092705635975553,-0.362633270377479,-0.5307223763319062,0.0922434741997378,0.0181022552501544,-0.1912110846532422,-1.9162764770453904,-1.9521054241165303,-0.4208831365028185,0.4481142816182937,-0.0717656949937988,0.2202613602021482,0.2121773742271583,-0.3602425874806477,-0.531679427227844,0.0926369440586829,0.0184142486566337,-0.1911390437611356,-1.9186264257294288,-1.9497773853483709,-0.4222794355038602
56.0,0.1203886566162109,0.2077506256103515,1.365470703125,2.857157052130956,0.1436359058368974,-0.9178842088073024,0.0001312546432018,0.4478181111776566,-0.0721612159767538,0.22107188918,0.2063349043887719,-0.3741107363577759,-0.5098465700615876,0.0929091581785546,0.0186723034310999,-0.1918376078449208,-1.914457757777023,-1.9585980024029197,-0.4545117956209468,0.4497915392888974,-0.0739438344593197,0.2211897692243255,0.2082239350926764,-0.3743252896583667,-0.5072577937518061,0.0933295969623717,0.0190613804793756,-0.1917259606921884,-1.9155808433953991,-1.957845555632246,-0.4617970898482706
57.0,0.1204153976440429,0.2077625885009765,1.3654022216796875,2.859515531042282,0.1437674877557845,-0.9139405336644846,0.0001243744939565,0.4478721703077762,-0.0721380477781311,0.22109651869,0.2021411055190815,-0.3753404648556648,-0.5086804514480388,0.0929147270022506,0.0186834881587757,-0.1918569022436519,-1.9111496299621311,-1.963271752886239,-0.4545331249495405,0.4497729420928258,-0.073754778375744,0.2212260233107706,0.2035840752777141,-0.3756113858121846,-0.5058216684694594,0.0933293876084882,0.0190372069580556,-0.1917643441098493,-1.9122475521764584,-1.9630302830182036,-0.4617365908610956
58.0,0.1203681488037109,0.2078392639160156,1.36545068359375,2.8644428017834307,0.1544711583205616,-0.915107669032614,0.0001308076381683,0.4477717747804113,-0.0721148795795084,0.22117688867,0.1966891669884838,-0.372881007859887,-0.4980257689927871,0.0929177024152253,0.018666498933738,-0.191955500819913,-1.9162166736883797,-1.9706732984417747,-0.4605601499984748,0.4495934736881971,-0.0736225599286348,0.2213117428362098,0.196936479004702,-0.3731746648701354,-0.4953177261208245,0.0933140136454801,0.0190001288968676,-0.1918798865147047,-1.9164645043000847,-1.971646269112556,-0.4668134716177122
59.0,0.1194774856567382,0.207366714477539,1.3666416015625,2.8701440692296663,0.2379905581461804,-0.9581864099533506,0.0001304724216461,0.4477022701845433,-0.0725550753533392,0.22133633234,0.1885112591925874,-0.3596272673826392,-0.4335255072417416,0.0929485832728592,0.0186699167873126,-0.1921642613129746,-1.961149486653171,-1.988737589447569,-0.51422651978739,0.4494059453368442,-0.0744913210176809,0.2214818795710734,0.1885658721515446,-0.3573452141012253,-0.4324552387779097,0.09332365729287,0.019075490414432,-0.1921127754497789,-1.9622590198103105,-1.9896656779719344,-0.516571149329298
60.0,0.1181728973388671,0.2062248077392578,1.3682119140625,2.883667791108658,0.4343219168676158,-0.9991987529566538,0.000121994048357,0.4472543516778383,-0.0725396298875908,0.22199355137,0.1098775303858907,-0.384085200840653,-0.261005815897512,0.0928996276384764,0.0189512754393126,-0.1928063570187295,-1.9727914747604427,-2.0881701486297417,-0.6918977830003249,0.4487134922828408,-0.0744352698317283,0.2221232717881208,0.1090101645925857,-0.3842590559255186,-0.2576686004716734,0.0932184079670284,0.0193683251124282,-0.1927549923657213,-1.9718705146845583,-2.0895304545087217,-0.6986207122551495
61.0,0.1177115478515625,0.204833267211914,1.3676134033203124,2.915228503822331,0.6748017089642063,-0.9511893554655828,0.0001229237169027,0.4470072242258631,-0.0740223945994419,0.22275706618,0.0041937988696904,-0.4030776743080493,-0.0708079021230467,0.0928108593974929,0.0194998149412542,-0.1935739116308314,-1.9493877423985435,-2.2039422152240213,-0.8941848368686899,0.4483710592999155,-0.0759902133193749,0.2228815861851092,0.0025349899311261,-0.4058680934332002,-0.0652978341316051,0.0931014142433515,0.0199542066734256,-0.1935160504257018,-1.9456569050303447,-2.204244916137122,-0.905824269418048
62.0,0.1170653610229492,0.2021378784179687,1.3669609375,-2.8207980059179043,-0.9186085221177231,0.8968110398499398,0.0001216024979948,0.4473393017394547,-0.0776211881188305,0.22316669382,-0.0805209382980573,-0.4090896802977287,0.1239158777262624,0.0927342242171504,0.020340788952134,-0.1939570627587449,1.8681097878163,2.2089709330037093,1.0890972798183716,0.4492205057888124,-0.0795492326064769,0.2232839273606844,-0.081593996945019,-0.4125363759728777,0.130212399892945,0.0931204787272143,0.0207918294742286,-0.1938412715482748,1.8627619219661264,2.205328553852195,1.1021531473062085
63.0,0.1161129379272461,0.1988835906982421,1.367522216796875,-2.7181330039151086,-1.1052987149063698,0.9236420561115792,0.0001316185742616,0.4483046433487327,-0.0816138410148046,0.22317965672,-0.0981348935507574,-0.4111392277942103,0.2737523808966887,0.092828720205642,0.0212107352013362,-0.1938251023466629,1.788448599064363,2.08425410294157,1.220748147108724,0.4503164118460263,-0.083527708978709,0.2232886742857154,-0.0999247233636678,-0.414408760256712,0.2801309274638134,0.0932334901943373,0.0216564825462315,-0.1936901715259576,1.782398172212027,2.080503492580968,1.233022465480121
64.0,0.1153638916015625,0.1963403625488281,1.368185546875,-2.6182145169141986,-1.2607173602840158,0.9489908003135245,0.0001408488303422,0.4496483988688478,-0.0847415478288655,0.22369298756,-0.1077806309510455,-0.4111392277942103,0.4012528942561063,0.0932508241645279,0.0219226556871422,-0.1941155827879513,1.7225451478216227,1.9688069755745612,1.3243382561993615,0.4515942064979756,-0.0867941720300923,0.2238168183600295,-0.1101180879003087,-0.4144684590156818,0.4077493381169889,0.0936457198955566,0.0224008850220505,-0.193995913542179,1.716180188207446,1.965087870689578,1.336396881410175
65.0,0.1150263290405273,0.1941331939697265,1.3671663818359376,-2.543826316908634,-1.399878813139978,0.9057675837003822,0.0001307495385408,0.4532780833197333,-0.0889504372453179,0.22401706006,-0.1606224967091456,-0.4059470408031236,0.5141463272772085,0.0939007893782678,0.022791066443024,-0.1940839971310803,1.6172368233001508,1.9111389175646936,1.402210572810447,0.4550732664055026,-0.0909098475338731,0.2241306078593157,-0.1624053983231447,-0.4077417125868894,0.5200250335135519,0.0942677092481934,0.0232369175314006,-0.1939731433425858,1.611679558996263,1.906763494347016,1.4117109949061082
66.0,0.1145391082763672,0.1912110443115234,1.3670419921875,-2.45018236497755,-1.5353520681557489,0.8883185759033224,0.0001299114823341,0.4588152827905523,-0.0924951716345869,0.2239470604,-0.1935438178362159,-0.3929665733254067,0.6218324421495827,0.0948466181225323,0.023425879014225,-0.1935188239579402,1.528543628627839,1.8331160990988264,1.4694371771445496,0.4605451519095918,-0.0945226430108348,0.2239365961921386,-0.1953548077673249,-0.3932705227355101,0.6265349649431238,0.0951487889218554,0.0238629663597748,-0.193304105283715,1.5232462112756937,1.8294608184558587,1.4762905822906531
67.0,0.1139958877563476,0.1896359710693359,1.3669471435546876,-2.417010101161457,-1.5882975103853745,0.873138786707599,0.0001246508210897,0.4643833731928682,-0.0941092228052998,0.22378372786,-0.2103190133149779,-0.3870912038354928,0.6585342722820421,0.0958024042800524,0.0237004366210878,-0.1928524351602523,1.4888076938785673,1.809951307783924,1.4925107547751697,0.4660383130819093,-0.0963044446166456,0.2237338802609373,-0.2123404398984141,-0.3872204322807633,0.6631525722008664,0.0960690725350344,0.0241678633975457,-0.1926051490299353,1.4833989619298185,1.8065418964617737,1.4992227338253366
68.0,0.1135433807373046,0.1892437286376953,1.3671246337890626,-2.416465644489932,-1.5928251701086462,0.8670859807614278,0.0001236436069011,0.4676269210000425,-0.0941246682710483,0.22375520948,-0.2138837423542148,-0.3916002083277523,0.6585355197976988,0.0963881312242357,0.0237339834938891,-0.1925073018125165,1.483616781380529,1.8125774098447764,1.49883827152782,0.469399879148572,-0.0963757052290983,0.2236968757730774,-0.2165502408562708,-0.3917850435010356,0.6623939391770288,0.0966699716079502,0.0242124129291851,-0.1922399038697529,1.4778669423799724,1.8105499649793888,1.5051766285995896
69.0,0.1139360580444336,0.1893888854980469,1.3660753173828126,-2.455329357278824,-1.5763205846670412,0.8391008945254628,0.0001162696555256,0.4676578119315394,-0.0944181321202688,0.22331317459,-0.2352721165896363,-0.3839485643408877,0.5942225329507593,0.0961565050663239,0.0236790944901832,-0.1921612229673576,1.4908112370409148,1.8981250225419917,1.4435193752495503,0.4694520629589146,-0.0967198786597744,0.2232209090868887,-0.2375565653613328,-0.3836020197320254,0.5919952508394176,0.0964292725904223,0.0241601793002824,-0.191861934861552,1.487893363045866,1.9017374623831416,1.4449813123687056
70.0,0.1148291397094726,0.1938296966552734,1.363921142578125,-2.630299164754454,-1.3638047241333038,0.7523699738098693,0.0001144350767135,0.4639431774190374,-0.0918387393402778,0.22277910311,-0.2564508008815733,-0.3858614753376038,0.4015503395482522,0.0951619556165723,0.0230732313534549,-0.1921229658124199,1.5557446854991268,2.111451664751545,1.2831783986040108,0.4652923856922267,-0.0931373201873453,0.2226809225904081,-0.2585984605192105,-0.3858271516558807,0.3988971251932499,0.0953575482782067,0.023340360015931,-0.1918835383603508,1.553239989523984,2.115605714831831,1.2827089756667205
71.0,0.1170915832519531,0.1992214202880859,1.36192431640625,-2.7979082881014152,-1.0891618402462402,0.6641803019786058,0.000116500608623,0.4580352867702557,-0.0872514360129885,0.22228651291,-0.2684031276601912,-0.3939230288237648,0.187591397486823,0.0937880827670214,0.0220987260060238,-0.1923308327399659,1.629419422530985,2.331083142707513,1.0816452587959309,0.4591796994330711,-0.088278274779744,0.2221785437212567,-0.2709816967230571,-0.39408364188076,0.184822715399045,0.0939420423100245,0.0223077712252605,-0.1921101172947212,1.626306546271228,2.3358375467194628,1.080082865127558
72.0,0.1218415222167968,0.204733657836914,1.3581407470703126,-3.0001360040089597,-0.7386841541172925,0.5102133536122754,9.892871975898742e-05,0.4523050189775811,-0.0813976044943263,0.22199225508,-0.2990178594089317,-0.4545896347196203,-0.0614748484857208,0.092270588024003,0.0212526620592454,-0.1925873306953602,-1.586397482020679,-2.4875359013797955,-0.8100380902579577,0.4534439484820694,-0.0824327868102484,0.221887923985696,-0.301415970943405,-0.4600475552888217,-0.0598417715588684,0.0924035064965394,0.0215028994888083,-0.1923559851551712,-1.5786292502731194,-2.4866587370086544,-0.8163900306759772
73.0,0.1279903259277343,0.20869677734375,1.35374072265625,3.047709620572633,0.3947698925663621,-0.3197571354458616,8.398185670375823e-05,0.4449452545484451,-0.0780768293584097,0.2220026254,-0.3350845296882699,-0.5123868741204016,-0.2927879003613111,0.0905050712309989,0.0209187218651711,-0.1932102187945577,-1.419704711917945,-2.473458175110769,-0.5050463442124481,0.4459854617570856,-0.0786878786072959,0.2219503027654512,-0.3369501821819238,-0.5175126656788489,-0.2916289647689838,0.0906476882053259,0.0210786259925446,-0.1930433388905635,-1.4131507081931425,-2.4731773976398648,-0.5100333352564274
74.0,0.1355394287109375,0.2121657409667968,1.3502708740234377,3.0864220178560107,0.1979026501753695,-0.0686858424697123,6.45977109670639e-05,0.4380411313588884,-0.0747560542224932,0.22200910685,-0.4632050851573143,-0.5429934500678604,-0.400803278882148,0.0885676032084047,0.0201934214729593,-0.1940408185474886,-1.2247985947787576,-2.5412465002892284,-0.2908024505818367,0.4390092963287269,-0.0754171223994812,0.2219741142742189,-0.4652621797927096,-0.5481555504948095,-0.4000033113259657,0.0886994217724214,0.0203614081400502,-0.1938984496358262,-1.2179566503510726,-2.540943284037104,-0.2948073372900006
75.0,0.1437967376708984,0.2135114288330078,1.3482922363281251,3.077844964757918,0.0587139465887671,0.2140898663407417,6.786960363388062e-05,0.4355312431747654,-0.0682303449437735,0.22188725559,-0.619843472940254,-0.6119948824494077,-0.4551302516657766,0.0870883748918785,0.018818247370126,-0.1943495182358389,-0.9904339956026844,-2.599145127433701,-0.1390111524488771,0.4362867328679238,-0.0688657226666152,0.2217918591550078,-0.6225614859200649,-0.6174341818275193,-0.454318835604632,0.0871452986952294,0.0189695383573795,-0.194174040333515,-0.9828741041134664,-2.5984149441198925,-0.141995130182908
76.0,0.1485364379882812,0.2137163543701171,1.3470955810546876,3.04820621146831,-0.0172108826990551,0.3641037477315265,7.827422767877579e-05,0.4331526414495042,-0.066562234642941,0.22188207043,-0.7016225508992184,-0.6618672048637936,-0.4812759262515627,0.0860032177130602,0.0184610035515437,-0.1945747240907213,-0.8564633449583428,-2.6095733838042583,-0.0658757599490926,0.4339263284541749,-0.0668292024517158,0.2217941245325711,-0.7045743674109949,-0.6671308682777698,-0.4810895930272589,0.0860682785814979,0.0185279560861972,-0.1944117596877354,-0.8490803714656511,-2.6086376644303733,-0.0670727447477242
77.0,0.151630859375,0.2136354827880859,1.3466982421875,3.019244447618985,-0.1084730982328788,0.4599315936345431,7.87501335144043e-05,0.4334769962302217,-0.0656586748966567,0.22187040382,-0.739786120613402,-0.6991689692997588,-0.5318024700217368,0.0856704805239776,0.0183079248988453,-0.1944967570076947,-0.7700592499655204,-2.596896351956135,0.012232616305995,0.4345106207015972,-0.0657853702775451,0.2217786489293892,-0.7428514954862818,-0.7044133826426728,-0.5312639000913487,0.0857842300117343,0.0183414784131486,-0.1943101354422068,-0.7629503816439317,-2.5962204786900607,0.0108909719841586
78.0,0.1541078643798828,0.2134940643310547,1.346967041015625,2.998028582287532,-0.1882315474981591,0.5496336243400813,9.289684891700744e-05,0.43658153484566,-0.0643767012395355,0.2218729964,-0.7777400003841008,-0.727179451751674,-0.5770818690411994,0.0859461508935877,0.0180093927147084,-0.1942288117465191,-0.6945304061984408,-2.590931075392835,0.0879145888603127,0.4377881615057974,-0.0644854314368153,0.2218036254618856,-0.7802898043386991,-0.7324763860611161,-0.5768432608733929,0.0861034433095217,0.0180406041500319,-0.1940459554925207,-0.6879058137636358,-2.5899798284733917,0.0866370197952215
79.0,0.1535472259521484,0.2133671722412109,1.347256103515625,2.999004354464159,-0.1827306770867492,0.531756022920154,8.854776620864868e-05,0.4374928173248185,-0.0635117551576223,0.22190929252,-0.7582388356400401,-0.7226704472594145,-0.577981582698402,0.0862509196281862,0.0178892744122283,-0.1941735256765183,-0.7183466413927506,-2.585477185826238,0.0760455510568549,0.4388740005109823,-0.0635908683680923,0.2219276497038107,-0.7582211047547288,-0.7255535616380409,-0.5786799923795285,0.0865062882155481,0.0179204560658822,-0.1940586968844127,-0.7159578496255751,-2.584875742717148,0.0749741595439382
80.0,0.1490623931884765,0.2136249694824218,1.3475660400390626,3.020656671202431,-0.1693348534549265,0.3200537964091647,5.706895515322685e-05,0.4326583865455539,-0.0630329457194204,0.22182244109,-0.5686791267300301,-0.6244288039280628,-0.6274615279034182,0.0866650153922119,0.0179299985056968,-0.1944818431674818,-0.970656632402316,-2.521730163075456,0.0438969990745605,0.4335072858725006,-0.0629716598296601,0.2217215895407032,-0.5670872445802436,-0.6193771004201543,-0.6322273864767676,0.0868248952259383,0.0178853830047397,-0.1943322248832382,-0.9752172672944476,-2.5226176170535592,0.0512436965024912
81.0,0.1387899322509765,0.2147145080566406,1.3513251953125,3.047116453932626,-0.0554252649736045,-0.12074294676002,5.31643033027649e-05,0.4269899006158731,-0.0636893780137295,0.2227415107,-0.3040504180525603,-0.5121136011208708,-0.5818267613057322,0.0875620231500768,0.0179355171133919,-0.1956730593409326,-1.3398430222576878,-2.3877216282894698,-0.1334711969793695,0.4277003458093149,-0.0644857410313015,0.2228328608029431,-0.3026488340830352,-0.5088085778074539,-0.5819836962286318,0.087752121172439,0.0180899257520396,-0.1956896763098216,-1.3436481039773311,-2.388108328869013,-0.1332398223251432
82.0,0.1339687957763672,0.2140751800537109,1.353138916015625,3.007352722823588,0.0560905093961665,-0.2718017724499285,7.11490586400032e-05,0.4279938558895223,-0.0644848194997746,0.22440465077,-0.2105287032584624,-0.5275535255943656,-0.5105095240269721,0.0887500028008044,0.0184335699846103,-0.1968486571785241,-1.4408470813333294,-2.322409102008154,-0.2956482472264655,0.4290967255375676,-0.0655489438873739,0.2245025121968253,-0.2087713949224683,-0.5275689845896071,-0.5077406918803471,0.0890065224261434,0.0186715304475797,-0.1968180708166394,-1.442896206548395,-2.322110790302171,-0.3019917994386152
83.0,0.12977294921875,0.2134398803710937,1.3546728515625,3.007297993700461,0.2378833518366584,-0.3736850527742563,9.091583639383316e-05,0.4300403801011918,-0.0686859861833528,0.22559075612,-0.1933341278927314,-0.501319317639401,-0.389209002511123,0.0897736031749623,0.0192423148665133,-0.1977394928347005,-1.533825122148484,-2.335381265082092,-0.4413138216610375,0.4312824303770288,-0.0698024268458945,0.2257010018536664,-0.1912193828080012,-0.4981506105382418,-0.3887878554873264,0.0900751254780206,0.0194703810357178,-0.1977162833438817,-1.5380826800653435,-2.335371944832297,-0.4429752155073585
84.0,0.1247635116577148,0.2104134826660156,1.356938720703125,2.9746265282956803,0.5385565539789348,-0.4781706750538625,9.136065095663071e-05,0.4362649027978167,-0.0727326982094464,0.22660964006,-0.2172387814499672,-0.4964004036478451,-0.1740759872470656,0.0913242141580924,0.0201370140135,-0.1980886473651524,-1.6029878902523709,-2.3790795849670854,-0.7060007275023285,0.4376679959258008,-0.0741877229011834,0.2267344352557239,-0.2171846326350366,-0.4928257784729204,-0.173700804228146,0.0916554902471362,0.0204369335533974,-0.1980593991399906,-1.6051418646211046,-2.3812992962331454,-0.7068286891828819
85.0,0.1200460357666015,0.2072366790771484,1.3602076416015625,2.958489259098895,0.8257707235525883,-0.6015057591336098,9.847504645586014e-05,0.4450997092059296,-0.0782003930843973,0.22662260296,-0.2126256026933077,-0.4387398007468293,0.0193678683668598,0.0932510426121486,0.0208967030222187,-0.1973772330080205,-1.7236762099180054,-2.4083115409429072,-0.9432238887946424,0.4466751354052626,-0.079797816998496,0.2267299323262131,-0.2123447005491787,-0.435656179929456,0.0201557366471864,0.0936053090556237,0.0212303463353512,-0.1973058905673009,-1.7254292016837798,-2.410048854762332,-0.945629033119066
86.0,0.116006965637207,0.2027003326416015,1.3637535400390626,2.870691418516691,1.031317186679685,-0.7451094885802068,0.0001113859415054,0.4548689662918236,-0.080494044748042,0.22678723179,-0.1442666811173527,-0.4375100722489403,0.1546052457880498,0.0954612312586992,0.0214477094674425,-0.1964473872233373,1.782879163467448,2.25674501190226,1.135155162891314,0.4564533327268181,-0.0823067709025059,0.2269123168894861,-0.1423753891538043,-0.4343632864808478,0.1556826771195976,0.0958259979049014,0.0218303049061039,-0.1963804053024136,1.7826726403874529,2.252075589524199,1.136521609880564
87.0,0.1127343215942382,0.1988451080322265,1.3671866455078123,-2.7721883303545347,-1.1733604273875644,0.8817338457197473,0.0001227205470204,0.4637887227615529,-0.0832819513156371,0.22698297158,-0.0754883796544287,-0.4413358942423726,0.2516554982531962,0.09749451535423,0.0221318718444369,-0.1955737858444705,1.8075956617481557,2.0839194356860866,1.2566601150941017,0.4653775001857283,-0.085153234064392,0.2271184234855092,-0.0732736980139715,-0.4401165902118675,0.2546239522958709,0.0978577262210197,0.022543347866758,-0.195502642141459,1.8068975272935288,2.077800985306972,1.2616248520487976
88.0,0.1106711349487304,0.1958967590332031,1.36934423828125,-2.702489249102084,-1.262724119789154,0.94714742417466,0.0001353992968797,0.4727162019641565,-0.0849346161507211,0.22688834241,-0.043615508244781,-0.4612848232081269,0.3289365310778737,0.0992381239463378,0.0226482083775441,-0.1944426589794451,1.7984735369269764,1.9714157056265635,1.3570510790432415,0.4743537012497729,-0.086969841019257,0.2268735527534993,-0.0410321558163113,-0.4615793681879624,0.3331062894451554,0.0995369564663342,0.0230938981507557,-0.1942193747753728,1.7975367040271,1.963920663530027,1.364649744202653
89.0,0.1095086441040039,0.1933643035888672,1.37030224609375,-2.653427691905748,-1.3374547911554158,0.9545031846314118,0.0001289636939764,0.4810644762011931,-0.0858536213627538,0.22646445558,-0.0536806255320382,-0.4626511882057813,0.3835502849069062,0.1006132679642146,0.0228210942737469,-0.1932280299777626,1.7568036631815005,1.9228644119414475,1.4026319397838647,0.4826807019173899,-0.0878997837239775,0.2263894226389498,-0.0534961322450777,-0.4631864240510587,0.3879963557467694,0.100868129687628,0.023264406229155,-0.1929546954462639,1.7535192029434716,1.9177783400517392,1.4099753595546805
90.0,0.1090519409179687,0.1916453857421875,1.371045166015625,-2.61761758614474,-1.3850498043706012,0.964220189141536,0.0001349187195301,0.4855745521997403,-0.0857455031025147,0.22603279101,-0.0635360528758108,-0.4641541897032012,0.4210412424699764,0.1012448749226709,0.0227698763341684,-0.1924069882196111,1.726612909983905,1.8932696901932544,1.4316658143571843,0.4872483446476329,-0.0875478708558387,0.2259513995707128,-0.0637441211844709,-0.4648112675612698,0.4256977534911964,0.1015069268716066,0.0231596175074778,-0.1921268260551307,1.7228117604124669,1.888286511539014,1.4388570623262555
91.0,0.1091324462890625,0.1916382904052734,1.3710504150390626,-2.6239160570904363,-1.3848015585741822,0.9648444042189024,0.0001356959193944,0.48542782027513,-0.0852126345341932,0.22605742052,-0.069197681349893,-0.4779544761795107,0.4099144759448009,0.1011756719747097,0.022760970376132,-0.1924100850337769,1.7281328556182327,1.9143208162253027,1.4381804164374612,0.4868429542244281,-0.0867335030675039,0.226038939933077,-0.0692039277890279,-0.4787235653643565,0.4117450036077708,0.1014207751102848,0.0230958575223367,-0.1922165289039342,1.7260213962081488,1.9121518281393188,1.4430858221160558
92.0,0.109681053161621,0.1942792663574218,1.369015380859375,2.727760588857908,1.2307185766589752,-0.8998496222908301,0.0001209690421819,0.4843080240083675,-0.0839769972743173,0.22610667954,-0.1128131895946741,-0.4984499511443268,0.2632696812181397,0.1007723940027155,0.0226356948219088,-0.1925966553072198,1.748571897054163,2.122694149348031,1.335564328766938,0.4856295105774117,-0.0851392438146116,0.2261619008286128,-0.1138250263865698,-0.5006969839307034,0.2630177796971327,0.1010292388504887,0.022909448482249,-0.192481638764064,1.746332709259031,2.124499145550951,1.3399112785370515
93.0,0.1110046234130859,0.198313491821289,1.36565869140625,2.820816129134127,0.9755554180066606,-0.761354265340413,0.0001090503782033,0.4832809005360955,-0.083382346843002,0.22630890078,-0.137975982812817,-0.5245475225995259,0.0736559937812244,0.1004917739528264,0.0227043568718719,-0.1928373958485793,-1.736545819347144,-2.291118523453716,-1.1518158986595315,0.4845019623831794,-0.0843490947206666,0.2264153847252425,-0.139427720602087,-0.5296144929589944,0.075568869831688,0.100743338556304,0.022959995638235,-0.1927712318752366,-1.7299801661988987,-2.289120032279285,-1.1587608422166311
94.0,0.1130127182006835,0.2020174407958984,1.3626494140625,2.9001490082691896,0.7897543798959844,-0.6318442798209444,9.886740148067474e-05,0.4816127902352631,-0.0836294742949772,0.22658889942,-0.1834787005489588,-0.5227712481025752,-0.0642776137417084,0.1001230103345439,0.0227353749108712,-0.1933513063579747,-1.6430423840713948,-2.354728048646306,-0.9408482511714282,0.4828214347796094,-0.0851667121763464,0.2267017108912967,-0.1848523771534739,-0.5263741539141051,-0.0641689043179359,0.1003737638710036,0.0231049130106955,-0.1932872869071417,-1.6368275509783918,-2.354028375875207,-0.9449637220798536
95.0,0.1163824615478515,0.2061292724609375,1.35934912109375,2.975035679528674,0.5394955919793017,-0.4790618784327132,9.126238524913788e-05,0.479581711489342,-0.0834209605073731,0.2266303807,-0.2256263791893482,-0.5248207955990567,-0.2417278223145151,0.099578406010458,0.0226695782902149,-0.1936767827350327,-1.5330162338903728,-2.398013279117917,-0.6820310262736214,0.4807096233593455,-0.084433605101027,0.2267463445644662,-0.2268119564567079,-0.5299806956098274,-0.240571919559532,0.0998144136917018,0.0229360676703889,-0.1936292554916016,-1.5265047428827188,-2.3971039512165317,-0.6880243460442609
96.0,0.1212410125732421,0.2103222961425781,1.356667724609375,3.027198398329786,0.2638546272847317,-0.3335253995542796,7.964783161878586e-05,0.4749635172305558,-0.0811890907067222,0.22664852876,-0.2616930494686864,-0.5203117911067973,-0.4333473941999307,0.0985924119859533,0.0221128377154555,-0.1942874510692245,-1.4276525238987965,-2.414302240815577,-0.4042586146738903,0.4760550959579129,-0.0820067551807599,0.2267488489258923,-0.2633981298546022,-0.5221809956668723,-0.4353715484030613,0.0988275709419662,0.0223106967491941,-0.1942492242209443,-1.422794639782468,-2.415495495404154,-0.4034243778986675
97.0,0.1273291931152343,0.2140629577636718,1.3547276611328125,3.0397911425501345,-0.0444842566796115,-0.2110902905111545,6.468059122562409e-05,0.4675188027398033,-0.0772968333381131,0.22650723315,-0.2740647561342733,-0.5138898756178215,-0.6442511033475982,0.0970971253068418,0.0211924644040903,-0.1950138899268701,-1.333234230579169,-2.3810809193049454,-0.1216341358072577,0.4685638812389405,-0.0780015567773652,0.2264515297956057,-0.2764661619557694,-0.5141973604672754,-0.6480174781864754,0.0972586122010551,0.0213409581830577,-0.1948531728736871,-1.3287618388521223,-2.3828357136633067,-0.1169222366727909
98.0,0.1315141448974609,0.2153410339355468,1.3536988525390623,3.0419423073109497,-0.1853056597589515,-0.1418809067814148,5.36588653922081e-05,0.4615027938307824,-0.0743776403116562,0.22577612559,-0.2950337504827258,-0.5033688651358826,-0.7394914252213591,0.0955900301102534,0.0203995295435586,-0.1950742134537557,-1.2835716946783895,-2.36875558638476,0.0215177208646831,0.4625847096866337,-0.0750721881717746,0.2256772531235337,-0.296835370101662,-0.5029337341719269,-0.7442260991374401,0.095745858824925,0.0205375221304642,-0.1948747253303149,-1.2799995541751703,-2.3697224680153317,0.0274380457479548
99.0,0.1332195739746093,0.2157619171142578,1.353876708984375,3.0378844912860865,-0.2305464016590004,-0.132614222548499,5.35338819026947e-05,0.4576954865237898,-0.0703695419499337,0.22547538631,-0.2923077812174269,-0.5052817761325988,-0.7652939525166977,0.0947514935636646,0.0195249553913029,-0.1952276176286417,-1.2744291976981943,-2.355002597250877,0.0546007614511276,0.4586140662885611,-0.0710085265896234,0.2253732195279872,-0.2931727656424567,-0.5051817375598616,-0.7699269340540985,0.0948773149935643,0.0196545374286421,-0.1950399189880426,-1.2713300264632843,-2.355028104608242,0.0595895132536048
100.0,0.1333658447265625,0.2158936767578125,1.3539930419921875,3.0385111306526555,-0.2319949548365263,-0.1338705894413842,5.4628290235996247e-05,0.4572321225513363,-0.0696899414570019,0.2254896455,-0.2912593315000043,-0.5052817761325988,-0.7647222013357138,0.0946770654061781,0.0193797941917259,-0.1952940899261108,-1.2760496763358935,-2.3539620143787454,0.0540504439628863,0.4580812044653103,-0.0700359919615113,0.2254433567516619,-0.2923058508604002,-0.5050674780182777,-0.7691168604678951,0.0948164494805886,0.0194487700063671,-0.1951689548805102,-1.273280894610468,-2.3541434893889126,0.0592877034998629
101.0,0.133032974243164,0.2157358856201172,1.354235107421875,3.0392655362066123,-0.2298619699206587,-0.1353902307523599,5.211058631539345e-05,0.4591396375712698,-0.0693810321420329,0.2255414971,-0.2902108817825817,-0.5041886841344753,-0.7647967571638796,0.0950835342540425,0.0193096771692723,-0.1951665365725114,-1.2788617756180245,-2.354931040641309,0.0531812256213365,0.460384712941871,-0.0695087580963614,0.2255779695216187,-0.2912484077601292,-0.5036109045584931,-0.7690673947493809,0.0953400977049016,0.0193344109376311,-0.1950823627734227,-1.2768596953279914,-2.355527807180509,0.0584722250138742
102.0,0.1325744323730469,0.215488296508789,1.354792724609375,3.043804779012695,-0.2270626713724932,-0.1345956967786892,5.5084507912397385e-05,0.4626071446317966,-0.0683616314026353,0.22554279339,-0.2929368510478805,-0.4977667686454995,-0.7602319498207438,0.0957860863607501,0.0190379720987975,-0.1948811189784959,-1.2873024272488065,-2.362422910903436,0.0530793863693507,0.463978750570148,-0.0685241884474152,0.2255585998041492,-0.2947252996901358,-0.4977939556581889,-0.7617854207889498,0.0960522690488469,0.019072306807932,-0.1947642633482558,-1.285367964469985,-2.364447809494818,0.0552330518140775
103.0,0.1316737213134765,0.2149521942138672,1.35591259765625,3.061103223831525,-0.2208724332969043,-0.1317539180057805,5.537905916571617e-05,0.4699900772595552,-0.0672109442043759,0.22523298008,-0.3044697979395293,-0.4831466631705974,-0.7424226041050963,0.0971129615115133,0.0186450731708257,-0.1939815269843557,-1.3042275956606688,-2.3856793209762834,0.0472231949862312,0.4714139434231722,-0.0673666104631866,0.2251304938905748,-0.3063328043169105,-0.4831553775438166,-0.7415438818831943,0.0973346514259375,0.0186696437139953,-0.1937528922193687,-1.3033838431782236,-2.388594925543195,0.046527572558715
104.0,0.1293123321533203,0.2134805450439453,1.3579437255859377,3.0816152395920757,-0.185802278725656,-0.1399519801483909,6.239110603928566e-05,0.4836902053784295,-0.0654733293076754,0.22481427841,-0.3090829766961889,-0.4735821081870165,-0.7206541534329622,0.0996073096777324,0.0181640073590784,-0.1923291348389355,-1.3258924521702324,-2.4093544503200435,0.0240013684508917,0.4852686619149948,-0.0656491633708254,0.2247063114988401,-0.3115106546361886,-0.4731600130085852,-0.7182191316556954,0.0998524735628402,0.0181888053048695,-0.1920794448287965,-1.325701555059568,-2.4134309659890176,0.0219977975466998
105.0,0.1261976242065429,0.2104692840576172,1.3609732666015626,3.0985873308478245,-0.1486276480289513,-0.1528020384209827,6.271958351135254e-05,0.5050435617756602,-0.060955530576254,0.22375520948,-0.3021632085611996,-0.4709860146914732,-0.7123162148652022,0.103253296344066,0.0171100348069088,-0.1892969742888962,-1.349070317673528,-2.424489873487652,0.0004446970937393,0.5066529828142569,-0.0610393580306298,0.2236305957679137,-0.3029290102094215,-0.4704157499389695,-0.7094497510915967,0.1034966331606365,0.017115304659895,-0.189023675608547,-1.350687388783855,-2.4274358896267487,-0.0032220022369889
106.0,0.1225660018920898,0.2061017150878906,1.36450830078125,3.119297880791404,-0.0991470747990697,-0.1649423157792715,6.811463087797165e-05,0.5319032267122131,-0.0558739723450143,0.22192225542,-0.292727161104396,-0.4672968291978063,-0.7007856825199856,0.1074621253197477,0.015895375913598,-0.1849415779484,-1.378999520483158,-2.4429923701402907,-0.0321153556356991,0.533670439828933,-0.0558771047198507,0.2218060136974789,-0.2925797046318352,-0.4666315895045903,-0.6978200531633402,0.1077330901899299,0.015884712173899,-0.1846529121189029,-1.3816109821625455,-2.4453485493649096,-0.0366568297561138
107.0,0.1185403442382812,0.1996787109375,1.368993896484375,-3.120369940077344,0.0097853112897683,0.1921749274088862,7.654541730880738e-05,0.564717118694793,-0.0478963892859404,0.21855190142,-0.2889527421216745,-0.4548629077191513,-0.6667365133403157,0.111800582472358,0.0139369853940163,-0.1785968081813547,-1.427237229222303,-2.478654237888014,-0.0849679263393463,0.5666216040112713,-0.0478361254707777,0.2184349984025149,-0.2885486106672954,-0.4524313473660171,-0.6652507281073733,0.1120900438097957,0.013900575511813,-0.1782908035925662,-1.43139012569492,-2.480713780930871,-0.0868636474861067
108.0,0.1156080017089843,0.1916363525390625,1.3723013916015625,-3.0936723530444765,-0.0501856300785586,0.2017803311532186,7.732997089624405e-05,0.5989365480604818,-0.0421352305617689,0.2135119259,-0.2767907253995721,-0.4463914447336939,-0.6556751005385701,0.1151242639358017,0.0124588431135097,-0.1705642287978996,-1.4668308688661824,-2.5000811484740773,-0.1232764885855336,0.6008951674766732,-0.0418916438580298,0.2133964078329563,-0.2760277237185513,-0.4431713058396124,-0.6544411901894336,0.1154106013330252,0.0123797966130203,-0.1702512514291173,-1.4722614362630049,-2.5018363203534397,-0.1245901859242837
109.0,0.1135882263183593,0.1834060516357422,1.3750443115234374,-3.0627176076407405,-0.0907056696307847,0.2128175549006672,7.826855033636093e-05,0.6320361811594081,-0.0371386223921456,0.20782250909,-0.2648383986209542,-0.4325911582573845,-0.6590054710182742,0.11747628770445,0.0111241580163119,-0.1621235758666939,-1.50551026970265,-2.5163744961914807,-0.1407482699397121,0.6341778948799828,-0.0368111257364385,0.2076784318283261,-0.2638833294045085,-0.4278466314981603,-0.6595721232035845,0.1177626279095842,0.0110170440461824,-0.1617659884947342,-1.512320193005009,-2.517614337474749,-0.1390630344799321
110.0,0.1122992248535156,0.1753072509765625,1.3767564697265626,-3.0408792223047927,-0.1141312498306122,0.2232839159520598,7.916579395532608e-05,0.6628653307933123,-0.0338950745849713,0.20197364861,-0.2507891724074911,-0.4176977797829515,-0.6928765673985737,0.1189437435198755,0.0101725011569524,-0.1538415484811967,-1.5336077143999651,-2.5186034946747298,-0.1208819424702156,0.6650899250654363,-0.0334550576057379,0.2018333562771065,-0.2496362358475634,-0.4115005637183145,-0.6995400857558298,0.1192302052852087,0.0100340667016846,-0.15347848482374,-1.5402231470551566,-2.5175591238688435,-0.1106565935062992
111.0,0.1111726760864257,0.1681166839599609,1.379003662109375,-3.010719931561392,-0.1285722371766889,0.2366769994684381,7.842876762151719e-05,0.6929917117356622,-0.0295085623124118,0.19680145151,-0.2491116528596149,-0.3978854873169626,-0.7057650138289323,0.120332939823105,0.0090101065913264,-0.1462730932142287,-1.5674883779515325,-2.5365558372083674,-0.1131611657443288,0.695201045363821,-0.0290425315023695,0.1966677629262202,-0.2472791567449774,-0.3911654920601699,-0.7118327065334733,0.1206043507156676,0.0088655089745611,-0.145913835186101,-1.575688490909692,-2.5347456815962017,-0.1039514526769199
112.0,0.1100336227416992,0.1623232269287109,1.3805101318359376,-2.9856770493635474,-0.1403617854874583,0.2451615321413022,8.067823201417923e-05,0.7191872216450317,-0.02703728779266,0.19289313716,-0.2474341333117387,-0.3835386548415913,-0.72522337403041,0.1216247994683958,0.0083221313557977,-0.1401645927847666,-1.5902424098566168,-2.5481105310124628,-0.0994655560021643,0.721519808652974,-0.0265794937228813,0.1927732199615552,-0.2453882525655693,-0.3771818820107404,-0.7329368656261409,0.12190467216504,0.0081841728935096,-0.1397973977499611,-1.597796169984242,-2.545251366860497,-0.0887507201317166
113.0,0.1084724426269531,0.1574618835449218,1.3817354736328125,-2.9707948853224506,-0.1654478927774964,0.2511117688032567,7.669377326965333e-05,0.7425484885895608,-0.0258479869300294,0.19029666829,-0.2438694042725018,-0.3787563773498009,-0.7291230006597849,0.1231447092411761,0.0079984879188664,-0.135378250752119,-1.6066844101958175,-2.5607444957570835,-0.1127909984207435,0.7447739797775413,-0.0253782249927279,0.1901737071043912,-0.2416974299108526,-0.3725272631312608,-0.7367038392573264,0.1233943404572778,0.0078604982918976,-0.1350190736528977,-1.614340903963943,-2.557590386774466,-0.1023844360938427
114.0,0.1067984466552734,0.1549613800048828,1.3828941650390625,-2.9512586696808034,-0.1777232386354474,0.2563439353127097,8.29353928565979e-05,0.7591446415362693,-0.0271222378542764,0.18933741369,-0.2470147534247697,-0.3646828178739605,-0.7254067990743716,0.1247552033874105,0.0080886932430484,-0.1326359068078681,-1.6269865600671336,-2.577324345684413,-0.1208924840411364,0.7614769161724197,-0.0274317183253284,0.1891960650826479,-0.246765129166151,-0.3583991422984545,-0.7292218061539217,0.124989934530747,0.0080900754115884,-0.1322465967324756,-1.633929619682644,-2.5773916135283748,-0.1143945608043357
115.0,0.1054551467895507,0.154067138671875,1.383210205078125,-2.945363812021216,-0.1845353986026428,0.2582432180982394,8.270472288131714e-05,0.7674311339103121,-0.0300105399492364,0.18945796866,-0.2468050634812851,-0.3585341753845157,-0.7306656409611321,0.1259413767501195,0.0085682325930719,-0.1316729422736972,-1.6324638753524576,-2.58177374918022,-0.1198409704262423,0.7698566923193211,-0.0304725924281645,0.1894947894013423,-0.2454801677725877,-0.3521294312311996,-0.7350422518709209,0.1263109238363979,0.0086022104724547,-0.1313942364229649,-1.640030820755458,-2.5806653619396087,-0.1137366449492286
116.0,0.1047908935546875,0.1540949401855468,1.3834669189453126,-2.9429497579218187,-0.185260138333495,0.2602023983884918,8.494884520769119e-05,0.7699101311629383,-0.0308986542297722,0.18991685532,-0.2451275439334089,-0.3562113548885032,-0.7344383563472043,0.1265940358532516,0.0087265569517891,-0.1316828666005598,-1.635071036086326,-2.5807969805621536,-0.1178282341037616,0.7725991879151832,-0.0316088715287286,0.1900052257952386,-0.2434934434007012,-0.3497310989587451,-0.7401013427574394,0.1270335097624302,0.0088073009862593,-0.1314037050044278,-1.6423344151082884,-2.579127096016036,-0.1107230671123235
117.0,0.1045856628417968,0.1546007690429687,1.3838128662109377,-2.9399614773872904,-0.1758680331462737,0.273714022158297,8.021793514490127e-05,0.7688212258276726,-0.0311612271474958,0.19020981686,-0.2373690160244815,-0.3461002539058606,-0.7391710953946953,0.1267080400424694,0.0087065810935386,-0.132023181038097,-1.6503958374025798,-2.570818929899837,-0.1115760582145604,0.771191803231582,-0.0319940901608803,0.1902895513868638,-0.2349854412322942,-0.3402481356627289,-0.7427332756605539,0.1270981372354699,0.0088150810201173,-0.1317751381376496,-1.65783306673695,-2.568926979958656,-0.1081231895915873
118.0,0.103450942993164,0.155223876953125,1.385381591796875,-2.907065815174504,-0.1891528185678939,0.3468676687199605,9.258722513914108e-05,0.7659560919313353,-0.0320570641609059,0.190295372,-0.2092705635975553,-0.3044261214774013,-0.7136097544596339,0.1265891850545175,0.0085450281015374,-0.1324262128086898,-1.7266736309507211,-2.5496283269088056,-0.1411593127612487,0.768237532732893,-0.0328862151541167,0.1903895040756767,-0.2066718957945282,-0.3011320499652065,-0.7136525349319384,0.1269674091954306,0.0086737870115329,-0.1321977318353082,-1.732304523682892,-2.548632302766995,-0.1439801008691527
119.0,0.1001154022216797,0.1533744049072265,1.3873345947265625,-2.860669082343396,-0.3730293012576041,0.461953081621949,9.36971753835678e-05,0.7623418529461983,-0.0331150785646746,0.19063111111,-0.1618806363700528,-0.2765522755252514,-0.578454002121997,0.1265104519646128,0.0085364992212061,-0.133061839488132,1.820358829750068,2.5208875123929317,0.3344320105341687,0.764321049520463,-0.034033137126946,0.1907340999069038,-0.1588685451596415,-0.2729651690410105,-0.5784316597479782,0.1268550635441754,0.0086790501847828,-0.1328783457785255,1.823664482203152,2.5153440424773863,0.3366514743704979
120.0,0.097343276977539,0.1509182891845703,1.388630615234375,-2.828575519115333,-0.5500441805991791,0.5506050449891564,9.841551631689072e-05,0.7600636467483021,-0.0337406199274868,0.19132073739,-0.1182651281252717,-0.2902159255017955,-0.4429154905182787,0.1267186549668942,0.0088070406183774,-0.1337526881985419,1.814544528227912,2.420823514847705,0.5384938989148855,0.7619080177034508,-0.0346845980334241,0.1914133533091495,-0.1154074568748948,-0.2903918787669058,-0.4393208502746871,0.1270280742438643,0.0089865488431087,-0.1335742676786228,1.8144426440347623,2.41628262787155,0.5473521079259559
121.0,0.0938332901000976,0.1461223907470703,1.3908988037109375,-2.731025280553643,-0.8531810262803559,0.6834701081877307,0.0001029624864459,0.7569899990643607,-0.035362393831074,0.19232795472,-0.060810083610512,-0.3232819584450321,-0.1995036964512548,0.1270142386684738,0.0094377393202211,-0.1346986209871999,1.765771923808645,2.224126727734737,0.865729853081997,0.7586705985224357,-0.0363968817899707,0.1924411653662244,-0.0581581618597664,-0.3251685955351832,-0.1944971063129216,0.127312170708598,0.0096498699216832,-0.1345508991906543,1.7640119826789713,2.218997117560473,0.876538422814299
122.0,0.0924590225219726,0.1422419738769531,1.3924283447265626,-2.6469713013548266,-1.0752842594764234,0.7948890242533007,9.748023748397828e-05,0.7514450768606674,-0.0360960534541253,0.19315498774,-0.0052422485871131,-0.356757900887565,-0.0286967636186637,0.1268645652609318,0.0098920338147663,-0.1358091874963239,1.7396569615510402,2.056606593113906,1.0878900574745023,0.7531214320405002,-0.0372260433424199,0.1932511419568771,-0.0025313861502378,-0.3617503468753701,-0.0211426010563927,0.1271442485720386,0.0101475507028001,-0.1356395671627319,1.735827238920247,2.0500638234493955,1.1035557268662255
123.0,0.092186294555664,0.1377508850097656,1.3922432861328125,-2.525895442363166,-1.3591794384525897,0.8420218854619171,9.152254462242128e-05,0.7462554003691886,-0.0391233647408213,0.19446683322,-0.0056616284740821,-0.4134620482902227,0.1929876002372788,0.1268799250875487,0.0109761035307332,-0.1372524029474885,1.6273652290307872,1.8858570995615176,1.3249126975095458,0.7478987964281092,-0.04010499196027,0.1945775410751995,-0.003675018449965,-0.4195250762790654,0.201903329871574,0.1271618006611658,0.0112135716749277,-0.1370941865870032,1.622289602289633,1.8774984819472988,1.3411363459686427
124.0,0.0927621994018554,0.1339390563964843,1.392667236328125,-2.411414365712172,-1.5614348902643105,0.8764568641519082,8.983184397220611e-05,0.7451433268353003,-0.0391388102065698,0.19517201498,-0.0111135670046797,-0.4509004492259534,0.3577959546411826,0.1270828373623786,0.0113099249658365,-0.1378133555691257,1.5389456499110032,1.7455991832103048,1.4782442015455874,0.7465733699998456,-0.0401256157394785,0.1952835269240918,-0.0103758287549351,-0.457340660973945,0.366981622712969,0.1273306798491633,0.0115510037854478,-0.1376829845019862,1.5330814757134898,1.7373502650186343,1.4935720462309334
125.0,0.0932411499023437,0.1321932983398437,1.3928909912109375,-2.3482707351797,-1.6554695763051606,0.8923159288545154,8.485738188028335e-05,0.7448112493217086,-0.0392005920695636,0.19549738377,-0.0285178323138953,-0.4655205547008556,0.4379194183540691,0.1271607422577349,0.0114497638146112,-0.1380965143917899,1.483945253301051,1.6884868990111288,1.5397375489235834,0.7461589283931312,-0.0403477796205182,0.1956302583398964,-0.028390956421509,-0.4727976551410455,0.4482145090394392,0.127405085097907,0.011728272738904,-0.1379898408089303,1.477287524898104,1.6796387479952342,1.556269359012164
126.0,0.0937176742553711,0.1304438323974609,1.3933922119140625,-2.274686767720469,-1.7318123950555646,0.910117044276915,7.654036581516266e-05,0.7455449089447599,-0.0392237602681862,0.19552979102,-0.0461317875665953,-0.465657191200621,0.5113783449039905,0.1272306107348179,0.0114537882395223,-0.1380752271482951,1.4315902989392495,1.632597329588271,1.5799999090925885,0.747428874687385,-0.0403615221764514,0.1956690537868717,-0.0467131071752979,-0.4730421393229732,0.5215475280152264,0.1275500829733173,0.0117315070921768,-0.1379071651753018,1.4240958417749985,1.624011248606712,1.5962693398611842
127.0,0.0939006729125976,0.1297803344726562,1.393572265625,-2.2458271243050785,-1.761031342798622,0.9158697886142416,7.327527552843094e-05,0.7459851047185907,-0.0392392057339347,0.1955583094,-0.0566162847408215,-0.4649740087017938,0.5391637782142835,0.1272815072481093,0.0114501755425861,-0.1380710995733641,1.408377653647567,1.6152191622602354,1.593229140995532,0.7480346847656344,-0.0403748233853669,0.1957009028718751,-0.0571191590896344,-0.4709899900191392,0.548050183581693,0.1276305473305408,0.0117168053016229,-0.1378885186336715,1.4014956453272769,1.607313393441727,1.6072138536154876
128.0,0.0940185546875,0.1301602020263672,1.3928118896484376,-2.283245150831539,-1.7500396180601034,0.8941051927226442,7.149042189121247e-05,0.745992827451465,-0.0390615828778275,0.19549090232,-0.0792627986371502,-0.4728989256881893,0.4846936764838164,0.1271431513159327,0.0114707265685379,-0.1380625928335418,1.4169639875729647,1.6965518848233088,1.5617755819315116,0.7480540531248782,-0.0397403974208971,0.1954833237528979,-0.0803201845370523,-0.4784386469252472,0.4877079643016381,0.1273942558616413,0.011641196625289,-0.1377761572058054,1.41249556903391,1.6952399105991558,1.5711614655494583
129.0,0.0938009948730468,0.1346650238037109,1.389107666015625,-2.5214868671020154,-1.5519897823853994,0.7345522838399929,6.594137102365494e-05,0.7492672661901362,-0.0371231769263972,0.19523164432,-0.1530736587437027,-0.5039154111349443,0.2785079910645507,0.1270872570561677,0.0113030800647919,-0.1376020329914574,1.4425232455496804,1.988258350189034,1.4176314406892645,0.7514908522581514,-0.0372983213896216,0.1951530275471186,-0.1537902806533099,-0.5091720934690351,0.2807020131536284,0.1273140926569243,0.0113729142397114,-0.1372486924573961,1.438260151119421,1.9879242090370288,1.425842479315266
130.0,0.0943519897460937,0.1400063781738281,1.386192138671875,-2.7372855475423044,-1.2535543774042543,0.6010469330521516,6.143740192055702e-05,0.7523409138740775,-0.0364204082348427,0.19461461028,-0.1862046698142576,-0.5151196041157104,0.0245570371749063,0.1269413092736524,0.0112100107529147,-0.1368376905468879,1.505226556637996,2.2678162291760984,1.1881241351401066,0.7546852016340043,-0.0364464087741584,0.1945154905261377,-0.1878167583188021,-0.5203753786401993,0.0261497374217245,0.1271656723384212,0.0112498471907743,-0.1364592559106737,1.4997203653367386,2.269575252287591,1.1950976891997214
131.0,0.0957232437133789,0.1441430969238281,1.3841368408203123,-2.8624774574138776,-1.0018503194069606,0.5004385990511317,6.325492262840272e-05,0.7543797153528727,-0.0364512991663396,0.19412072379,-0.2040283150104422,-0.5144364216168833,-0.1697420239569894,0.1268280772852512,0.0111771105735131,-0.1362744055777326,1.549185023750029,2.456350763517247,0.9776354239436978,0.7568429736063785,-0.0366841869417159,0.194013023127379,-0.205538272021799,-0.5187446426948318,-0.1691696888966026,0.127063715937463,0.0112477786484929,-0.1358758407983524,1.5437403198681674,2.4587573251490857,0.9827876617559176
132.0,0.0976969604492187,0.1472984008789062,1.3826990966796875,-2.9332754755855626,-0.7989036016820337,0.4187146770988966,6.121616065502167e-05,0.7550593158458045,-0.0360342715911315,0.19349331943,-0.2245779294719256,-0.4981766781447959,-0.324713368640739,0.126502394995255,0.0109338334264506,-0.1358328781720676,1.5773323572800817,2.5871732273813848,0.7704410956889486,0.757664165449544,-0.0359675927715748,0.1933835090624161,-0.2261480009725412,-0.4983691777570025,-0.3277981504574379,0.1267752153275983,0.0109174516305167,-0.1354279113201463,1.5743620417574848,2.5890104017856763,0.7670493084913279
133.0,0.1021855087280273,0.152527603149414,1.3805946044921875,-3.034544663665252,-0.4059995387206203,0.2900058439530025,5.935589969158173e-05,0.7553296114964024,-0.0345823978107773,0.19293072957,-0.2386271556853887,-0.4890220326605113,-0.606292220100126,0.1261628130409923,0.0105609900844666,-0.1354604899294757,-1.5140537921195545,-2.5935518612265605,-0.3672182965952819,0.7579591343925635,-0.034414390744339,0.1928105225786054,-0.2410563181091521,-0.4884604607469214,-0.610560881641619,0.1264324713968188,0.0105189920171014,-0.1350504199692931,-1.5122704182273816,-2.596912047814489,-0.3610266435404993
134.0,0.1074118423461914,0.1568778839111328,1.378955322265625,-3.066336214965396,-0.0422656206331233,0.1587908095663007,5.262696370482445e-05,0.7554686206881385,-0.0345823978107773,0.19288535942,-0.2660965382818614,-0.4887487596609804,-0.8463238369602095,0.1260697480250605,0.0105280423196248,-0.1354891485071563,-1.4132944291039944,-2.550800862481383,-0.0256544102473342,0.7581442719838654,-0.0345323804210409,0.1927623106467948,-0.2683255903191524,-0.4884999583317765,-0.8505963046646982,0.1263421753555732,0.0105101339826836,-0.1350692679823979,-1.4115317772743454,-2.553232407832501,-0.0197487538015381
135.0,0.1121792984008789,0.1593089294433593,1.378811279296875,-3.059322644122384,0.2495333827542128,0.0735286002688447,4.777955636382103e-05,0.7561945575783156,-0.0304816266545641,0.19294758134,-0.275951965625634,-0.50254904613729,-1.0308545688037989,0.1261449416913006,0.0098640883990189,-0.1354760666928978,-1.325556856885189,-2.487520890970923,0.2092484383009826,0.7588332795213514,-0.0303184234954236,0.1929563299622375,-0.2783859861413315,-0.5035743820780116,-1.0342308622218164,0.1264968356899165,0.009838945238565,-0.1351554808042732,-1.3228390641199652,-2.4899909735528327,0.2137792527108037
136.0,0.1172996826171875,0.1604288482666015,1.3786239013671877,-3.0381096500002087,0.480486160962607,-0.0576375478865289,4.193618148565292e-05,0.7579939543380099,-0.0247976952591349,0.19336887559,-0.3109701861875496,-0.5459994530627,-1.1772405509812285,0.126390970935266,0.009098698627901,-0.1356175086954991,-1.2012761955795983,-2.448053489874636,0.4005835614778856,0.760560518208044,-0.0247386698588328,0.1934438012929859,-0.3129525259387146,-0.549824763890221,-1.177855833428772,0.126764613102924,0.0091145500588559,-0.1353461879139983,-1.196602825055823,-2.451599270335887,0.4001523345638911
137.0,0.120562026977539,0.1610353088378906,1.37887646484375,-3.010096852504432,0.5753305001130135,-0.15617606456848,4.420297592878342e-05,0.7586272184336963,-0.0199787099456188,0.19379794758,-0.3541663145453616,-0.5812516700021837,-1.2328688703927524,0.1264718988917924,0.0083980758320021,-0.1359493809828513,-1.1175211813004169,-2.447446467020048,0.4973520288907741,0.7612266926177516,-0.0199927363867999,0.1938871329586481,-0.3560068920125773,-0.5850900311666506,-1.233552456046462,0.1268590973854734,0.0084262043705147,-0.1356833182862215,-1.1128787053878904,-2.4507863046976817,0.4970462599825342
138.0,0.1219630966186523,0.1614808044433593,1.3792901611328126,-2.996193639368993,0.5860694074279243,-0.2096324593309234,5.1168695092201234e-05,0.758549991104954,-0.0163721936933559,0.19423738989,-0.3858294960115248,-0.609262152454099,-1.2275074505250665,0.1265190819262772,0.0078715526851759,-0.136349896817876,-1.0715459197151382,-2.467661198645068,0.5140717418494278,0.7609821771716405,-0.01631367598047,0.1943379136361548,-0.3878111386902627,-0.6142051601167506,-1.227370630399847,0.1268848112552984,0.0078920797045295,-0.1361120279427874,-1.0657664378855165,-2.4712552709723044,0.5126205533824112
139.0,0.1232056503295898,0.1619511260986328,1.3793907470703126,-2.98249127419997,0.5743709951766449,-0.272945469977099,5.706266686320305e-05,0.7581484089954943,-0.0147890334541399,0.19466257301,-0.4271384148779761,-0.6460173708910025,-1.1741759147505282,0.1264034762519304,0.0077417881663149,-0.136786901280124,-1.0240910450407703,-2.515473961793109,0.4783604368751235,0.7603469887979863,-0.0144499358896861,0.1947622659682713,-0.4290797244492981,-0.6526045358552041,-1.1691305838849435,0.1267276401071418,0.0077185502630366,-0.1365764760832159,-1.0182335079663805,-2.520779386168653,0.4704112437453581
140.0,0.1205522003173828,0.1624551544189453,1.3798253173828126,-2.982243857958752,0.3505550270169938,-0.262849295091333,7.14603140950203e-05,0.7581175180639974,-0.0148122016527626,0.19490497924,-0.4877388085450036,-0.6460173708910025,-0.9716943179420744,0.1263510220718574,0.007603109374162,-0.1371730136870551,-1.052903496774246,-2.637794808580713,0.2912756434452347,0.760293800974664,-0.0146495035243389,0.1950208004703561,-0.4906181352080918,-0.653884667717731,-0.9616624602022192,0.1266700736566436,0.007616687290637,-0.1369787830367126,-1.045746473893445,-2.644310704992653,0.2765213255509189
141.0,0.1147479858398437,0.1610974884033203,1.3797010498046876,-2.9773375053817497,-0.0683248623712103,-0.2163002214083979,8.407966047525406e-05,0.7581097953311232,-0.0182256495831698,0.19522257029,-0.5512748614208146,-0.6195098899365069,-0.6711684401448027,0.1265066143672582,0.007909578435342,-0.1376306347561766,-1.1116494523811629,-2.78885683160703,-0.035503374119688,0.7602800409217146,-0.0187759400051623,0.1953440808156471,-0.5534389950206972,-0.6201715382329026,-0.6672089006551514,0.126874404117759,0.0080128225000595,-0.1374465960495342,-1.1099611168460493,-2.793134953139627,-0.0409033174482078
142.0,0.1084596862792968,0.1570375061035156,1.379341552734375,-2.948126878093768,-0.4972707268100762,-0.1038498912759105,8.086329698562622e-05,0.7563103985714289,-0.0230446348966859,0.19531590317,-0.5508554815338454,-0.5589799205404169,-0.401162697532719,0.1266869644501297,0.0084305748507197,-0.1379599425517751,1.2183478944485877,2.861596953015302,0.3983516981775485,0.7581163302898135,-0.0237600775464329,0.19545016830123,-0.5523010752641685,-0.5560408533492117,-0.4002813798441981,0.1270384464162562,0.0085451213705218,-0.1378305486495267,1.2162738394986514,2.8577975315943127,0.3978786929057168
143.0,0.1042897338867187,0.1540675354003906,1.3805400390625,-2.8519219646117366,-0.791776335980142,0.0094070153315113,7.572157680988312e-05,0.7537155603256894,-0.0258943233272747,0.19528090334,-0.5177244704632906,-0.4964004036478451,-0.1901666990547563,0.1267677714001336,0.0086248381265697,-0.1381993645345592,1.2337699761077765,2.663531773318243,0.6643765338155502,0.7554026290210256,-0.0268372564762124,0.1953013571346895,-0.517373158755416,-0.4932168783943438,-0.1895401788151585,0.1270290929049032,0.00878117566512,-0.1379950828721645,1.2331208819124582,2.6592910618392933,0.6648744948678078
144.0,0.1013227920532226,0.1512923889160156,1.3819991455078124,-2.7550804690021176,-0.9938613148535076,0.122427565306797,7.549490034580231e-05,0.7509585446895913,-0.0281570840594225,0.19512664483,-0.4661407443660976,-0.4391497102461256,-0.0460492637352035,0.126730370084134,0.008741767011779,-0.1383219799978341,1.2615597994215826,2.4874994549331637,0.8338435872922222,0.7525791896699616,-0.0291626130027947,0.1950607668497523,-0.4646137519078464,-0.4360916552969478,-0.0454183937469793,0.1269238427564518,0.0089089398372506,-0.1380595616899871,1.261801358682303,2.4828382166722376,0.8350106245884946
145.0,0.0985270309448242,0.1463382873535156,1.38348974609375,-2.6283644353294275,-1.248614475202161,0.2506988177666469,7.172828912734986e-05,0.7500704304090555,-0.0310144952228856,0.19500868244,-0.4168636076472344,-0.4013013998110986,0.1396999957936588,0.126828890503929,0.0090725060800461,-0.1382325173778708,1.2507612287409344,2.2846475467090164,1.037511650621646,0.7514994813041566,-0.0319967943556299,0.1949240406231772,-0.4136236313813181,-0.3981024880957483,0.1406918432350924,0.1269861373505102,0.0092345321104296,-0.137976925435808,1.2523903048703489,2.2785290181113944,1.0393048362966155
146.0,0.0970170822143554,0.1407003631591797,1.3846358642578125,-2.489553206483682,-1.4923769090632732,0.360800514695529,6.277511268854141e-05,0.7510975538813274,-0.0340186383109589,0.19486220167,-0.3759740686677522,-0.3862713848369001,0.3259233649286187,0.1270208300572892,0.0095714992622955,-0.1378913484977039,1.2132092168622903,2.088394480872416,1.2281602012856792,0.753099163545658,-0.0350736153749743,0.1947732786588887,-0.373261015235739,-0.3826485986916633,0.3267913607860365,0.1272523230288684,0.009741552913502,-0.1375606624511621,1.2133804094264276,2.082206144649808,1.2287444919462305
147.0,0.0965361557006835,0.1362757110595703,1.3852462158203125,-2.356168839197843,-1.6745133791008855,0.4224283417791508,5.3878292441368107e-05,0.7537927876544317,-0.0376406000289702,0.19468720252,-0.3568922838106604,-0.371651279361998,0.476052269671977,0.12735981820969,0.0101534173082727,-0.137361864713164,1.1591783138312206,1.932001610228533,1.3563229332232447,0.7559950089732259,-0.0386578751311314,0.194595129579763,-0.3534703085897152,-0.3682216319418614,0.4773179083039516,0.1276151399814903,0.0103174925267792,-0.137001208269732,1.1593244741089546,1.924900402025549,1.357201982195293
148.0,0.09637646484375,0.1331644744873047,1.385923583984375,-2.26898391797808,-1.7850076600222982,0.4829075088180315,4.554220288991928e-05,0.7556462435442456,-0.0395403923160294,0.19465868414,-0.3283744514967651,-0.3705581873638745,0.5653342555575864,0.1276498233578294,0.0105311457428821,-0.1370295921468944,1.1407909811849366,1.823992635005257,1.43804989470585,0.7579881897440457,-0.0406761827637174,0.1945656029422431,-0.3255159801621238,-0.3672294047248335,0.5667376802099505,0.1279193530701451,0.0107167729330816,-0.1366502347762405,1.1399811017604058,1.8173319217043007,1.4387622262406852
149.0,0.0964561996459961,0.13119384765625,1.3858363037109376,-2.2086330132105627,-1.863168044842567,0.5000753830936339,4.351107403635979e-05,0.7578781133448965,-0.0421661214932658,0.19468331365,-0.3246000325140437,-0.375067191856134,0.6337822873110341,0.1279410769413991,0.0110634114276845,-0.136729876206895,1.1086082169671474,1.7578472494888155,1.4980169558296628,0.7603005704904713,-0.0432905754347541,0.1946914590636504,-0.3208528646124787,-0.3742077003653399,0.6375140392796301,0.1282811833448339,0.011271492845048,-0.1364087582607364,1.1075917197910556,1.7490533043851175,1.5028893897918896
150.0,0.0962981567382812,0.1309417572021484,1.385752197265625,-2.2000573495815305,-1.8752625058415189,0.5042811789176614,3.969600424170494e-05,0.7583723682488469,-0.0436488862051169,0.19480775749,-0.3227128230226829,-0.3743840093573068,0.6427816103889978,0.1280900512343248,0.0113430951595429,-0.1367412168559704,1.1050624626592016,1.7472936084280013,1.506181449802995,0.7609200201740808,-0.0448982950575377,0.1948884865667975,-0.3189683327360079,-0.3729575144874275,0.6463384519777062,0.1284985507411558,0.011573474719378,-0.1364553856821799,1.103893027659749,1.7383881053933354,1.510494222480664
151.0,0.0960855407714843,0.1318624877929687,1.385609375,-2.2504890866402034,-1.8328159380628988,0.5031025497680162,4.314478114247322e-05,0.7575846494956759,-0.0432781950271541,0.19488942376,-0.318728714096477,-0.3890041148322089,0.5695124001179085,0.1279846448932153,0.0113963454787449,-0.1368825467019951,1.1475756750744694,1.8178343498261904,1.4675257001659554,0.7597518052778937,-0.0440933151396259,0.1949935280322636,-0.3147720601786455,-0.3893752708399009,0.5679953998066738,0.1283537859503043,0.0115608391952535,-0.1366640552314606,1.149828201583006,1.814368595463208,1.4696383777499409
152.0,0.0954132919311523,0.1358201293945312,1.3851556396484377,-2.413335908883663,-1.6420114488458724,0.4625278968053657,4.530131071805954e-05,0.7571598991875936,-0.0409304842333899,0.19490627553,-0.3185190241529925,-0.4310881567599646,0.4123741475669283,0.1277624985359559,0.011284288560489,-0.136922487321457,1.22490976684123,1.98146772597839,1.382746321999408,0.7590678534690894,-0.0413188637945664,0.1949977644892578,-0.3157830078191928,-0.4329873159772049,0.4120367740393992,0.1280815376138537,0.0113786469556695,-0.1367323612908157,1.2258504511653523,1.9789778941190952,1.3866496366603385
153.0,0.09574853515625,0.1396960754394531,1.383558837890625,-2.6022841516309567,-1.423591894955314,0.3929845915257701,6.69843852519989e-05,0.7585345456392055,-0.039385937658545,0.19484664619,-0.3313101107055485,-0.4841031186689555,0.2164489430695736,0.1276286747428301,0.0113776733546143,-0.1366786843568317,1.2913762695351991,2.198947104971882,1.2538072640796825,0.7611343059558896,-0.0394638650688469,0.1947974301692095,-0.3312833466070977,-0.488770571890408,0.2180324555947413,0.1279256259607434,0.0114250347385691,-0.1363031380344379,1.288082464529442,2.19848238098853,1.260917087386451
154.0,0.0968599472045898,0.1441612396240234,1.38194921875,-2.755319209809307,-1.180172751563155,0.3229481068934315,6.567646563053131e-05,0.7571212855232224,-0.0392469284668089,0.19486349796,-0.3285841414402496,-0.5112937821222782,0.0179251500453623,0.1273182656287186,0.011557062666219,-0.1368212293489244,1.3610878279774146,2.390460340045271,1.083250807375121,0.7590986229345226,-0.0392031866971293,0.1949082255410327,-0.328021466005117,-0.5163795203766681,0.0193851794856104,0.127595272050426,0.0115886819587504,-0.1365917072182631,1.358500336464399,2.390861916424809,1.090761305724372
155.0,0.0998839035034179,0.1503251953125,1.3803697509765624,-2.9178450040896813,-0.8141779846050696,0.2453339778713257,6.395845860242844e-05,0.7515840860524035,-0.0368837722072962,0.19489072005,-0.3027922783916532,-0.5327457125854522,-0.2618111744458055,0.1265670890979482,0.0113098265224198,-0.1374470957443975,1.466562492256538,2.6219062829169792,0.805076752435227,0.7532687183477415,-0.03690773466602,0.1949640065864605,-0.3001216760555792,-0.5375747338842974,-0.2610717987113009,0.1268324907929214,0.0113559292863961,-0.1372690813280552,1.4660076723427775,2.6223150421701065,0.8135491898038135
156.0,0.1053951187133789,0.1568147888183594,1.3780545654296876,-3.029593534625408,-0.3976172641690266,0.1500277899104755,6.771434098482132e-05,0.7401312731999286,-0.036327735440352,0.19464312866,-0.283920183478046,-0.5398508105732552,-0.5546349174074872,0.1248479937098372,0.0112742658366178,-0.1386372304688428,-1.43030178767194,-2.6222891740250183,-0.4156479543864473,0.7418407602353152,-0.0362920517853143,0.1945415274865107,-0.2803922237050338,-0.5446892836569333,-0.554338256025578,0.125004126511577,0.0113039054362719,-0.1383275542437634,-1.427958975087296,-2.6195037852117564,-0.4233771307778263
157.0,0.1072993545532226,0.1577425231933593,1.3773157958984374,-3.034155054111217,-0.3814374182704501,0.1470724442594157,6.457705050706864e-05,0.7300917204634367,-0.0345437841464062,0.19399887253,-0.2935659208783341,-0.5413538120706751,-0.5538993929076697,0.1229995241283481,0.0109201842222566,-0.1394396832736266,-1.4213339090480552,-2.622610733795732,-0.3991812535788552,0.7318195196402533,-0.0345454857131464,0.19389195010072,-0.2932858123662207,-0.5465554989389236,-0.5535388226468334,0.1231385428211122,0.0109522195225432,-0.1391400929567859,-1.416013647055116,-2.6225143793777503,-0.4042815056800464
158.0,0.1086138916015625,0.1579006652832031,1.3771275634765625,-3.03420216502086,-0.3789995968711907,0.1665620824738256,6.313727796077728e-05,0.7225775013768162,-0.0320030050307863,0.19304869196,-0.2826620438171388,-0.5410805390711442,-0.512466071243376,0.1213706663380248,0.0104269761081436,-0.1396406562161842,-1.444689568564405,-2.6140407400625256,-0.4570088208328869,0.7242104143255539,-0.0319910688632647,0.1929420918401619,-0.2799967766895374,-0.5457467522303888,-0.5074690752259079,0.1215141291757553,0.0104590342323866,-0.139343917184426,-1.4433344056716308,-2.612461645945121,-0.4702804010654593
159.0,0.1093137512207031,0.1580102844238281,1.376738525390625,-3.0359905079946694,-0.3759644866216716,0.1671574146438486,6.210459023714066e-05,0.7190173215217988,-0.0319180549691699,0.19255610176,-0.2830814237041079,-0.5410805390711442,-0.5099340302990185,0.1205476481476157,0.0103949894442801,-0.1397033330349031,-1.444671410209911,-2.6120399732564814,-0.4570482029483028,0.7205393097911634,-0.0317564941648492,0.1924483415541688,-0.2810074200117508,-0.5459620871080644,-0.5036780003880135,0.1206732993143485,0.0104002418636874,-0.1394226298213474,-1.4431375363723165,-2.611007706370579,-0.4714276081142775
160.0,0.1094968185424804,0.157914794921875,1.37640283203125,-3.037644852124773,-0.3766329549594825,0.1699015748062876,6.246989592909814e-05,0.7176117841386899,-0.0330996330989262,0.19227351054,-0.2809845242692626,-0.5388943550748971,-0.5095930695145066,0.1201749782406042,0.0105903389934774,-0.1396492208549304,-1.4474487925202608,-2.609671655302464,-0.4579044983960144,0.7189575148312918,-0.0335454879212823,0.19217201501373,-0.2774906889870741,-0.5423695051619651,-0.5048247127073773,0.120287694258505,0.0106990857047965,-0.1393890226398476,-1.4475349861220743,-2.607379338042328,-0.471030382180163
161.0,0.1095148773193359,0.1571005401611328,1.37496044921875,-3.051319958430856,-0.387507342352205,0.2111983928057535,5.8855712413787845e-05,0.7113486477776938,-0.0392005920695636,0.19119370097,-0.2501601025770376,-0.5237277036009332,-0.5182032347783434,0.1187242703234589,0.0115971137054006,-0.139475621982232,-1.479541937284609,-2.5796343299688536,-0.4636710116697658,0.7128857664094979,-0.0398966706693604,0.1910915773485242,-0.2473366372215676,-0.5239504732889622,-0.5163404465133935,0.1188747805836225,0.0117253521499451,-0.1392008537084773,-1.4816190823164097,-2.5784412297249752,-0.4706572047730344
162.0,0.1111621475219726,0.1561305236816406,1.3722076416015625,-3.0643692008339274,-0.3846269093270966,0.2193527731155675,5.6305181235075e-05,0.7014172133014411,-0.0475874799709714,0.18881630511,-0.2413531249506875,-0.520858337105859,-0.5161323587883779,0.1157765211444055,0.0130081417407592,-0.1387363121804054,-1.4797801877520056,-2.564594094577417,-0.4707658803329539,0.702767142071442,-0.0485726940556468,0.1887012250962778,-0.2377137283273824,-0.5209411129826232,-0.5140996364391546,0.1158927818863659,0.0131850924461271,-0.1384716384041054,-1.4823946721714585,-2.562521175228994,-0.4786100357092757
163.0,0.1140813522338867,0.1547599029541015,1.3689810791015626,-3.0694590996344946,-0.3825091837205559,0.2149118921263393,5.7682760059833526e-05,0.688721040456216,-0.0552329855164536,0.185239841,-0.2503697925205221,-0.5201751546070318,-0.5002720215386072,0.11164263697211,0.0141768340666911,-0.1373844763384901,-1.468016077653015,-2.564834631244089,-0.4798732292923177,0.6899890316070704,-0.0565389315725865,0.185133171517724,-0.2497478464491156,-0.5204009761699911,-0.497346633864668,0.1117381043367951,0.0144043391365446,-0.1371439244342302,-1.4679436612247987,-2.5654547012034703,-0.4866770999496755
164.0,0.118452766418457,0.1530777740478515,1.3653515625,-3.0813462794108326,-0.3710598590713252,0.2170922253161121,5.281271040439606e-05,0.6694373764692774,-0.0605925621311655,0.18052393798,-0.2598058399773256,-0.5166226056131303,-0.4923056145960192,0.1059875866912382,0.0148029378699324,-0.1357943163239912,-1.4581814539650684,-2.560112375152789,-0.4689421295599392,0.6706913343378461,-0.0621508147211381,0.1804385153574615,-0.2600126381024195,-0.5164927402332907,-0.4893162745142763,0.1060902396191169,0.0150648388819165,-0.1355771920143627,-1.4575936586508218,-2.56154619014062,-0.4751376312886439
165.0,0.1237949676513671,0.1515531158447265,1.3611795654296874,-3.0960565032364453,-0.3619434567743628,0.2253137730437541,5.105258151888848e-05,0.6420757338959,-0.0659753069444999,0.17535951862,-0.2675643678862531,-0.5067847776300186,-0.4814599146896917,0.0991196299870782,0.0153107184971195,-0.1344951759158197,-1.4563419677456173,-2.549800568747373,-0.4529527533025398,0.6431964191561169,-0.0676847877507289,0.1752845542645431,-0.2677867130823847,-0.5068040817836363,-0.4781655007855435,0.0992057868870236,0.0155885308992568,-0.1343060461543135,-1.4555721487817226,-2.5511123256697843,-0.4596241722519233
