jabarragann/KinematicCalibDVRK/scripts/test_fk_ik/data/Si_tool_fixed.csv
traj_index,measured_q1,measured_q2,measured_q3,measured_q4,measured_q5,measured_q6,measured_x,measured_y,measured_z,measured_rx,measured_ry,measured_rz
0.0,0.8420481789410694,-0.29915550334883484,0.12972622175,-1.070047781601528,-0.1158677518010935,-0.3081121278182659,0.12329010372018413,0.051753120882244014,-0.11129313900455867,0.5258612808892591,2.5079817224880294,0.26492024766230876
1.0,0.8420481789410694,-0.29915550334883484,0.12972622175,-1.070047781601528,-0.1158677518010935,-0.3081121278182659,0.12329010372018413,0.051753120882244014,-0.11129313900455867,0.5258612808892591,2.5079817224880294,0.26492024766230876
2.0,0.8420481789410694,-0.29915550334883484,0.12972622175,-1.070047781601528,-0.1158677518010935,-0.3081121278182659,0.12329010372018413,0.051753120882244014,-0.11129313900455867,0.5258612808892591,2.5079817224880294,0.26492024766230876
3.0,0.8420481789410694,-0.29915550334883484,0.12972622175,-1.070047781601528,-0.1158677518010935,-0.3081121278182659,0.12329010372018413,0.051753120882244014,-0.11129313900455867,0.5258612808892591,2.5079817224880294,0.26492024766230876
4.0,0.8420481789410694,-0.29915550334883484,0.12972622175,-1.070047781601528,-0.1158677518010935,-0.3081121278182659,0.12329010372018413,0.051753120882244014,-0.11129313900455867,0.5258612808892591,2.5079817224880294,0.26492024766230876
5.0,0.8420481789410694,-0.29915550334883484,0.12972622175,-1.070047781601528,-0.1158677518010935,-0.3081121278182659,0.12329010372018413,0.051753120882244014,-0.11129313900455867,0.5258612808892591,2.5079817224880294,0.26492024766230876
6.0,0.8420481789410694,-0.29915550334883484,0.12972622175,-1.070047781601528,-0.1158677518010935,-0.3081121278182659,0.12329010372018413,0.051753120882244014,-0.11129313900455867,0.5258612808892591,2.5079817224880294,0.26492024766230876
7.0,0.8420481789410694,-0.29915550334883484,0.12972622175,-1.070047781601528,-0.1158677518010935,-0.3081121278182659,0.12329010372018413,0.051753120882244014,-0.11129313900455867,0.5258612808892591,2.5079817224880294,0.26492024766230876
8.0,0.8420481789410694,-0.29915550334883484,0.12972622175,-1.070047781601528,-0.1158677518010935,-0.3081121278182659,0.12329010372018413,0.051753120882244014,-0.11129313900455867,0.5258612808892591,2.5079817224880294,0.26492024766230876
9.0,0.8420481789410694,-0.29915550334883484,0.12972622175,-1.070047781601528,-0.1158677518010935,-0.3081121278182659,0.12329010372018413,0.051753120882244014,-0.11129313900455867,0.5258612808892591,2.5079817224880294,0.26492024766230876
10.0,0.8420481789410694,-0.29915550334883484,0.12972622175,-1.070047781601528,-0.1158677518010935,-0.3081121278182659,0.12329010372018413,0.051753120882244014,-0.11129313900455867,0.5258612808892591,2.5079817224880294,0.26492024766230876
11.0,0.8420481789410694,-0.29915550334883484,0.12972622175,-1.070047781601528,-0.1158677518010935,-0.3081121278182659,0.12329010372018413,0.051753120882244014,-0.11129313900455867,0.5258612808892591,2.5079817224880294,0.26492024766230876
12.0,0.8420481789410694,-0.29915550334883484,0.12972622175,-1.070047781601528,-0.1158677518010935,-0.3081121278182659,0.12329010372018413,0.051753120882244014,-0.11129313900455867,0.5258612808892591,2.5079817224880294,0.26492024766230876
13.0,0.8420481789410694,-0.29915550334883484,0.12972622175,-1.070047781601528,-0.1158677518010935,-0.3081121278182659,0.12329010372018413,0.051753120882244014,-0.11129313900455867,0.5258612808892591,2.5079817224880294,0.26492024766230876
14.0,0.8420481789410694,-0.29915550334883484,0.12972622175,-1.070047781601528,-0.1158677518010935,-0.3081121278182659,0.12329010372018413,0.051753120882244014,-0.11129313900455867,0.5258612808892591,2.5079817224880294,0.26492024766230876
15.0,0.8420481789410694,-0.29915550334883484,0.12972622175,-1.070047781601528,-0.1158677518010935,-0.3081121278182659,0.12329010372018413,0.051753120882244014,-0.11129313900455867,0.5258612808892591,2.5079817224880294,0.26492024766230876
16.0,0.8420481789410694,-0.29915550334883484,0.12972622175,-1.070047781601528,-0.1158677518010935,-0.3081121278182659,0.12329010372018413,0.051753120882244014,-0.11129313900455867,0.5258612808892591,2.5079817224880294,0.26492024766230876
17.0,0.8420481789410694,-0.29915550334883484,0.12972622175,-1.070047781601528,-0.1158677518010935,-0.3081121278182659,0.12329010372018413,0.051753120882244014,-0.11129313900455867,0.5258612808892591,2.5079817224880294,0.26492024766230876
18.0,0.8420481789410694,-0.29915550334883484,0.12972622175,-1.070047781601528,-0.1158677518010935,-0.3081121278182659,0.12329010372018413,0.051753120882244014,-0.11129313900455867,0.5258612808892591,2.5079817224880294,0.26492024766230876
19.0,0.8420481789410694,-0.29915550334883484,0.12972622175,-1.070047781601528,-0.1158677518010935,-0.3081121278182659,0.12329010372018413,0.051753120882244014,-0.11129313900455867,0.5258612808892591,2.5079817224880294,0.26492024766230876
20.0,0.8420481789410694,-0.29915550334883484,0.12972622175,-1.070047781601528,-0.1158677518010935,-0.3081121278182659,0.12329010372018413,0.051753120882244014,-0.11129313900455867,0.5258612808892591,2.5079817224880294,0.26492024766230876
21.0,0.8420481789410694,-0.29915550334883484,0.12972622175,-1.070047781601528,-0.1158677518010935,-0.3081121278182659,0.12329010372018413,0.051753120882244014,-0.11129313900455867,0.5258612808892591,2.5079817224880294,0.26492024766230876
22.0,0.8420481789410694,-0.29915550334883484,0.12972622175,-1.070047781601528,-0.1158677518010935,-0.3081121278182659,0.12329010372018413,0.051753120882244014,-0.11129313900455867,0.5258612808892591,2.5079817224880294,0.26492024766230876
23.0,0.8420481789410694,-0.29915550334883484,0.12972622175,-1.070047781601528,-0.1158677518010935,-0.3081121278182659,0.12329010372018413,0.051753120882244014,-0.11129313900455867,0.5258612808892591,2.5079817224880294,0.26492024766230876
24.0,0.8420481789410694,-0.29915550334883484,0.12972622175,-1.070047781601528,-0.1158677518010935,-0.3081121278182659,0.12329010372018413,0.051753120882244014,-0.11129313900455867,0.5258612808892591,2.5079817224880294,0.26492024766230876
25.0,0.8420481789410694,-0.29915550334883484,0.12972622175,-1.070047781601528,-0.1158677518010935,-0.3081121278182659,0.12329010372018413,0.051753120882244014,-0.11129313900455867,0.5258612808892591,2.5079817224880294,0.26492024766230876
26.0,0.8420481789410694,-0.29915550334883484,0.12972622175,-1.070047781601528,-0.1158677518010935,-0.3081121278182659,0.12329010372018413,0.051753120882244014,-0.11129313900455867,0.5258612808892591,2.5079817224880294,0.26492024766230876
27.0,0.8420481789410694,-0.29915550334883484,0.12972622175,-1.070047781601528,-0.1158677518010935,-0.3081121278182659,0.12329010372018413,0.051753120882244014,-0.11129313900455867,0.5258612808892591,2.5079817224880294,0.26492024766230876
28.0,0.8420481789410694,-0.29915550334883484,0.12972622175,-1.070047781601528,-0.1158677518010935,-0.3081121278182659,0.12329010372018413,0.051753120882244014,-0.11129313900455867,0.5258612808892591,2.5079817224880294,0.26492024766230876
29.0,0.8420481789410694,-0.29915550334883484,0.12972622175,-1.070047781601528,-0.1158677518010935,-0.3081121278182659,0.12329010372018413,0.051753120882244014,-0.11129313900455867,0.5258612808892591,2.5079817224880294,0.26492024766230876
30.0,0.8420481789410694,-0.29915550334883484,0.12972622175,-1.070047781601528,-0.1158677518010935,-0.3081121278182659,0.12329010372018413,0.051753120882244014,-0.11129313900455867,0.5258612808892591,2.5079817224880294,0.26492024766230876
31.0,0.8420481789410694,-0.29915550334883484,0.12972622175,-1.070047781601528,-0.1158677518010935,-0.3081121278182659,0.12329010372018413,0.051753120882244014,-0.11129313900455867,0.5258612808892591,2.5079817224880294,0.26492024766230876
32.0,0.8420481789410694,-0.29915550334883484,0.12972622175,-1.070047781601528,-0.1158677518010935,-0.3081121278182659,0.12329010372018413,0.051753120882244014,-0.11129313900455867,0.5258612808892591,2.5079817224880294,0.26492024766230876
33.0,0.8420481789410694,-0.29915550334883484,0.12972622175,-1.070047781601528,-0.1158677518010935,-0.3081121278182659,0.12329010372018413,0.051753120882244014,-0.11129313900455867,0.5258612808892591,2.5079817224880294,0.26492024766230876
34.0,0.8420481789410694,-0.29915550334883484,0.12972622175,-1.070047781601528,-0.1158677518010935,-0.3081121278182659,0.12329010372018413,0.051753120882244014,-0.11129313900455867,0.5258612808892591,2.5079817224880294,0.26492024766230876
35.0,0.8420481789410694,-0.29915550334883484,0.12972622175,-1.070047781601528,-0.1158677518010935,-0.3081121278182659,0.12329010372018413,0.051753120882244014,-0.11129313900455867,0.5258612808892591,2.5079817224880294,0.26492024766230876
36.0,0.8420481789410694,-0.29915550334883484,0.12972622175,-1.070047781601528,-0.1158677518010935,-0.3081121278182659,0.12329010372018413,0.051753120882244014,-0.11129313900455867,0.5258612808892591,2.5079817224880294,0.26492024766230876
37.0,0.8420481789410694,-0.29915550334883484,0.12972622175,-1.070047781601528,-0.1158677518010935,-0.3081121278182659,0.12329010372018413,0.051753120882244014,-0.11129313900455867,0.5258612808892591,2.5079817224880294,0.26492024766230876
38.0,0.8420481789410694,-0.29915550334883484,0.12972622175,-1.070047781601528,-0.1158677518010935,-0.3081121278182659,0.12329010372018413,0.051753120882244014,-0.11129313900455867,0.5258612808892591,2.5079817224880294,0.26492024766230876
39.0,0.8420481789410694,-0.29915550334883484,0.12972622175,-1.070047781601528,-0.1158677518010935,-0.3081121278182659,0.12329010372018413,0.051753120882244014,-0.11129313900455867,0.5258612808892591,2.5079817224880294,0.26492024766230876
40.0,0.8420481789410694,-0.29915550334883484,0.12972622175,-1.070047781601528,-0.1158677518010935,-0.3081121278182659,0.12329010372018413,0.051753120882244014,-0.11129313900455867,0.5258612808892591,2.5079817224880294,0.26492024766230876
41.0,0.8420481789410694,-0.29915550334883484,0.12972622175,-1.070047781601528,-0.1158677518010935,-0.3081121278182659,0.12329010372018413,0.051753120882244014,-0.11129313900455867,0.5258612808892591,2.5079817224880294,0.26492024766230876
42.0,0.8420481789410694,-0.29915550334883484,0.12972622175,-1.070047781601528,-0.1158677518010935,-0.3081121278182659,0.12329010372018413,0.051753120882244014,-0.11129313900455867,0.5258612808892591,2.5079817224880294,0.26492024766230876
43.0,0.8420481789410694,-0.29915550334883484,0.12972622175,-1.070047781601528,-0.1158677518010935,-0.3081121278182659,0.12329010372018413,0.051753120882244014,-0.11129313900455867,0.5258612808892591,2.5079817224880294,0.26492024766230876
44.0,0.8420481789410694,-0.29915550334883484,0.12972622175,-1.070047781601528,-0.1158677518010935,-0.3081121278182659,0.12329010372018413,0.051753120882244014,-0.11129313900455867,0.5258612808892591,2.5079817224880294,0.26492024766230876
45.0,0.8420481789410694,-0.29915550334883484,0.12972622175,-1.070047781601528,-0.1158677518010935,-0.3081121278182659,0.12329010372018413,0.051753120882244014,-0.11129313900455867,0.5258612808892591,2.5079817224880294,0.26492024766230876
46.0,0.8420481789410694,-0.29915550334883484,0.12972622175,-1.070047781601528,-0.1158677518010935,-0.3081121278182659,0.12329010372018413,0.051753120882244014,-0.11129313900455867,0.5258612808892591,2.5079817224880294,0.26492024766230876
47.0,0.8420481789410694,-0.29915550334883484,0.12972622175,-1.070047781601528,-0.1158677518010935,-0.3081121278182659,0.12329010372018413,0.051753120882244014,-0.11129313900455867,0.5258612808892591,2.5079817224880294,0.26492024766230876
48.0,0.8420481789410694,-0.29915550334883484,0.12972622175,-1.070047781601528,-0.1158677518010935,-0.3081121278182659,0.12329010372018413,0.051753120882244014,-0.11129313900455867,0.5258612808892591,2.5079817224880294,0.26492024766230876
49.0,0.8420481789410694,-0.29915550334883484,0.12972622175,-1.070047781601528,-0.1158677518010935,-0.3081121278182659,0.12329010372018413,0.051753120882244014,-0.11129313900455867,0.5258612808892591,2.5079817224880294,0.26492024766230876
50.0,0.8420481789410694,-0.29915550334883484,0.12972622175,-1.070047781601528,-0.1158677518010935,-0.3081121278182659,0.12329010372018413,0.051753120882244014,-0.11129313900455867,0.5258612808892591,2.5079817224880294,0.26492024766230876
51.0,0.8420481789410694,-0.29915550334883484,0.12972622175,-1.070047781601528,-0.1158677518010935,-0.3081121278182659,0.12329010372018413,0.051753120882244014,-0.11129313900455867,0.5258612808892591,2.5079817224880294,0.26492024766230876
52.0,0.8420481789410694,-0.29915550334883484,0.12972622175,-1.070047781601528,-0.1158677518010935,-0.3081121278182659,0.12329010372018413,0.051753120882244014,-0.11129313900455867,0.5258612808892591,2.5079817224880294,0.26492024766230876
53.0,0.8420481789410694,-0.29915550334883484,0.12972622175,-1.070047781601528,-0.1158677518010935,-0.3081121278182659,0.12329010372018413,0.051753120882244014,-0.11129313900455867,0.5258612808892591,2.5079817224880294,0.26492024766230876
54.0,0.8420481789410694,-0.29915550334883484,0.12972622175,-1.070047781601528,-0.1158677518010935,-0.3081121278182659,0.12329010372018413,0.051753120882244014,-0.11129313900455867,0.5258612808892591,2.5079817224880294,0.26492024766230876
55.0,0.8420481789410694,-0.29915550334883484,0.12972622175,-1.070047781601528,-0.1158677518010935,-0.3081121278182659,0.12329010372018413,0.051753120882244014,-0.11129313900455867,0.5258612808892591,2.5079817224880294,0.26492024766230876
56.0,0.8420481789410694,-0.29915550334883484,0.12972622175,-1.070047781601528,-0.1158677518010935,-0.3081121278182659,0.12329010372018413,0.051753120882244014,-0.11129313900455867,0.5258612808892591,2.5079817224880294,0.26492024766230876
57.0,0.8420481789410694,-0.29915550334883484,0.12972622175,-1.070047781601528,-0.1158677518010935,-0.3081121278182659,0.12329010372018413,0.051753120882244014,-0.11129313900455867,0.5258612808892591,2.5079817224880294,0.26492024766230876
58.0,0.8420481789410694,-0.29915550334883484,0.12972622175,-1.070047781601528,-0.1158677518010935,-0.3081121278182659,0.12329010372018413,0.051753120882244014,-0.11129313900455867,0.5258612808892591,2.5079817224880294,0.26492024766230876
59.0,0.8420481789410694,-0.29915550334883484,0.12972622175,-1.070047781601528,-0.1158677518010935,-0.3081121278182659,0.12329010372018413,0.051753120882244014,-0.11129313900455867,0.5258612808892591,2.5079817224880294,0.26492024766230876
60.0,0.8420481789410694,-0.29915550334883484,0.12972622175,-1.070047781601528,-0.1158677518010935,-0.3081121278182659,0.12329010372018413,0.051753120882244014,-0.11129313900455867,0.5258612808892591,2.5079817224880294,0.26492024766230876
61.0,0.8420481789410694,-0.29915550334883484,0.12972622175,-1.070047781601528,-0.1158677518010935,-0.3081121278182659,0.12329010372018413,0.051753120882244014,-0.11129313900455867,0.5258612808892591,2.5079817224880294,0.26492024766230876
62.0,0.8420481789410694,-0.29915550334883484,0.12972622175,-1.070047781601528,-0.1158677518010935,-0.3081121278182659,0.12329010372018413,0.051753120882244014,-0.11129313900455867,0.5258612808892591,2.5079817224880294,0.26492024766230876
63.0,0.8420481789410694,-0.29915550334883484,0.12972622175,-1.070047781601528,-0.1158677518010935,-0.3081121278182659,0.12329010372018413,0.051753120882244014,-0.11129313900455867,0.5258612808892591,2.5079817224880294,0.26492024766230876
64.0,0.8420481789410694,-0.29915550334883484,0.12972622175,-1.070047781601528,-0.1158677518010935,-0.3081121278182659,0.12329010372018413,0.051753120882244014,-0.11129313900455867,0.5258612808892591,2.5079817224880294,0.26492024766230876
65.0,0.8420481789410694,-0.29915550334883484,0.12972622175,-1.070047781601528,-0.1158677518010935,-0.3081121278182659,0.12329010372018413,0.051753120882244014,-0.11129313900455867,0.5258612808892591,2.5079817224880294,0.26492024766230876
66.0,0.8420481789410694,-0.29915550334883484,0.12972622175,-1.070047781601528,-0.1158677518010935,-0.3081121278182659,0.12329010372018413,0.051753120882244014,-0.11129313900455867,0.5258612808892591,2.5079817224880294,0.26492024766230876
67.0,0.8420481789410694,-0.29915550334883484,0.12972622175,-1.070047781601528,-0.1158677518010935,-0.3081121278182659,0.12329010372018413,0.051753120882244014,-0.11129313900455867,0.5258612808892591,2.5079817224880294,0.26492024766230876
68.0,0.8420481789410694,-0.29915550334883484,0.12972622175,-1.070047781601528,-0.1158677518010935,-0.3081121278182659,0.12329010372018413,0.051753120882244014,-0.11129313900455867,0.5258612808892591,2.5079817224880294,0.26492024766230876
69.0,0.8420481789410694,-0.29915550334883484,0.12972622175,-1.070047781601528,-0.1158677518010935,-0.3081121278182659,0.12329010372018413,0.051753120882244014,-0.11129313900455867,0.5258612808892591,2.5079817224880294,0.26492024766230876
70.0,0.8420481789410694,-0.29915550334883484,0.12972622175,-1.070047781601528,-0.1158677518010935,-0.3081121278182659,0.12329010372018413,0.051753120882244014,-0.11129313900455867,0.5258612808892591,2.5079817224880294,0.26492024766230876
71.0,0.8420481789410694,-0.29915550334883484,0.12972622175,-1.070047781601528,-0.1158677518010935,-0.3081121278182659,0.12329010372018413,0.051753120882244014,-0.11129313900455867,0.5258612808892591,2.5079817224880294,0.26492024766230876
72.0,0.8420481789410694,-0.29915550334883484,0.12972622175,-1.070047781601528,-0.1158677518010935,-0.3081121278182659,0.12329010372018413,0.051753120882244014,-0.11129313900455867,0.5258612808892591,2.5079817224880294,0.26492024766230876
73.0,0.8420481789410694,-0.29915550334883484,0.12972622175,-1.070047781601528,-0.1158677518010935,-0.3081121278182659,0.12329010372018413,0.051753120882244014,-0.11129313900455867,0.5258612808892591,2.5079817224880294,0.26492024766230876
74.0,0.8420481789410694,-0.29915550334883484,0.12972622175,-1.070047781601528,-0.1158677518010935,-0.3081121278182659,0.12329010372018413,0.051753120882244014,-0.11129313900455867,0.5258612808892591,2.5079817224880294,0.26492024766230876
75.0,0.8420481789410694,-0.29915550334883484,0.12972622175,-1.070047781601528,-0.1158677518010935,-0.3081121278182659,0.12329010372018413,0.051753120882244014,-0.11129313900455867,0.5258612808892591,2.5079817224880294,0.26492024766230876
76.0,0.8420481789410694,-0.29915550334883484,0.12972622175,-1.070047781601528,-0.1158677518010935,-0.3081121278182659,0.12329010372018413,0.051753120882244014,-0.11129313900455867,0.5258612808892591,2.5079817224880294,0.26492024766230876
77.0,0.8420481789410694,-0.29915550334883484,0.12972622175,-1.070047781601528,-0.1158677518010935,-0.3081121278182659,0.12329010372018413,0.051753120882244014,-0.11129313900455867,0.5258612808892591,2.5079817224880294,0.26492024766230876
78.0,0.8420481789410694,-0.29915550334883484,0.12972622175,-1.070047781601528,-0.1158677518010935,-0.3081121278182659,0.12329010372018413,0.051753120882244014,-0.11129313900455867,0.5258612808892591,2.5079817224880294,0.26492024766230876
79.0,0.8420481789410694,-0.29915550334883484,0.12972622175,-1.070047781601528,-0.1158677518010935,-0.3081121278182659,0.12329010372018413,0.051753120882244014,-0.11129313900455867,0.5258612808892591,2.5079817224880294,0.26492024766230876
80.0,0.8420481789410694,-0.29915550334883484,0.12972622175,-1.070047781601528,-0.1158677518010935,-0.3081121278182659,0.12329010372018413,0.051753120882244014,-0.11129313900455867,0.5258612808892591,2.5079817224880294,0.26492024766230876
81.0,0.8420481789410694,-0.29915550334883484,0.12972622175,-1.070047781601528,-0.1158677518010935,-0.3081121278182659,0.12329010372018413,0.051753120882244014,-0.11129313900455867,0.5258612808892591,2.5079817224880294,0.26492024766230876
82.0,0.8420481789410694,-0.29915550334883484,0.12972622175,-1.070047781601528,-0.1158677518010935,-0.3081121278182659,0.12329010372018413,0.051753120882244014,-0.11129313900455867,0.5258612808892591,2.5079817224880294,0.26492024766230876
83.0,0.8420481789410694,-0.29915550334883484,0.12972622175,-1.070047781601528,-0.1158677518010935,-0.3081121278182659,0.12329010372018413,0.051753120882244014,-0.11129313900455867,0.5258612808892591,2.5079817224880294,0.26492024766230876
84.0,0.8420481789410694,-0.29915550334883484,0.12972622175,-1.070047781601528,-0.1158677518010935,-0.3081121278182659,0.12329010372018413,0.051753120882244014,-0.11129313900455867,0.5258612808892591,2.5079817224880294,0.26492024766230876
85.0,0.8420481789410694,-0.29915550334883484,0.12972622175,-1.070047781601528,-0.1158677518010935,-0.3081121278182659,0.12329010372018413,0.051753120882244014,-0.11129313900455867,0.5258612808892591,2.5079817224880294,0.26492024766230876
86.0,0.8420481789410694,-0.29915550334883484,0.12972622175,-1.070047781601528,-0.1158677518010935,-0.3081121278182659,0.12329010372018413,0.051753120882244014,-0.11129313900455867,0.5258612808892591,2.5079817224880294,0.26492024766230876
87.0,0.8420481789410694,-0.29915550334883484,0.12972622175,-1.070047781601528,-0.1158677518010935,-0.3081121278182659,0.12329010372018413,0.051753120882244014,-0.11129313900455867,0.5258612808892591,2.5079817224880294,0.26492024766230876
88.0,0.8420481789410694,-0.29915550334883484,0.12972622175,-1.070047781601528,-0.1158677518010935,-0.3081121278182659,0.12329010372018413,0.051753120882244014,-0.11129313900455867,0.5258612808892591,2.5079817224880294,0.26492024766230876
89.0,0.8420481789410694,-0.29915550334883484,0.12972622175,-1.070047781601528,-0.1158677518010935,-0.3081121278182659,0.12329010372018413,0.051753120882244014,-0.11129313900455867,0.5258612808892591,2.5079817224880294,0.26492024766230876
90.0,0.8420481789410694,-0.29915550334883484,0.12972622175,-1.070047781601528,-0.1158677518010935,-0.3081121278182659,0.12329010372018413,0.051753120882244014,-0.11129313900455867,0.5258612808892591,2.5079817224880294,0.26492024766230876
91.0,0.8420481789410694,-0.29915550334883484,0.12972622175,-1.070047781601528,-0.1158677518010935,-0.3081121278182659,0.12329010372018413,0.051753120882244014,-0.11129313900455867,0.5258612808892591,2.5079817224880294,0.26492024766230876
92.0,0.8420481789410694,-0.29915550334883484,0.12972622175,-1.070047781601528,-0.1158677518010935,-0.3081121278182659,0.12329010372018413,0.051753120882244014,-0.11129313900455867,0.5258612808892591,2.5079817224880294,0.26492024766230876
93.0,0.8420481789410694,-0.29915550334883484,0.12972622175,-1.070047781601528,-0.1158677518010935,-0.3081121278182659,0.12329010372018413,0.051753120882244014,-0.11129313900455867,0.5258612808892591,2.5079817224880294,0.26492024766230876
94.0,0.8420481789410694,-0.29915550334883484,0.12972622175,-1.070047781601528,-0.1158677518010935,-0.3081121278182659,0.12329010372018413,0.051753120882244014,-0.11129313900455867,0.5258612808892591,2.5079817224880294,0.26492024766230876
95.0,0.8420481789410694,-0.29915550334883484,0.12972622175,-1.070047781601528,-0.1158677518010935,-0.3081121278182659,0.12329010372018413,0.051753120882244014,-0.11129313900455867,0.5258612808892591,2.5079817224880294,0.26492024766230876
96.0,0.8420481789410694,-0.29915550334883484,0.12972622175,-1.070047781601528,-0.1158677518010935,-0.3081121278182659,0.12329010372018413,0.051753120882244014,-0.11129313900455867,0.5258612808892591,2.5079817224880294,0.26492024766230876
97.0,0.8420481789410694,-0.29915550334883484,0.12972622175,-1.070047781601528,-0.1158677518010935,-0.3081121278182659,0.12329010372018413,0.051753120882244014,-0.11129313900455867,0.5258612808892591,2.5079817224880294,0.26492024766230876
98.0,0.8420481789410694,-0.29915550334883484,0.12972622175,-1.070047781601528,-0.1158677518010935,-0.3081121278182659,0.12329010372018413,0.051753120882244014,-0.11129313900455867,0.5258612808892591,2.5079817224880294,0.26492024766230876
99.0,0.8420481789410694,-0.29915550334883484,0.12972622175,-1.070047781601528,-0.1158677518010935,-0.3081121278182659,0.12329010372018413,0.051753120882244014,-0.11129313900455867,0.5258612808892591,2.5079817224880294,0.26492024766230876
100.0,0.8420481789410694,-0.29915550334883484,0.12972622175,-1.070047781601528,-0.1158677518010935,-0.3081121278182659,0.12329010372018413,0.051753120882244014,-0.11129313900455867,0.5258612808892591,2.5079817224880294,0.26492024766230876
101.0,0.8420481789410694,-0.29915550334883484,0.12972622175,-1.070047781601528,-0.1158677518010935,-0.3081121278182659,0.12329010372018413,0.051753120882244014,-0.11129313900455867,0.5258612808892591,2.5079817224880294,0.26492024766230876
102.0,0.8420481789410694,-0.29915550334883484,0.12972622175,-1.070047781601528,-0.1158677518010935,-0.3081121278182659,0.12329010372018413,0.051753120882244014,-0.11129313900455867,0.5258612808892591,2.5079817224880294,0.26492024766230876
103.0,0.8420481789410694,-0.29915550334883484,0.12972622175,-1.070047781601528,-0.1158677518010935,-0.3081121278182659,0.12329010372018413,0.051753120882244014,-0.11129313900455867,0.5258612808892591,2.5079817224880294,0.26492024766230876
104.0,0.8420481789410694,-0.29915550334883484,0.12972622175,-1.070047781601528,-0.1158677518010935,-0.3081121278182659,0.12329010372018413,0.051753120882244014,-0.11129313900455867,0.5258612808892591,2.5079817224880294,0.26492024766230876
105.0,0.8420481789410694,-0.29915550334883484,0.12972622175,-1.070047781601528,-0.1158677518010935,-0.3081121278182659,0.12329010372018413,0.051753120882244014,-0.11129313900455867,0.5258612808892591,2.5079817224880294,0.26492024766230876
106.0,0.8420481789410694,-0.29915550334883484,0.12972622175,-1.070047781601528,-0.1158677518010935,-0.3081121278182659,0.12329010372018413,0.051753120882244014,-0.11129313900455867,0.5258612808892591,2.5079817224880294,0.26492024766230876
107.0,0.8420481789410694,-0.29915550334883484,0.12972622175,-1.070047781601528,-0.1158677518010935,-0.3081121278182659,0.12329010372018413,0.051753120882244014,-0.11129313900455867,0.5258612808892591,2.5079817224880294,0.26492024766230876
108.0,0.8420481789410694,-0.29915550334883484,0.12972622175,-1.070047781601528,-0.1158677518010935,-0.3081121278182659,0.12329010372018413,0.051753120882244014,-0.11129313900455867,0.5258612808892591,2.5079817224880294,0.26492024766230876
109.0,0.8420481789410694,-0.29915550334883484,0.12972622175,-1.070047781601528,-0.1158677518010935,-0.3081121278182659,0.12329010372018413,0.051753120882244014,-0.11129313900455867,0.5258612808892591,2.5079817224880294,0.26492024766230876
110.0,0.8420481789410694,-0.29915550334883484,0.12972622175,-1.070047781601528,-0.1158677518010935,-0.3081121278182659,0.12329010372018413,0.051753120882244014,-0.11129313900455867,0.5258612808892591,2.5079817224880294,0.26492024766230876
111.0,0.8420481789410694,-0.29915550334883484,0.12972622175,-1.070047781601528,-0.1158677518010935,-0.3081121278182659,0.12329010372018413,0.051753120882244014,-0.11129313900455867,0.5258612808892591,2.5079817224880294,0.26492024766230876
112.0,0.8420481789410694,-0.29915550334883484,0.12972622175,-1.070047781601528,-0.1158677518010935,-0.3081121278182659,0.12329010372018413,0.051753120882244014,-0.11129313900455867,0.5258612808892591,2.5079817224880294,0.26492024766230876
113.0,0.8420481789410694,-0.29915550334883484,0.12972622175,-1.070047781601528,-0.1158677518010935,-0.3081121278182659,0.12329010372018413,0.051753120882244014,-0.11129313900455867,0.5258612808892591,2.5079817224880294,0.26492024766230876
114.0,0.8420481789410694,-0.29915550334883484,0.12972622175,-1.070047781601528,-0.1158677518010935,-0.3081121278182659,0.12329010372018413,0.051753120882244014,-0.11129313900455867,0.5258612808892591,2.5079817224880294,0.26492024766230876
115.0,0.8420481789410694,-0.29915550334883484,0.12972622175,-1.070047781601528,-0.1158677518010935,-0.3081121278182659,0.12329010372018413,0.051753120882244014,-0.11129313900455867,0.5258612808892591,2.5079817224880294,0.26492024766230876
116.0,0.8420481789410694,-0.29915550334883484,0.12972622175,-1.070047781601528,-0.1158677518010935,-0.3081121278182659,0.12329010372018413,0.051753120882244014,-0.11129313900455867,0.5258612808892591,2.5079817224880294,0.26492024766230876
117.0,0.8420481789410694,-0.29915550334883484,0.12972622175,-1.070047781601528,-0.1158677518010935,-0.3081121278182659,0.12329010372018413,0.051753120882244014,-0.11129313900455867,0.5258612808892591,2.5079817224880294,0.26492024766230876
118.0,0.8420481789410694,-0.29915550334883484,0.12972622175,-1.070047781601528,-0.1158677518010935,-0.3081121278182659,0.12329010372018413,0.051753120882244014,-0.11129313900455867,0.5258612808892591,2.5079817224880294,0.26492024766230876
119.0,0.8420481789410694,-0.29915550334883484,0.12972622175,-1.070047781601528,-0.1158677518010935,-0.3081121278182659,0.12329010372018413,0.051753120882244014,-0.11129313900455867,0.5258612808892591,2.5079817224880294,0.26492024766230876
120.0,0.8420481789410694,-0.29915550334883484,0.12972622175,-1.070047781601528,-0.1158677518010935,-0.3081121278182659,0.12329010372018413,0.051753120882244014,-0.11129313900455867,0.5258612808892591,2.5079817224880294,0.26492024766230876
121.0,0.8420481789410694,-0.29915550334883484,0.12972622175,-1.070047781601528,-0.1158677518010935,-0.3081121278182659,0.12329010372018413,0.051753120882244014,-0.11129313900455867,0.5258612808892591,2.5079817224880294,0.26492024766230876
122.0,0.8420481789410694,-0.29915550334883484,0.12972622175,-1.070047781601528,-0.1158677518010935,-0.3081121278182659,0.12329010372018413,0.051753120882244014,-0.11129313900455867,0.5258612808892591,2.5079817224880294,0.26492024766230876
123.0,0.8420481789410694,-0.29915550334883484,0.12972622175,-1.070047781601528,-0.1158677518010935,-0.3081121278182659,0.12329010372018413,0.051753120882244014,-0.11129313900455867,0.5258612808892591,2.5079817224880294,0.26492024766230876
124.0,0.8420481789410694,-0.29915550334883484,0.12972622175,-1.070047781601528,-0.1158677518010935,-0.3081121278182659,0.12329010372018413,0.051753120882244014,-0.11129313900455867,0.5258612808892591,2.5079817224880294,0.26492024766230876
125.0,0.8420481789410694,-0.29915550334883484,0.12972622175,-1.070047781601528,-0.1158677518010935,-0.3081121278182659,0.12329010372018413,0.051753120882244014,-0.11129313900455867,0.5258612808892591,2.5079817224880294,0.26492024766230876
126.0,0.8420481789410694,-0.29915550334883484,0.12972622175,-1.070047781601528,-0.1158677518010935,-0.3081121278182659,0.12329010372018413,0.051753120882244014,-0.11129313900455867,0.5258612808892591,2.5079817224880294,0.26492024766230876
127.0,0.8420481789410694,-0.29915550334883484,0.12972622175,-1.070047781601528,-0.1158677518010935,-0.3081121278182659,0.12329010372018413,0.051753120882244014,-0.11129313900455867,0.5258612808892591,2.5079817224880294,0.26492024766230876
128.0,0.8420481789410694,-0.29915550334883484,0.12972622175,-1.070047781601528,-0.1158677518010935,-0.3081121278182659,0.12329010372018413,0.051753120882244014,-0.11129313900455867,0.5258612808892591,2.5079817224880294,0.26492024766230876
129.0,0.8420481789410694,-0.29915550334883484,0.12972622175,-1.070047781601528,-0.1158677518010935,-0.3081121278182659,0.12329010372018413,0.051753120882244014,-0.11129313900455867,0.5258612808892591,2.5079817224880294,0.26492024766230876
130.0,0.8420481789410694,-0.29915550334883484,0.12972622175,-1.070047781601528,-0.1158677518010935,-0.3081121278182659,0.12329010372018413,0.051753120882244014,-0.11129313900455867,0.5258612808892591,2.5079817224880294,0.26492024766230876
131.0,0.8420481789410694,-0.29915550334883484,0.12972622175,-1.070047781601528,-0.1158677518010935,-0.3081121278182659,0.12329010372018413,0.051753120882244014,-0.11129313900455867,0.5258612808892591,2.5079817224880294,0.26492024766230876
132.0,0.8420481789410694,-0.29915550334883484,0.12972622175,-1.070047781601528,-0.1158677518010935,-0.3081121278182659,0.12329010372018413,0.051753120882244014,-0.11129313900455867,0.5258612808892591,2.5079817224880294,0.26492024766230876
133.0,0.8420481789410694,-0.29915550334883484,0.12972622175,-1.070047781601528,-0.1158677518010935,-0.3081121278182659,0.12329010372018413,0.051753120882244014,-0.11129313900455867,0.5258612808892591,2.5079817224880294,0.26492024766230876
134.0,0.8420481789410694,-0.29915550334883484,0.12972622175,-1.070047781601528,-0.1158677518010935,-0.3081121278182659,0.12329010372018413,0.051753120882244014,-0.11129313900455867,0.5258612808892591,2.5079817224880294,0.26492024766230876
135.0,0.8420481789410694,-0.29915550334883484,0.12972622175,-1.070047781601528,-0.1158677518010935,-0.3081121278182659,0.12329010372018413,0.051753120882244014,-0.11129313900455867,0.5258612808892591,2.5079817224880294,0.26492024766230876
136.0,0.8420481789410694,-0.29915550334883484,0.12972622175,-1.070047781601528,-0.1158677518010935,-0.3081121278182659,0.12329010372018413,0.051753120882244014,-0.11129313900455867,0.5258612808892591,2.5079817224880294,0.26492024766230876
137.0,0.8420481789410694,-0.29915550334883484,0.12972622175,-1.070047781601528,-0.1158677518010935,-0.3081121278182659,0.12329010372018413,0.051753120882244014,-0.11129313900455867,0.5258612808892591,2.5079817224880294,0.26492024766230876
138.0,0.8420481789410694,-0.29915550334883484,0.12972622175,-1.070047781601528,-0.1158677518010935,-0.3081121278182659,0.12329010372018413,0.051753120882244014,-0.11129313900455867,0.5258612808892591,2.5079817224880294,0.26492024766230876
139.0,0.8420481789410694,-0.29915550334883484,0.12972622175,-1.070047781601528,-0.1158677518010935,-0.3081121278182659,0.12329010372018413,0.051753120882244014,-0.11129313900455867,0.5258612808892591,2.5079817224880294,0.26492024766230876
140.0,0.8420481789410694,-0.29915550334883484,0.12972622175,-1.070047781601528,-0.1158677518010935,-0.3081121278182659,0.12329010372018413,0.051753120882244014,-0.11129313900455867,0.5258612808892591,2.5079817224880294,0.26492024766230876
141.0,0.8420481789410694,-0.29915550334883484,0.12972622175,-1.070047781601528,-0.1158677518010935,-0.3081121278182659,0.12329010372018413,0.051753120882244014,-0.11129313900455867,0.5258612808892591,2.5079817224880294,0.26492024766230876
142.0,0.8420481789410694,-0.29915550334883484,0.12972622175,-1.070047781601528,-0.1158677518010935,-0.3081121278182659,0.12329010372018413,0.051753120882244014,-0.11129313900455867,0.5258612808892591,2.5079817224880294,0.26492024766230876
143.0,0.8420481789410694,-0.29915550334883484,0.12972622175,-1.070047781601528,-0.1158677518010935,-0.3081121278182659,0.12329010372018413,0.051753120882244014,-0.11129313900455867,0.5258612808892591,2.5079817224880294,0.26492024766230876
144.0,0.8420481789410694,-0.29915550334883484,0.12972622175,-1.070047781601528,-0.1158677518010935,-0.3081121278182659,0.12329010372018413,0.051753120882244014,-0.11129313900455867,0.5258612808892591,2.5079817224880294,0.26492024766230876
145.0,0.8420481789410694,-0.29915550334883484,0.12972622175,-1.070047781601528,-0.1158677518010935,-0.3081121278182659,0.12329010372018413,0.051753120882244014,-0.11129313900455867,0.5258612808892591,2.5079817224880294,0.26492024766230876
146.0,0.8420481789410694,-0.29915550334883484,0.12972622175,-1.070047781601528,-0.1158677518010935,-0.3081121278182659,0.12329010372018413,0.051753120882244014,-0.11129313900455867,0.5258612808892591,2.5079817224880294,0.26492024766230876
147.0,0.8420481789410694,-0.29915550334883484,0.12972622175,-1.070047781601528,-0.1158677518010935,-0.3081121278182659,0.12329010372018413,0.051753120882244014,-0.11129313900455867,0.5258612808892591,2.5079817224880294,0.26492024766230876
148.0,0.8420481789410694,-0.29915550334883484,0.12972622175,-1.070047781601528,-0.1158677518010935,-0.3081121278182659,0.12329010372018413,0.051753120882244014,-0.11129313900455867,0.5258612808892591,2.5079817224880294,0.26492024766230876
149.0,0.8420481789410694,-0.29915550334883484,0.12972622175,-1.070047781601528,-0.1158677518010935,-0.3081121278182659,0.12329010372018413,0.051753120882244014,-0.11129313900455867,0.5258612808892591,2.5079817224880294,0.26492024766230876
150.0,0.8420481789410694,-0.29915550334883484,0.12972622175,-1.070047781601528,-0.1158677518010935,-0.3081121278182659,0.12329010372018413,0.051753120882244014,-0.11129313900455867,0.5258612808892591,2.5079817224880294,0.26492024766230876
151.0,0.8420481789410694,-0.29915550334883484,0.12972622175,-1.070047781601528,-0.1158677518010935,-0.3081121278182659,0.12329010372018413,0.051753120882244014,-0.11129313900455867,0.5258612808892591,2.5079817224880294,0.26492024766230876
152.0,0.8420481789410694,-0.29915550334883484,0.12972622175,-1.070047781601528,-0.1158677518010935,-0.3081121278182659,0.12329010372018413,0.051753120882244014,-0.11129313900455867,0.5258612808892591,2.5079817224880294,0.26492024766230876
153.0,0.8420481789410694,-0.29915550334883484,0.12972622175,-1.070047781601528,-0.1158677518010935,-0.3081121278182659,0.12329010372018413,0.051753120882244014,-0.11129313900455867,0.5258612808892591,2.5079817224880294,0.26492024766230876
154.0,0.8420481789410694,-0.29915550334883484,0.12972622175,-1.070047781601528,-0.1158677518010935,-0.3081121278182659,0.12329010372018413,0.051753120882244014,-0.11129313900455867,0.5258612808892591,2.5079817224880294,0.26492024766230876
155.0,0.8420481789410694,-0.29915550334883484,0.12972622175,-1.070047781601528,-0.1158677518010935,-0.3081121278182659,0.12329010372018413,0.051753120882244014,-0.11129313900455867,0.5258612808892591,2.5079817224880294,0.26492024766230876
156.0,0.8420481789410694,-0.29915550334883484,0.12972622175,-1.070047781601528,-0.1158677518010935,-0.3081121278182659,0.12329010372018413,0.051753120882244014,-0.11129313900455867,0.5258612808892591,2.5079817224880294,0.26492024766230876
157.0,0.8420481789410694,-0.29915550334883484,0.12972622175,-1.070047781601528,-0.1158677518010935,-0.3081121278182659,0.12329010372018413,0.051753120882244014,-0.11129313900455867,0.5258612808892591,2.5079817224880294,0.26492024766230876
158.0,0.8420481789410694,-0.29915550334883484,0.12972622175,-1.070047781601528,-0.1158677518010935,-0.3081121278182659,0.12329010372018413,0.051753120882244014,-0.11129313900455867,0.5258612808892591,2.5079817224880294,0.26492024766230876
159.0,0.8420481789410694,-0.29915550334883484,0.12972622175,-1.070047781601528,-0.1158677518010935,-0.3081121278182659,0.12329010372018413,0.051753120882244014,-0.11129313900455867,0.5258612808892591,2.5079817224880294,0.26492024766230876
160.0,0.8420481789410694,-0.29915550334883484,0.12972622175,-1.070047781601528,-0.1158677518010935,-0.3081121278182659,0.12329010372018413,0.051753120882244014,-0.11129313900455867,0.5258612808892591,2.5079817224880294,0.26492024766230876
161.0,0.8420481789410694,-0.29915550334883484,0.12972622175,-1.070047781601528,-0.1158677518010935,-0.3081121278182659,0.12329010372018413,0.051753120882244014,-0.11129313900455867,0.5258612808892591,2.5079817224880294,0.26492024766230876
162.0,0.8420481789410694,-0.29915550334883484,0.12972622175,-1.070047781601528,-0.1158677518010935,-0.3081121278182659,0.12329010372018413,0.051753120882244014,-0.11129313900455867,0.5258612808892591,2.5079817224880294,0.26492024766230876
163.0,0.8420481789410694,-0.29915550334883484,0.12972622175,-1.070047781601528,-0.1158677518010935,-0.3081121278182659,0.12329010372018413,0.051753120882244014,-0.11129313900455867,0.5258612808892591,2.5079817224880294,0.26492024766230876
164.0,0.8420481789410694,-0.29915550334883484,0.12972622175,-1.070047781601528,-0.1158677518010935,-0.3081121278182659,0.12329010372018413,0.051753120882244014,-0.11129313900455867,0.5258612808892591,2.5079817224880294,0.26492024766230876
165.0,0.8420481789410694,-0.29915550334883484,0.12972622175,-1.070047781601528,-0.1158677518010935,-0.3081121278182659,0.12329010372018413,0.051753120882244014,-0.11129313900455867,0.5258612808892591,2.5079817224880294,0.26492024766230876
166.0,0.8420481789410694,-0.29915550334883484,0.12972622175,-1.070047781601528,-0.1158677518010935,-0.3081121278182659,0.12329010372018413,0.051753120882244014,-0.11129313900455867,0.5258612808892591,2.5079817224880294,0.26492024766230876
167.0,0.8420481789410694,-0.29915550334883484,0.12972622175,-1.070047781601528,-0.1158677518010935,-0.3081121278182659,0.12329010372018413,0.051753120882244014,-0.11129313900455867,0.5258612808892591,2.5079817224880294,0.26492024766230876
168.0,0.8420481789410694,-0.29915550334883484,0.12972622175,-1.070047781601528,-0.1158677518010935,-0.3081121278182659,0.12329010372018413,0.051753120882244014,-0.11129313900455867,0.5258612808892591,2.5079817224880294,0.26492024766230876
169.0,0.8420481789410694,-0.29915550334883484,0.12972622175,-1.070047781601528,-0.1158677518010935,-0.3081121278182659,0.12329010372018413,0.051753120882244014,-0.11129313900455867,0.5258612808892591,2.5079817224880294,0.26492024766230876
170.0,0.8420481789410694,-0.29915550334883484,0.12972622175,-1.070047781601528,-0.1158677518010935,-0.3081121278182659,0.12329010372018413,0.051753120882244014,-0.11129313900455867,0.5258612808892591,2.5079817224880294,0.26492024766230876
171.0,0.8420481789410694,-0.29915550334883484,0.12972622175,-1.070047781601528,-0.1158677518010935,-0.3081121278182659,0.12329010372018413,0.051753120882244014,-0.11129313900455867,0.5258612808892591,2.5079817224880294,0.26492024766230876
172.0,0.8420481789410694,-0.29915550334883484,0.12972622175,-1.070047781601528,-0.1158677518010935,-0.3081121278182659,0.12329010372018413,0.051753120882244014,-0.11129313900455867,0.5258612808892591,2.5079817224880294,0.26492024766230876
173.0,0.8420481789410694,-0.29915550334883484,0.12972622175,-1.070047781601528,-0.1158677518010935,-0.3081121278182659,0.12329010372018413,0.051753120882244014,-0.11129313900455867,0.5258612808892591,2.5079817224880294,0.26492024766230876
174.0,0.8420481789410694,-0.29915550334883484,0.12972622175,-1.070047781601528,-0.1158677518010935,-0.3081121278182659,0.12329010372018413,0.051753120882244014,-0.11129313900455867,0.5258612808892591,2.5079817224880294,0.26492024766230876
175.0,0.8420481789410694,-0.29915550334883484,0.12972622175,-1.070047781601528,-0.1158677518010935,-0.3081121278182659,0.12329010372018413,0.051753120882244014,-0.11129313900455867,0.5258612808892591,2.5079817224880294,0.26492024766230876
176.0,0.8420481789410694,-0.29915550334883484,0.12972622175,-1.070047781601528,-0.1158677518010935,-0.3081121278182659,0.12329010372018413,0.051753120882244014,-0.11129313900455867,0.5258612808892591,2.5079817224880294,0.26492024766230876
177.0,0.8420481789410694,-0.29915550334883484,0.12972622175,-1.070047781601528,-0.1158677518010935,-0.3081121278182659,0.12329010372018413,0.051753120882244014,-0.11129313900455867,0.5258612808892591,2.5079817224880294,0.26492024766230876
178.0,0.8420481789410694,-0.29915550334883484,0.12972622175,-1.070047781601528,-0.1158677518010935,-0.3081121278182659,0.12329010372018413,0.051753120882244014,-0.11129313900455867,0.5258612808892591,2.5079817224880294,0.26492024766230876
179.0,0.8420481789410694,-0.29915550334883484,0.12972622175,-1.070047781601528,-0.1158677518010935,-0.3081121278182659,0.12329010372018413,0.051753120882244014,-0.11129313900455867,0.5258612808892591,2.5079817224880294,0.26492024766230876
180.0,0.8420481789410694,-0.29915550334883484,0.12972622175,-1.070047781601528,-0.1158677518010935,-0.3081121278182659,0.12329010372018413,0.051753120882244014,-0.11129313900455867,0.5258612808892591,2.5079817224880294,0.26492024766230876
181.0,0.8420481789410694,-0.29915550334883484,0.12972622175,-1.070047781601528,-0.1158677518010935,-0.3081121278182659,0.12329010372018413,0.051753120882244014,-0.11129313900455867,0.5258612808892591,2.5079817224880294,0.26492024766230876
182.0,0.8420481789410694,-0.29915550334883484,0.12972622175,-1.070047781601528,-0.1158677518010935,-0.3081121278182659,0.12329010372018413,0.051753120882244014,-0.11129313900455867,0.5258612808892591,2.5079817224880294,0.26492024766230876
183.0,0.8420481789410694,-0.29915550334883484,0.12972622175,-1.070047781601528,-0.1158677518010935,-0.3081121278182659,0.12329010372018413,0.051753120882244014,-0.11129313900455867,0.5258612808892591,2.5079817224880294,0.26492024766230876
184.0,0.8420481789410694,-0.29915550334883484,0.12972622175,-1.070047781601528,-0.1158677518010935,-0.3081121278182659,0.12329010372018413,0.051753120882244014,-0.11129313900455867,0.5258612808892591,2.5079817224880294,0.26492024766230876
185.0,0.8420481789410694,-0.29915550334883484,0.12972622175,-1.070047781601528,-0.1158677518010935,-0.3081121278182659,0.12329010372018413,0.051753120882244014,-0.11129313900455867,0.5258612808892591,2.5079817224880294,0.26492024766230876
186.0,0.8420481789410694,-0.29915550334883484,0.12972622175,-1.070047781601528,-0.1158677518010935,-0.3081121278182659,0.12329010372018413,0.051753120882244014,-0.11129313900455867,0.5258612808892591,2.5079817224880294,0.26492024766230876
187.0,0.8420481789410694,-0.29915550334883484,0.12972622175,-1.070047781601528,-0.1158677518010935,-0.3081121278182659,0.12329010372018413,0.051753120882244014,-0.11129313900455867,0.5258612808892591,2.5079817224880294,0.26492024766230876
188.0,0.8420481789410694,-0.29915550334883484,0.12972622175,-1.070047781601528,-0.1158677518010935,-0.3081121278182659,0.12329010372018413,0.051753120882244014,-0.11129313900455867,0.5258612808892591,2.5079817224880294,0.26492024766230876
189.0,0.8420481789410694,-0.29915550334883484,0.12972622175,-1.070047781601528,-0.1158677518010935,-0.3081121278182659,0.12329010372018413,0.051753120882244014,-0.11129313900455867,0.5258612808892591,2.5079817224880294,0.26492024766230876
190.0,0.8420481789410694,-0.29915550334883484,0.12972622175,-1.070047781601528,-0.1158677518010935,-0.3081121278182659,0.12329010372018413,0.051753120882244014,-0.11129313900455867,0.5258612808892591,2.5079817224880294,0.26492024766230876
191.0,0.8420481789410694,-0.29915550334883484,0.12972622175,-1.070047781601528,-0.1158677518010935,-0.3081121278182659,0.12329010372018413,0.051753120882244014,-0.11129313900455867,0.5258612808892591,2.5079817224880294,0.26492024766230876
192.0,0.8420481789410694,-0.29915550334883484,0.12972622175,-1.070047781601528,-0.1158677518010935,-0.3081121278182659,0.12329010372018413,0.051753120882244014,-0.11129313900455867,0.5258612808892591,2.5079817224880294,0.26492024766230876
193.0,0.8420481789410694,-0.29915550334883484,0.12972622175,-1.070047781601528,-0.1158677518010935,-0.3081121278182659,0.12329010372018413,0.051753120882244014,-0.11129313900455867,0.5258612808892591,2.5079817224880294,0.26492024766230876
194.0,0.8420481789410694,-0.29915550334883484,0.12972622175,-1.070047781601528,-0.1158677518010935,-0.3081121278182659,0.12329010372018413,0.051753120882244014,-0.11129313900455867,0.5258612808892591,2.5079817224880294,0.26492024766230876
195.0,0.8420481789410694,-0.29915550334883484,0.12972622175,-1.070047781601528,-0.1158677518010935,-0.3081121278182659,0.12329010372018413,0.051753120882244014,-0.11129313900455867,0.5258612808892591,2.5079817224880294,0.26492024766230876
196.0,0.8420481789410694,-0.29915550334883484,0.12972622175,-1.070047781601528,-0.1158677518010935,-0.3081121278182659,0.12329010372018413,0.051753120882244014,-0.11129313900455867,0.5258612808892591,2.5079817224880294,0.26492024766230876
197.0,0.8420481789410694,-0.29915550334883484,0.12972622175,-1.070047781601528,-0.1158677518010935,-0.3081121278182659,0.12329010372018413,0.051753120882244014,-0.11129313900455867,0.5258612808892591,2.5079817224880294,0.26492024766230876
198.0,0.8420481789410694,-0.29915550334883484,0.12972622175,-1.070047781601528,-0.1158677518010935,-0.3081121278182659,0.12329010372018413,0.051753120882244014,-0.11129313900455867,0.5258612808892591,2.5079817224880294,0.26492024766230876
199.0,0.8420481789410694,-0.29915550334883484,0.12972622175,-1.070047781601528,-0.1158677518010935,-0.3081121278182659,0.12329010372018413,0.051753120882244014,-0.11129313900455867,0.5258612808892591,2.5079817224880294,0.26492024766230876
200.0,0.8420481789410694,-0.29915550334883484,0.12972622175,-1.070047781601528,-0.1158677518010935,-0.3081121278182659,0.12329010372018413,0.051753120882244014,-0.11129313900455867,0.5258612808892591,2.5079817224880294,0.26492024766230876
201.0,0.8420481789410694,-0.29915550334883484,0.12972622175,-1.070047781601528,-0.1158677518010935,-0.3081121278182659,0.12329010372018413,0.051753120882244014,-0.11129313900455867,0.5258612808892591,2.5079817224880294,0.26492024766230876
202.0,0.8420481789410694,-0.29915550334883484,0.12972622175,-1.070047781601528,-0.1158677518010935,-0.3081121278182659,0.12329010372018413,0.051753120882244014,-0.11129313900455867,0.5258612808892591,2.5079817224880294,0.26492024766230876
203.0,0.8420481789410694,-0.29915550334883484,0.12972622175,-1.070047781601528,-0.1158677518010935,-0.3081121278182659,0.12329010372018413,0.051753120882244014,-0.11129313900455867,0.5258612808892591,2.5079817224880294,0.26492024766230876
204.0,0.8420481789410694,-0.29915550334883484,0.12972622175,-1.070047781601528,-0.1158677518010935,-0.3081121278182659,0.12329010372018413,0.051753120882244014,-0.11129313900455867,0.5258612808892591,2.5079817224880294,0.26492024766230876
205.0,0.8420481789410694,-0.29915550334883484,0.12972622175,-1.070047781601528,-0.1158677518010935,-0.3081121278182659,0.12329010372018413,0.051753120882244014,-0.11129313900455867,0.5258612808892591,2.5079817224880294,0.26492024766230876
206.0,0.8420481789410694,-0.29915550334883484,0.12972622175,-1.070047781601528,-0.1158677518010935,-0.3081121278182659,0.12329010372018413,0.051753120882244014,-0.11129313900455867,0.5258612808892591,2.5079817224880294,0.26492024766230876
207.0,0.8420481789410694,-0.29915550334883484,0.12972622175,-1.070047781601528,-0.1158677518010935,-0.3081121278182659,0.12329010372018413,0.051753120882244014,-0.11129313900455867,0.5258612808892591,2.5079817224880294,0.26492024766230876
208.0,0.8420481789410694,-0.29915550334883484,0.12972622175,-1.070047781601528,-0.1158677518010935,-0.3081121278182659,0.12329010372018413,0.051753120882244014,-0.11129313900455867,0.5258612808892591,2.5079817224880294,0.26492024766230876
209.0,0.8420481789410694,-0.29915550334883484,0.12972622175,-1.070047781601528,-0.1158677518010935,-0.3081121278182659,0.12329010372018413,0.051753120882244014,-0.11129313900455867,0.5258612808892591,2.5079817224880294,0.26492024766230876
210.0,0.8420481789410694,-0.29915550334883484,0.12972622175,-1.070047781601528,-0.1158677518010935,-0.3081121278182659,0.12329010372018413,0.051753120882244014,-0.11129313900455867,0.5258612808892591,2.5079817224880294,0.26492024766230876
211.0,0.8420481789410694,-0.29915550334883484,0.12972622175,-1.070047781601528,-0.1158677518010935,-0.3081121278182659,0.12329010372018413,0.051753120882244014,-0.11129313900455867,0.5258612808892591,2.5079817224880294,0.26492024766230876
212.0,0.8420481789410694,-0.29915550334883484,0.12972622175,-1.070047781601528,-0.1158677518010935,-0.3081121278182659,0.12329010372018413,0.051753120882244014,-0.11129313900455867,0.5258612808892591,2.5079817224880294,0.26492024766230876
213.0,0.8420481789410694,-0.29915550334883484,0.12972622175,-1.070047781601528,-0.1158677518010935,-0.3081121278182659,0.12329010372018413,0.051753120882244014,-0.11129313900455867,0.5258612808892591,2.5079817224880294,0.26492024766230876
214.0,0.8420481789410694,-0.29915550334883484,0.12972622175,-1.070047781601528,-0.1158677518010935,-0.3081121278182659,0.12329010372018413,0.051753120882244014,-0.11129313900455867,0.5258612808892591,2.5079817224880294,0.26492024766230876
215.0,0.8420481789410694,-0.29915550334883484,0.12972622175,-1.070047781601528,-0.1158677518010935,-0.3081121278182659,0.12329010372018413,0.051753120882244014,-0.11129313900455867,0.5258612808892591,2.5079817224880294,0.26492024766230876
216.0,0.8420481789410694,-0.29915550334883484,0.12972622175,-1.070047781601528,-0.1158677518010935,-0.3081121278182659,0.12329010372018413,0.051753120882244014,-0.11129313900455867,0.5258612808892591,2.5079817224880294,0.26492024766230876
217.0,0.8420481789410694,-0.29915550334883484,0.12972622175,-1.070047781601528,-0.1158677518010935,-0.3081121278182659,0.12329010372018413,0.051753120882244014,-0.11129313900455867,0.5258612808892591,2.5079817224880294,0.26492024766230876
218.0,0.8420481789410694,-0.29915550334883484,0.12972622175,-1.070047781601528,-0.1158677518010935,-0.3081121278182659,0.12329010372018413,0.051753120882244014,-0.11129313900455867,0.5258612808892591,2.5079817224880294,0.26492024766230876
219.0,0.8420481789410694,-0.29915550334883484,0.12972622175,-1.070047781601528,-0.1158677518010935,-0.3081121278182659,0.12329010372018413,0.051753120882244014,-0.11129313900455867,0.5258612808892591,2.5079817224880294,0.26492024766230876
220.0,0.8420481789410694,-0.29915550334883484,0.12972622175,-1.070047781601528,-0.1158677518010935,-0.3081121278182659,0.12329010372018413,0.051753120882244014,-0.11129313900455867,0.5258612808892591,2.5079817224880294,0.26492024766230876
221.0,0.8420481789410694,-0.29915550334883484,0.12972622175,-1.070047781601528,-0.1158677518010935,-0.3081121278182659,0.12329010372018413,0.051753120882244014,-0.11129313900455867,0.5258612808892591,2.5079817224880294,0.26492024766230876
222.0,0.8420481789410694,-0.29915550334883484,0.12972622175,-1.070047781601528,-0.1158677518010935,-0.3081121278182659,0.12329010372018413,0.051753120882244014,-0.11129313900455867,0.5258612808892591,2.5079817224880294,0.26492024766230876
223.0,0.8420481789410694,-0.29915550334883484,0.12972622175,-1.070047781601528,-0.1158677518010935,-0.3081121278182659,0.12329010372018413,0.051753120882244014,-0.11129313900455867,0.5258612808892591,2.5079817224880294,0.26492024766230876
224.0,0.8420481789410694,-0.29915550334883484,0.12972622175,-1.070047781601528,-0.1158677518010935,-0.3081121278182659,0.12329010372018413,0.051753120882244014,-0.11129313900455867,0.5258612808892591,2.5079817224880294,0.26492024766230876
225.0,0.8420481789410694,-0.29915550334883484,0.12972622175,-1.070047781601528,-0.1158677518010935,-0.3081121278182659,0.12329010372018413,0.051753120882244014,-0.11129313900455867,0.5258612808892591,2.5079817224880294,0.26492024766230876
226.0,0.8420481789410694,-0.29915550334883484,0.12972622175,-1.070047781601528,-0.1158677518010935,-0.3081121278182659,0.12329010372018413,0.051753120882244014,-0.11129313900455867,0.5258612808892591,2.5079817224880294,0.26492024766230876
227.0,0.8420481789410694,-0.29915550334883484,0.12972622175,-1.070047781601528,-0.1158677518010935,-0.3081121278182659,0.12329010372018413,0.051753120882244014,-0.11129313900455867,0.5258612808892591,2.5079817224880294,0.26492024766230876
228.0,0.8420481789410694,-0.29915550334883484,0.12972622175,-1.070047781601528,-0.1158677518010935,-0.3081121278182659,0.12329010372018413,0.051753120882244014,-0.11129313900455867,0.5258612808892591,2.5079817224880294,0.26492024766230876
229.0,0.8420481789410694,-0.29915550334883484,0.12972622175,-1.070047781601528,-0.1158677518010935,-0.3081121278182659,0.12329010372018413,0.051753120882244014,-0.11129313900455867,0.5258612808892591,2.5079817224880294,0.26492024766230876
230.0,0.8420481789410694,-0.29915550334883484,0.12972622175,-1.070047781601528,-0.1158677518010935,-0.3081121278182659,0.12329010372018413,0.051753120882244014,-0.11129313900455867,0.5258612808892591,2.5079817224880294,0.26492024766230876
231.0,0.8420481789410694,-0.29915550334883484,0.12972622175,-1.070047781601528,-0.1158677518010935,-0.3081121278182659,0.12329010372018413,0.051753120882244014,-0.11129313900455867,0.5258612808892591,2.5079817224880294,0.26492024766230876
232.0,0.8420481789410694,-0.29915550334883484,0.12972622175,-1.070047781601528,-0.1158677518010935,-0.3081121278182659,0.12329010372018413,0.051753120882244014,-0.11129313900455867,0.5258612808892591,2.5079817224880294,0.26492024766230876
233.0,0.8420481789410694,-0.29915550334883484,0.12972622175,-1.070047781601528,-0.1158677518010935,-0.3081121278182659,0.12329010372018413,0.051753120882244014,-0.11129313900455867,0.5258612808892591,2.5079817224880294,0.26492024766230876
234.0,0.8420481789410694,-0.29915550334883484,0.12972622175,-1.070047781601528,-0.1158677518010935,-0.3081121278182659,0.12329010372018413,0.051753120882244014,-0.11129313900455867,0.5258612808892591,2.5079817224880294,0.26492024766230876
235.0,0.8420481789410694,-0.29915550334883484,0.12972622175,-1.070047781601528,-0.1158677518010935,-0.3081121278182659,0.12329010372018413,0.051753120882244014,-0.11129313900455867,0.5258612808892591,2.5079817224880294,0.26492024766230876
236.0,0.8420481789410694,-0.29915550334883484,0.12972622175,-1.070047781601528,-0.1158677518010935,-0.3081121278182659,0.12329010372018413,0.051753120882244014,-0.11129313900455867,0.5258612808892591,2.5079817224880294,0.26492024766230876
237.0,0.8420481789410694,-0.29915550334883484,0.12972622175,-1.070047781601528,-0.1158677518010935,-0.3081121278182659,0.12329010372018413,0.051753120882244014,-0.11129313900455867,0.5258612808892591,2.5079817224880294,0.26492024766230876
238.0,0.8420481789410694,-0.29915550334883484,0.12972622175,-1.070047781601528,-0.1158677518010935,-0.3081121278182659,0.12329010372018413,0.051753120882244014,-0.11129313900455867,0.5258612808892591,2.5079817224880294,0.26492024766230876
239.0,0.8420481789410694,-0.29915550334883484,0.12972622175,-1.070047781601528,-0.1158677518010935,-0.3081121278182659,0.12329010372018413,0.051753120882244014,-0.11129313900455867,0.5258612808892591,2.5079817224880294,0.26492024766230876
240.0,0.8420481789410694,-0.29915550334883484,0.12972622175,-1.070047781601528,-0.1158677518010935,-0.3081121278182659,0.12329010372018413,0.051753120882244014,-0.11129313900455867,0.5258612808892591,2.5079817224880294,0.26492024766230876
241.0,0.8420481789410694,-0.29915550334883484,0.12972622175,-1.070047781601528,-0.1158677518010935,-0.3081121278182659,0.12329010372018413,0.051753120882244014,-0.11129313900455867,0.5258612808892591,2.5079817224880294,0.26492024766230876
242.0,0.8420481789410694,-0.29915550334883484,0.12972622175,-1.070047781601528,-0.1158677518010935,-0.3081121278182659,0.12329010372018413,0.051753120882244014,-0.11129313900455867,0.5258612808892591,2.5079817224880294,0.26492024766230876
243.0,0.8420481789410694,-0.29915550334883484,0.12972622175,-1.070047781601528,-0.1158677518010935,-0.3081121278182659,0.12329010372018413,0.051753120882244014,-0.11129313900455867,0.5258612808892591,2.5079817224880294,0.26492024766230876
244.0,0.8420481789410694,-0.29915550334883484,0.12972622175,-1.070047781601528,-0.1158677518010935,-0.3081121278182659,0.12329010372018413,0.051753120882244014,-0.11129313900455867,0.5258612808892591,2.5079817224880294,0.26492024766230876
245.0,0.8420481789410694,-0.29915550334883484,0.12972622175,-1.070047781601528,-0.1158677518010935,-0.3081121278182659,0.12329010372018413,0.051753120882244014,-0.11129313900455867,0.5258612808892591,2.5079817224880294,0.26492024766230876
246.0,0.8420481789410694,-0.29915550334883484,0.12972622175,-1.070047781601528,-0.1158677518010935,-0.3081121278182659,0.12329010372018413,0.051753120882244014,-0.11129313900455867,0.5258612808892591,2.5079817224880294,0.26492024766230876
247.0,0.8420481789410694,-0.29915550334883484,0.12972622175,-1.070047781601528,-0.1158677518010935,-0.3081121278182659,0.12329010372018413,0.051753120882244014,-0.11129313900455867,0.5258612808892591,2.5079817224880294,0.26492024766230876
248.0,0.8420481789410694,-0.29915550334883484,0.12972622175,-1.070047781601528,-0.1158677518010935,-0.3081121278182659,0.12329010372018413,0.051753120882244014,-0.11129313900455867,0.5258612808892591,2.5079817224880294,0.26492024766230876
249.0,0.8420481789410694,-0.29915550334883484,0.12972622175,-1.070047781601528,-0.1158677518010935,-0.3081121278182659,0.12329010372018413,0.051753120882244014,-0.11129313900455867,0.5258612808892591,2.5079817224880294,0.26492024766230876
250.0,0.8420481789410694,-0.29915550334883484,0.12972622175,-1.070047781601528,-0.1158677518010935,-0.3081121278182659,0.12329010372018413,0.051753120882244014,-0.11129313900455867,0.5258612808892591,2.5079817224880294,0.26492024766230876
251.0,0.8420481789410694,-0.29915550334883484,0.12972622175,-1.070047781601528,-0.1158677518010935,-0.3081121278182659,0.12329010372018413,0.051753120882244014,-0.11129313900455867,0.5258612808892591,2.5079817224880294,0.26492024766230876
252.0,0.8420481789410694,-0.29915550334883484,0.12972622175,-1.070047781601528,-0.1158677518010935,-0.3081121278182659,0.12329010372018413,0.051753120882244014,-0.11129313900455867,0.5258612808892591,2.5079817224880294,0.26492024766230876
253.0,0.8420481789410694,-0.29915550334883484,0.12972622175,-1.070047781601528,-0.1158677518010935,-0.3081121278182659,0.12329010372018413,0.051753120882244014,-0.11129313900455867,0.5258612808892591,2.5079817224880294,0.26492024766230876
254.0,0.8420481789410694,-0.29915550334883484,0.12972622175,-1.070047781601528,-0.1158677518010935,-0.3081121278182659,0.12329010372018413,0.051753120882244014,-0.11129313900455867,0.5258612808892591,2.5079817224880294,0.26492024766230876
255.0,0.8420481789410694,-0.29915550334883484,0.12972622175,-1.070047781601528,-0.1158677518010935,-0.3081121278182659,0.12329010372018413,0.051753120882244014,-0.11129313900455867,0.5258612808892591,2.5079817224880294,0.26492024766230876
256.0,0.8420481789410694,-0.29915550334883484,0.12972622175,-1.070047781601528,-0.1158677518010935,-0.3081121278182659,0.12329010372018413,0.051753120882244014,-0.11129313900455867,0.5258612808892591,2.5079817224880294,0.26492024766230876
257.0,0.8420481789410694,-0.29915550334883484,0.12972622175,-1.070047781601528,-0.1158677518010935,-0.3081121278182659,0.12329010372018413,0.051753120882244014,-0.11129313900455867,0.5258612808892591,2.5079817224880294,0.26492024766230876
258.0,0.8420481789410694,-0.29915550334883484,0.12972622175,-1.070047781601528,-0.1158677518010935,-0.3081121278182659,0.12329010372018413,0.051753120882244014,-0.11129313900455867,0.5258612808892591,2.5079817224880294,0.26492024766230876
259.0,0.8420481789410694,-0.29915550334883484,0.12972622175,-1.070047781601528,-0.1158677518010935,-0.3081121278182659,0.12329010372018413,0.051753120882244014,-0.11129313900455867,0.5258612808892591,2.5079817224880294,0.26492024766230876
260.0,0.8420481789410694,-0.29915550334883484,0.12972622175,-1.070047781601528,-0.1158677518010935,-0.3081121278182659,0.12329010372018413,0.051753120882244014,-0.11129313900455867,0.5258612808892591,2.5079817224880294,0.26492024766230876
261.0,0.8420481789410694,-0.29915550334883484,0.12972622175,-1.070047781601528,-0.1158677518010935,-0.3081121278182659,0.12329010372018413,0.051753120882244014,-0.11129313900455867,0.5258612808892591,2.5079817224880294,0.26492024766230876
262.0,0.8420481789410694,-0.29915550334883484,0.12972622175,-1.070047781601528,-0.1158677518010935,-0.3081121278182659,0.12329010372018413,0.051753120882244014,-0.11129313900455867,0.5258612808892591,2.5079817224880294,0.26492024766230876
263.0,0.8420481789410694,-0.29915550334883484,0.12972622175,-1.070047781601528,-0.1158677518010935,-0.3081121278182659,0.12329010372018413,0.051753120882244014,-0.11129313900455867,0.5258612808892591,2.5079817224880294,0.26492024766230876
264.0,0.8420481789410694,-0.29915550334883484,0.12972622175,-1.070047781601528,-0.1158677518010935,-0.3081121278182659,0.12329010372018413,0.051753120882244014,-0.11129313900455867,0.5258612808892591,2.5079817224880294,0.26492024766230876
265.0,0.8420481789410694,-0.29915550334883484,0.12972622175,-1.070047781601528,-0.1158677518010935,-0.3081121278182659,0.12329010372018413,0.051753120882244014,-0.11129313900455867,0.5258612808892591,2.5079817224880294,0.26492024766230876
266.0,0.8420481789410694,-0.29915550334883484,0.12972622175,-1.070047781601528,-0.1158677518010935,-0.3081121278182659,0.12329010372018413,0.051753120882244014,-0.11129313900455867,0.5258612808892591,2.5079817224880294,0.26492024766230876
267.0,0.8420481789410694,-0.29915550334883484,0.12972622175,-1.070047781601528,-0.1158677518010935,-0.3081121278182659,0.12329010372018413,0.051753120882244014,-0.11129313900455867,0.5258612808892591,2.5079817224880294,0.26492024766230876
268.0,0.8420481789410694,-0.29915550334883484,0.12972622175,-1.070047781601528,-0.1158677518010935,-0.3081121278182659,0.12329010372018413,0.051753120882244014,-0.11129313900455867,0.5258612808892591,2.5079817224880294,0.26492024766230876
269.0,0.8420481789410694,-0.29915550334883484,0.12972622175,-1.070047781601528,-0.1158677518010935,-0.3081121278182659,0.12329010372018413,0.051753120882244014,-0.11129313900455867,0.5258612808892591,2.5079817224880294,0.26492024766230876
270.0,0.8420481789410694,-0.29915550334883484,0.12972622175,-1.070047781601528,-0.1158677518010935,-0.3081121278182659,0.12329010372018413,0.051753120882244014,-0.11129313900455867,0.5258612808892591,2.5079817224880294,0.26492024766230876
271.0,0.8420481789410694,-0.29915550334883484,0.12972622175,-1.070047781601528,-0.1158677518010935,-0.3081121278182659,0.12329010372018413,0.051753120882244014,-0.11129313900455867,0.5258612808892591,2.5079817224880294,0.26492024766230876
272.0,0.8420481789410694,-0.29915550334883484,0.12972622175,-1.070047781601528,-0.1158677518010935,-0.3081121278182659,0.12329010372018413,0.051753120882244014,-0.11129313900455867,0.5258612808892591,2.5079817224880294,0.26492024766230876
273.0,0.8420481789410694,-0.29915550334883484,0.12972622175,-1.070047781601528,-0.1158677518010935,-0.3081121278182659,0.12329010372018413,0.051753120882244014,-0.11129313900455867,0.5258612808892591,2.5079817224880294,0.26492024766230876
274.0,0.8420481789410694,-0.29915550334883484,0.12972622175,-1.070047781601528,-0.1158677518010935,-0.3081121278182659,0.12329010372018413,0.051753120882244014,-0.11129313900455867,0.5258612808892591,2.5079817224880294,0.26492024766230876
275.0,0.8420481789410694,-0.29915550334883484,0.12972622175,-1.070047781601528,-0.1158677518010935,-0.3081121278182659,0.12329010372018413,0.051753120882244014,-0.11129313900455867,0.5258612808892591,2.5079817224880294,0.26492024766230876
276.0,0.8420481789410694,-0.29915550334883484,0.12972622175,-1.070047781601528,-0.1158677518010935,-0.3081121278182659,0.12329010372018413,0.051753120882244014,-0.11129313900455867,0.5258612808892591,2.5079817224880294,0.26492024766230876
277.0,0.8420481789410694,-0.29915550334883484,0.12972622175,-1.070047781601528,-0.1158677518010935,-0.3081121278182659,0.12329010372018413,0.051753120882244014,-0.11129313900455867,0.5258612808892591,2.5079817224880294,0.26492024766230876
278.0,0.8420481789410694,-0.29915550334883484,0.12972622175,-1.070047781601528,-0.1158677518010935,-0.3081121278182659,0.12329010372018413,0.051753120882244014,-0.11129313900455867,0.5258612808892591,2.5079817224880294,0.26492024766230876
279.0,0.8420481789410694,-0.29915550334883484,0.12972622175,-1.070047781601528,-0.1158677518010935,-0.3081121278182659,0.12329010372018413,0.051753120882244014,-0.11129313900455867,0.5258612808892591,2.5079817224880294,0.26492024766230876
280.0,0.8420481789410694,-0.29915550334883484,0.12972622175,-1.070047781601528,-0.1158677518010935,-0.3081121278182659,0.12329010372018413,0.051753120882244014,-0.11129313900455867,0.5258612808892591,2.5079817224880294,0.26492024766230876
281.0,0.8420481789410694,-0.29915550334883484,0.12972622175,-1.070047781601528,-0.1158677518010935,-0.3081121278182659,0.12329010372018413,0.051753120882244014,-0.11129313900455867,0.5258612808892591,2.5079817224880294,0.26492024766230876
282.0,0.8420481789410694,-0.29915550334883484,0.12972622175,-1.070047781601528,-0.1158677518010935,-0.3081121278182659,0.12329010372018413,0.051753120882244014,-0.11129313900455867,0.5258612808892591,2.5079817224880294,0.26492024766230876
283.0,0.8420481789410694,-0.29915550334883484,0.12972622175,-1.070047781601528,-0.1158677518010935,-0.3081121278182659,0.12329010372018413,0.051753120882244014,-0.11129313900455867,0.5258612808892591,2.5079817224880294,0.26492024766230876
284.0,0.8420481789410694,-0.29915550334883484,0.12972622175,-1.070047781601528,-0.1158677518010935,-0.3081121278182659,0.12329010372018413,0.051753120882244014,-0.11129313900455867,0.5258612808892591,2.5079817224880294,0.26492024766230876
285.0,0.8420481789410694,-0.29915550334883484,0.12972622175,-1.070047781601528,-0.1158677518010935,-0.3081121278182659,0.12329010372018413,0.051753120882244014,-0.11129313900455867,0.5258612808892591,2.5079817224880294,0.26492024766230876
286.0,0.8420481789410694,-0.29915550334883484,0.12972622175,-1.070047781601528,-0.1158677518010935,-0.3081121278182659,0.12329010372018413,0.051753120882244014,-0.11129313900455867,0.5258612808892591,2.5079817224880294,0.26492024766230876
287.0,0.8420481789410694,-0.29915550334883484,0.12972622175,-1.070047781601528,-0.1158677518010935,-0.3081121278182659,0.12329010372018413,0.051753120882244014,-0.11129313900455867,0.5258612808892591,2.5079817224880294,0.26492024766230876
288.0,0.8420481789410694,-0.29915550334883484,0.12972622175,-1.070047781601528,-0.1158677518010935,-0.3081121278182659,0.12329010372018413,0.051753120882244014,-0.11129313900455867,0.5258612808892591,2.5079817224880294,0.26492024766230876
289.0,0.8420481789410694,-0.29915550334883484,0.12972622175,-1.070047781601528,-0.1158677518010935,-0.3081121278182659,0.12329010372018413,0.051753120882244014,-0.11129313900455867,0.5258612808892591,2.5079817224880294,0.26492024766230876
290.0,0.8420481789410694,-0.29915550334883484,0.12972622175,-1.070047781601528,-0.1158677518010935,-0.3081121278182659,0.12329010372018413,0.051753120882244014,-0.11129313900455867,0.5258612808892591,2.5079817224880294,0.26492024766230876
291.0,0.8420481789410694,-0.29915550334883484,0.12972622175,-1.070047781601528,-0.1158677518010935,-0.3081121278182659,0.12329010372018413,0.051753120882244014,-0.11129313900455867,0.5258612808892591,2.5079817224880294,0.26492024766230876
292.0,0.8420481789410694,-0.29915550334883484,0.12972622175,-1.070047781601528,-0.1158677518010935,-0.3081121278182659,0.12329010372018413,0.051753120882244014,-0.11129313900455867,0.5258612808892591,2.5079817224880294,0.26492024766230876
293.0,0.8420481789410694,-0.29915550334883484,0.12972622175,-1.070047781601528,-0.1158677518010935,-0.3081121278182659,0.12329010372018413,0.051753120882244014,-0.11129313900455867,0.5258612808892591,2.5079817224880294,0.26492024766230876
294.0,0.8420481789410694,-0.29915550334883484,0.12972622175,-1.070047781601528,-0.1158677518010935,-0.3081121278182659,0.12329010372018413,0.051753120882244014,-0.11129313900455867,0.5258612808892591,2.5079817224880294,0.26492024766230876
295.0,0.8420481789410694,-0.29915550334883484,0.12972622175,-1.070047781601528,-0.1158677518010935,-0.3081121278182659,0.12329010372018413,0.051753120882244014,-0.11129313900455867,0.5258612808892591,2.5079817224880294,0.26492024766230876
296.0,0.8420481789410694,-0.29915550334883484,0.12972622175,-1.070047781601528,-0.1158677518010935,-0.3081121278182659,0.12329010372018413,0.051753120882244014,-0.11129313900455867,0.5258612808892591,2.5079817224880294,0.26492024766230876
297.0,0.8420481789410694,-0.29915550334883484,0.12972622175,-1.070047781601528,-0.1158677518010935,-0.3081121278182659,0.12329010372018413,0.051753120882244014,-0.11129313900455867,0.5258612808892591,2.5079817224880294,0.26492024766230876
298.0,0.8420481789410694,-0.29915550334883484,0.12972622175,-1.070047781601528,-0.1158677518010935,-0.3081121278182659,0.12329010372018413,0.051753120882244014,-0.11129313900455867,0.5258612808892591,2.5079817224880294,0.26492024766230876
299.0,0.8420481789410694,-0.29915550334883484,0.12972622175,-1.070047781601528,-0.1158677518010935,-0.3081121278182659,0.12329010372018413,0.051753120882244014,-0.11129313900455867,0.5258612808892591,2.5079817224880294,0.26492024766230876
300.0,0.8420481789410694,-0.29915550334883484,0.12972622175,-1.070047781601528,-0.1158677518010935,-0.3081121278182659,0.12329010372018413,0.051753120882244014,-0.11129313900455867,0.5258612808892591,2.5079817224880294,0.26492024766230876
301.0,0.8420481789410694,-0.29915550334883484,0.12972622175,-1.070047781601528,-0.1158677518010935,-0.3081121278182659,0.12329010372018413,0.051753120882244014,-0.11129313900455867,0.5258612808892591,2.5079817224880294,0.26492024766230876
302.0,0.8420481789410694,-0.29915550334883484,0.12972622175,-1.070047781601528,-0.1158677518010935,-0.3081121278182659,0.12329010372018413,0.051753120882244014,-0.11129313900455867,0.5258612808892591,2.5079817224880294,0.26492024766230876
303.0,0.8420481789410694,-0.29915550334883484,0.12972622175,-1.070047781601528,-0.1158677518010935,-0.3081121278182659,0.12329010372018413,0.051753120882244014,-0.11129313900455867,0.5258612808892591,2.5079817224880294,0.26492024766230876
304.0,0.8420481789410694,-0.29915550334883484,0.12972622175,-1.070047781601528,-0.1158677518010935,-0.3081121278182659,0.12329010372018413,0.051753120882244014,-0.11129313900455867,0.5258612808892591,2.5079817224880294,0.26492024766230876
305.0,0.8420481789410694,-0.29915550334883484,0.12972622175,-1.070047781601528,-0.1158677518010935,-0.3081121278182659,0.12329010372018413,0.051753120882244014,-0.11129313900455867,0.5258612808892591,2.5079817224880294,0.26492024766230876
306.0,0.8420481789410694,-0.29915550334883484,0.12972622175,-1.070047781601528,-0.1158677518010935,-0.3081121278182659,0.12329010372018413,0.051753120882244014,-0.11129313900455867,0.5258612808892591,2.5079817224880294,0.26492024766230876
307.0,0.8420481789410694,-0.29915550334883484,0.12972622175,-1.070047781601528,-0.1158677518010935,-0.3081121278182659,0.12329010372018413,0.051753120882244014,-0.11129313900455867,0.5258612808892591,2.5079817224880294,0.26492024766230876
308.0,0.8420481789410694,-0.29915550334883484,0.12972622175,-1.070047781601528,-0.1158677518010935,-0.3081121278182659,0.12329010372018413,0.051753120882244014,-0.11129313900455867,0.5258612808892591,2.5079817224880294,0.26492024766230876
309.0,0.8420481789410694,-0.29915550334883484,0.12972622175,-1.070047781601528,-0.1158677518010935,-0.3081121278182659,0.12329010372018413,0.051753120882244014,-0.11129313900455867,0.5258612808892591,2.5079817224880294,0.26492024766230876
310.0,0.8420481789410694,-0.29915550334883484,0.12972622175,-1.070047781601528,-0.1158677518010935,-0.3081121278182659,0.12329010372018413,0.051753120882244014,-0.11129313900455867,0.5258612808892591,2.5079817224880294,0.26492024766230876
311.0,0.8420481789410694,-0.29915550334883484,0.12972622175,-1.070047781601528,-0.1158677518010935,-0.3081121278182659,0.12329010372018413,0.051753120882244014,-0.11129313900455867,0.5258612808892591,2.5079817224880294,0.26492024766230876
312.0,0.8420481789410694,-0.29915550334883484,0.12972622175,-1.070047781601528,-0.1158677518010935,-0.3081121278182659,0.12329010372018413,0.051753120882244014,-0.11129313900455867,0.5258612808892591,2.5079817224880294,0.26492024766230876
313.0,0.8420481789410694,-0.29915550334883484,0.12972622175,-1.070047781601528,-0.1158677518010935,-0.3081121278182659,0.12329010372018413,0.051753120882244014,-0.11129313900455867,0.5258612808892591,2.5079817224880294,0.26492024766230876
314.0,0.8420481789410694,-0.29915550334883484,0.12972622175,-1.070047781601528,-0.1158677518010935,-0.3081121278182659,0.12329010372018413,0.051753120882244014,-0.11129313900455867,0.5258612808892591,2.5079817224880294,0.26492024766230876
315.0,0.8420481789410694,-0.29915550334883484,0.12972622175,-1.070047781601528,-0.1158677518010935,-0.3081121278182659,0.12329010372018413,0.051753120882244014,-0.11129313900455867,0.5258612808892591,2.5079817224880294,0.26492024766230876
316.0,0.8420481789410694,-0.29915550334883484,0.12972622175,-1.070047781601528,-0.1158677518010935,-0.3081121278182659,0.12329010372018413,0.051753120882244014,-0.11129313900455867,0.5258612808892591,2.5079817224880294,0.26492024766230876
317.0,0.8420481789410694,-0.29915550334883484,0.12972622175,-1.070047781601528,-0.1158677518010935,-0.3081121278182659,0.12329010372018413,0.051753120882244014,-0.11129313900455867,0.5258612808892591,2.5079817224880294,0.26492024766230876
318.0,0.8420481789410694,-0.29915550334883484,0.12972622175,-1.070047781601528,-0.1158677518010935,-0.3081121278182659,0.12329010372018413,0.051753120882244014,-0.11129313900455867,0.5258612808892591,2.5079817224880294,0.26492024766230876
319.0,0.8420481789410694,-0.29915550334883484,0.12972622175,-1.070047781601528,-0.1158677518010935,-0.3081121278182659,0.12329010372018413,0.051753120882244014,-0.11129313900455867,0.5258612808892591,2.5079817224880294,0.26492024766230876
320.0,0.8420481789410694,-0.29915550334883484,0.12972622175,-1.070047781601528,-0.1158677518010935,-0.3081121278182659,0.12329010372018413,0.051753120882244014,-0.11129313900455867,0.5258612808892591,2.5079817224880294,0.26492024766230876
321.0,0.8420481789410694,-0.29915550334883484,0.12972622175,-1.070047781601528,-0.1158677518010935,-0.3081121278182659,0.12329010372018413,0.051753120882244014,-0.11129313900455867,0.5258612808892591,2.5079817224880294,0.26492024766230876
322.0,0.8420481789410694,-0.29915550334883484,0.12972622175,-1.070047781601528,-0.1158677518010935,-0.3081121278182659,0.12329010372018413,0.051753120882244014,-0.11129313900455867,0.5258612808892591,2.5079817224880294,0.26492024766230876
323.0,0.8420481789410694,-0.29915550334883484,0.12972622175,-1.070047781601528,-0.1158677518010935,-0.3081121278182659,0.12329010372018413,0.051753120882244014,-0.11129313900455867,0.5258612808892591,2.5079817224880294,0.26492024766230876
324.0,0.8420481789410694,-0.29915550334883484,0.12972622175,-1.070047781601528,-0.1158677518010935,-0.3081121278182659,0.12329010372018413,0.051753120882244014,-0.11129313900455867,0.5258612808892591,2.5079817224880294,0.26492024766230876
325.0,0.8420481789410694,-0.29915550334883484,0.12972622175,-1.070047781601528,-0.1158677518010935,-0.3081121278182659,0.12329010372018413,0.051753120882244014,-0.11129313900455867,0.5258612808892591,2.5079817224880294,0.26492024766230876
326.0,0.8420481789410694,-0.29915550334883484,0.12972622175,-1.070047781601528,-0.1158677518010935,-0.3081121278182659,0.12329010372018413,0.051753120882244014,-0.11129313900455867,0.5258612808892591,2.5079817224880294,0.26492024766230876
327.0,0.8420481789410694,-0.29915550334883484,0.12972622175,-1.070047781601528,-0.1158677518010935,-0.3081121278182659,0.12329010372018413,0.051753120882244014,-0.11129313900455867,0.5258612808892591,2.5079817224880294,0.26492024766230876
328.0,0.8420481789410694,-0.29915550334883484,0.12972622175,-1.070047781601528,-0.1158677518010935,-0.3081121278182659,0.12329010372018413,0.051753120882244014,-0.11129313900455867,0.5258612808892591,2.5079817224880294,0.26492024766230876
329.0,0.8420481789410694,-0.29915550334883484,0.12972622175,-1.070047781601528,-0.1158677518010935,-0.3081121278182659,0.12329010372018413,0.051753120882244014,-0.11129313900455867,0.5258612808892591,2.5079817224880294,0.26492024766230876
330.0,0.8420481789410694,-0.29915550334883484,0.12972622175,-1.070047781601528,-0.1158677518010935,-0.3081121278182659,0.12329010372018413,0.051753120882244014,-0.11129313900455867,0.5258612808892591,2.5079817224880294,0.26492024766230876
331.0,0.8420481789410694,-0.29915550334883484,0.12972622175,-1.070047781601528,-0.1158677518010935,-0.3081121278182659,0.12329010372018413,0.051753120882244014,-0.11129313900455867,0.5258612808892591,2.5079817224880294,0.26492024766230876
332.0,0.8420481789410694,-0.29915550334883484,0.12972622175,-1.070047781601528,-0.1158677518010935,-0.3081121278182659,0.12329010372018413,0.051753120882244014,-0.11129313900455867,0.5258612808892591,2.5079817224880294,0.26492024766230876
333.0,0.8420481789410694,-0.29915550334883484,0.12972622175,-1.070047781601528,-0.1158677518010935,-0.3081121278182659,0.12329010372018413,0.051753120882244014,-0.11129313900455867,0.5258612808892591,2.5079817224880294,0.26492024766230876
334.0,0.8420481789410694,-0.29915550334883484,0.12972622175,-1.070047781601528,-0.1158677518010935,-0.3081121278182659,0.12329010372018413,0.051753120882244014,-0.11129313900455867,0.5258612808892591,2.5079817224880294,0.26492024766230876
335.0,0.8420481789410694,-0.29915550334883484,0.12972622175,-1.070047781601528,-0.1158677518010935,-0.3081121278182659,0.12329010372018413,0.051753120882244014,-0.11129313900455867,0.5258612808892591,2.5079817224880294,0.26492024766230876
336.0,0.8420481789410694,-0.29915550334883484,0.12972622175,-1.070047781601528,-0.1158677518010935,-0.3081121278182659,0.12329010372018413,0.051753120882244014,-0.11129313900455867,0.5258612808892591,2.5079817224880294,0.26492024766230876
337.0,0.8420481789410694,-0.29915550334883484,0.12972622175,-1.070047781601528,-0.1158677518010935,-0.3081121278182659,0.12329010372018413,0.051753120882244014,-0.11129313900455867,0.5258612808892591,2.5079817224880294,0.26492024766230876
338.0,0.8420481789410694,-0.29915550334883484,0.12972622175,-1.070047781601528,-0.1158677518010935,-0.3081121278182659,0.12329010372018413,0.051753120882244014,-0.11129313900455867,0.5258612808892591,2.5079817224880294,0.26492024766230876
339.0,0.8420481789410694,-0.29915550334883484,0.12972622175,-1.070047781601528,-0.1158677518010935,-0.3081121278182659,0.12329010372018413,0.051753120882244014,-0.11129313900455867,0.5258612808892591,2.5079817224880294,0.26492024766230876
340.0,0.8420481789410694,-0.29915550334883484,0.12972622175,-1.070047781601528,-0.1158677518010935,-0.3081121278182659,0.12329010372018413,0.051753120882244014,-0.11129313900455867,0.5258612808892591,2.5079817224880294,0.26492024766230876
341.0,0.8420481789410694,-0.29915550334883484,0.12972622175,-1.070047781601528,-0.1158677518010935,-0.3081121278182659,0.12329010372018413,0.051753120882244014,-0.11129313900455867,0.5258612808892591,2.5079817224880294,0.26492024766230876
342.0,0.8420481789410694,-0.29915550334883484,0.12972622175,-1.070047781601528,-0.1158677518010935,-0.3081121278182659,0.12329010372018413,0.051753120882244014,-0.11129313900455867,0.5258612808892591,2.5079817224880294,0.26492024766230876
343.0,0.8420481789410694,-0.29915550334883484,0.12972622175,-1.070047781601528,-0.1158677518010935,-0.3081121278182659,0.12329010372018413,0.051753120882244014,-0.11129313900455867,0.5258612808892591,2.5079817224880294,0.26492024766230876
344.0,0.8420481789410694,-0.29915550334883484,0.12972622175,-1.070047781601528,-0.1158677518010935,-0.3081121278182659,0.12329010372018413,0.051753120882244014,-0.11129313900455867,0.5258612808892591,2.5079817224880294,0.26492024766230876
345.0,0.8420481789410694,-0.29915550334883484,0.12972622175,-1.070047781601528,-0.1158677518010935,-0.3081121278182659,0.12329010372018413,0.051753120882244014,-0.11129313900455867,0.5258612808892591,2.5079817224880294,0.26492024766230876
346.0,0.8420481789410694,-0.29915550334883484,0.12972622175,-1.070047781601528,-0.1158677518010935,-0.3081121278182659,0.12329010372018413,0.051753120882244014,-0.11129313900455867,0.5258612808892591,2.5079817224880294,0.26492024766230876
347.0,0.8420481789410694,-0.29915550334883484,0.12972622175,-1.070047781601528,-0.1158677518010935,-0.3081121278182659,0.12329010372018413,0.051753120882244014,-0.11129313900455867,0.5258612808892591,2.5079817224880294,0.26492024766230876
348.0,0.8420481789410694,-0.29915550334883484,0.12972622175,-1.070047781601528,-0.1158677518010935,-0.3081121278182659,0.12329010372018413,0.051753120882244014,-0.11129313900455867,0.5258612808892591,2.5079817224880294,0.26492024766230876
349.0,0.8420481789410694,-0.29915550334883484,0.12972622175,-1.070047781601528,-0.1158677518010935,-0.3081121278182659,0.12329010372018413,0.051753120882244014,-0.11129313900455867,0.5258612808892591,2.5079817224880294,0.26492024766230876
350.0,0.8420481789410694,-0.29915550334883484,0.12972622175,-1.070047781601528,-0.1158677518010935,-0.3081121278182659,0.12329010372018413,0.051753120882244014,-0.11129313900455867,0.5258612808892591,2.5079817224880294,0.26492024766230876
351.0,0.8420481789410694,-0.29915550334883484,0.12972622175,-1.070047781601528,-0.1158677518010935,-0.3081121278182659,0.12329010372018413,0.051753120882244014,-0.11129313900455867,0.5258612808892591,2.5079817224880294,0.26492024766230876
352.0,0.8420481789410694,-0.29915550334883484,0.12972622175,-1.070047781601528,-0.1158677518010935,-0.3081121278182659,0.12329010372018413,0.051753120882244014,-0.11129313900455867,0.5258612808892591,2.5079817224880294,0.26492024766230876
353.0,0.8420481789410694,-0.29915550334883484,0.12972622175,-1.070047781601528,-0.1158677518010935,-0.3081121278182659,0.12329010372018413,0.051753120882244014,-0.11129313900455867,0.5258612808892591,2.5079817224880294,0.26492024766230876
354.0,0.8420481789410694,-0.29915550334883484,0.12972622175,-1.070047781601528,-0.1158677518010935,-0.3081121278182659,0.12329010372018413,0.051753120882244014,-0.11129313900455867,0.5258612808892591,2.5079817224880294,0.26492024766230876
355.0,0.8420481789410694,-0.29915550334883484,0.12972622175,-1.070047781601528,-0.1158677518010935,-0.3081121278182659,0.12329010372018413,0.051753120882244014,-0.11129313900455867,0.5258612808892591,2.5079817224880294,0.26492024766230876
356.0,0.8420481789410694,-0.29915550334883484,0.12972622175,-1.070047781601528,-0.1158677518010935,-0.3081121278182659,0.12329010372018413,0.051753120882244014,-0.11129313900455867,0.5258612808892591,2.5079817224880294,0.26492024766230876
357.0,0.8420481789410694,-0.29915550334883484,0.12972622175,-1.070047781601528,-0.1158677518010935,-0.3081121278182659,0.12329010372018413,0.051753120882244014,-0.11129313900455867,0.5258612808892591,2.5079817224880294,0.26492024766230876
358.0,0.8420481789410694,-0.29915550334883484,0.12972622175,-1.070047781601528,-0.1158677518010935,-0.3081121278182659,0.12329010372018413,0.051753120882244014,-0.11129313900455867,0.5258612808892591,2.5079817224880294,0.26492024766230876
359.0,0.8420481789410694,-0.29915550334883484,0.12972622175,-1.070047781601528,-0.1158677518010935,-0.3081121278182659,0.12329010372018413,0.051753120882244014,-0.11129313900455867,0.5258612808892591,2.5079817224880294,0.26492024766230876
360.0,0.8420481789410694,-0.29915550334883484,0.12972622175,-1.070047781601528,-0.1158677518010935,-0.3081121278182659,0.12329010372018413,0.051753120882244014,-0.11129313900455867,0.5258612808892591,2.5079817224880294,0.26492024766230876
361.0,0.8420481789410694,-0.29915550334883484,0.12972622175,-1.070047781601528,-0.1158677518010935,-0.3081121278182659,0.12329010372018413,0.051753120882244014,-0.11129313900455867,0.5258612808892591,2.5079817224880294,0.26492024766230876
362.0,0.8420481789410694,-0.29915550334883484,0.12972622175,-1.070047781601528,-0.1158677518010935,-0.3081121278182659,0.12329010372018413,0.051753120882244014,-0.11129313900455867,0.5258612808892591,2.5079817224880294,0.26492024766230876
363.0,0.8420481789410694,-0.29915550334883484,0.12972622175,-1.070047781601528,-0.1158677518010935,-0.3081121278182659,0.12329010372018413,0.051753120882244014,-0.11129313900455867,0.5258612808892591,2.5079817224880294,0.26492024766230876
364.0,0.8420481789410694,-0.29915550334883484,0.12972622175,-1.070047781601528,-0.1158677518010935,-0.3081121278182659,0.12329010372018413,0.051753120882244014,-0.11129313900455867,0.5258612808892591,2.5079817224880294,0.26492024766230876
365.0,0.8420481789410694,-0.29915550334883484,0.12972622175,-1.070047781601528,-0.1158677518010935,-0.3081121278182659,0.12329010372018413,0.051753120882244014,-0.11129313900455867,0.5258612808892591,2.5079817224880294,0.26492024766230876
366.0,0.8420481789410694,-0.29915550334883484,0.12972622175,-1.070047781601528,-0.1158677518010935,-0.3081121278182659,0.12329010372018413,0.051753120882244014,-0.11129313900455867,0.5258612808892591,2.5079817224880294,0.26492024766230876
367.0,0.8420481789410694,-0.29915550334883484,0.12972622175,-1.070047781601528,-0.1158677518010935,-0.3081121278182659,0.12329010372018413,0.051753120882244014,-0.11129313900455867,0.5258612808892591,2.5079817224880294,0.26492024766230876
368.0,0.8420481789410694,-0.29915550334883484,0.12972622175,-1.070047781601528,-0.1158677518010935,-0.3081121278182659,0.12329010372018413,0.051753120882244014,-0.11129313900455867,0.5258612808892591,2.5079817224880294,0.26492024766230876
369.0,0.8420481789410694,-0.29915550334883484,0.12972622175,-1.070047781601528,-0.1158677518010935,-0.3081121278182659,0.12329010372018413,0.051753120882244014,-0.11129313900455867,0.5258612808892591,2.5079817224880294,0.26492024766230876
370.0,0.8420481789410694,-0.29915550334883484,0.12972622175,-1.070047781601528,-0.1158677518010935,-0.3081121278182659,0.12329010372018413,0.051753120882244014,-0.11129313900455867,0.5258612808892591,2.5079817224880294,0.26492024766230876
371.0,0.8420481789410694,-0.29915550334883484,0.12972622175,-1.070047781601528,-0.1158677518010935,-0.3081121278182659,0.12329010372018413,0.051753120882244014,-0.11129313900455867,0.5258612808892591,2.5079817224880294,0.26492024766230876
372.0,0.8420481789410694,-0.29915550334883484,0.12972622175,-1.070047781601528,-0.1158677518010935,-0.3081121278182659,0.12329010372018413,0.051753120882244014,-0.11129313900455867,0.5258612808892591,2.5079817224880294,0.26492024766230876
373.0,0.8420481789410694,-0.29915550334883484,0.12972622175,-1.070047781601528,-0.1158677518010935,-0.3081121278182659,0.12329010372018413,0.051753120882244014,-0.11129313900455867,0.5258612808892591,2.5079817224880294,0.26492024766230876
374.0,0.8420481789410694,-0.29915550334883484,0.12972622175,-1.070047781601528,-0.1158677518010935,-0.3081121278182659,0.12329010372018413,0.051753120882244014,-0.11129313900455867,0.5258612808892591,2.5079817224880294,0.26492024766230876
375.0,0.8420481789410694,-0.29915550334883484,0.12972622175,-1.070047781601528,-0.1158677518010935,-0.3081121278182659,0.12329010372018413,0.051753120882244014,-0.11129313900455867,0.5258612808892591,2.5079817224880294,0.26492024766230876
376.0,0.8420481789410694,-0.29915550334883484,0.12972622175,-1.070047781601528,-0.1158677518010935,-0.3081121278182659,0.12329010372018413,0.051753120882244014,-0.11129313900455867,0.5258612808892591,2.5079817224880294,0.26492024766230876
377.0,0.8420481789410694,-0.29915550334883484,0.12972622175,-1.070047781601528,-0.1158677518010935,-0.3081121278182659,0.12329010372018413,0.051753120882244014,-0.11129313900455867,0.5258612808892591,2.5079817224880294,0.26492024766230876
378.0,0.8420481789410694,-0.29915550334883484,0.12972622175,-1.070047781601528,-0.1158677518010935,-0.3081121278182659,0.12329010372018413,0.051753120882244014,-0.11129313900455867,0.5258612808892591,2.5079817224880294,0.26492024766230876
379.0,0.8420481789410694,-0.29915550334883484,0.12972622175,-1.070047781601528,-0.1158677518010935,-0.3081121278182659,0.12329010372018413,0.051753120882244014,-0.11129313900455867,0.5258612808892591,2.5079817224880294,0.26492024766230876
380.0,0.8420481789410694,-0.29915550334883484,0.12972622175,-1.070047781601528,-0.1158677518010935,-0.3081121278182659,0.12329010372018413,0.051753120882244014,-0.11129313900455867,0.5258612808892591,2.5079817224880294,0.26492024766230876
381.0,0.8420481789410694,-0.29915550334883484,0.12972622175,-1.070047781601528,-0.1158677518010935,-0.3081121278182659,0.12329010372018413,0.051753120882244014,-0.11129313900455867,0.5258612808892591,2.5079817224880294,0.26492024766230876
382.0,0.8420481789410694,-0.29915550334883484,0.12972622175,-1.070047781601528,-0.1158677518010935,-0.3081121278182659,0.12329010372018413,0.051753120882244014,-0.11129313900455867,0.5258612808892591,2.5079817224880294,0.26492024766230876
383.0,0.8420481789410694,-0.29915550334883484,0.12972622175,-1.070047781601528,-0.1158677518010935,-0.3081121278182659,0.12329010372018413,0.051753120882244014,-0.11129313900455867,0.5258612808892591,2.5079817224880294,0.26492024766230876
384.0,0.8420481789410694,-0.29915550334883484,0.12972622175,-1.070047781601528,-0.1158677518010935,-0.3081121278182659,0.12329010372018413,0.051753120882244014,-0.11129313900455867,0.5258612808892591,2.5079817224880294,0.26492024766230876
385.0,0.8420481789410694,-0.29915550334883484,0.12972622175,-1.070047781601528,-0.1158677518010935,-0.3081121278182659,0.12329010372018413,0.051753120882244014,-0.11129313900455867,0.5258612808892591,2.5079817224880294,0.26492024766230876
386.0,0.8420481789410694,-0.29915550334883484,0.12972622175,-1.070047781601528,-0.1158677518010935,-0.3081121278182659,0.12329010372018413,0.051753120882244014,-0.11129313900455867,0.5258612808892591,2.5079817224880294,0.26492024766230876
387.0,0.8420481789410694,-0.29915550334883484,0.12972622175,-1.070047781601528,-0.1158677518010935,-0.3081121278182659,0.12329010372018413,0.051753120882244014,-0.11129313900455867,0.5258612808892591,2.5079817224880294,0.26492024766230876
388.0,0.8420481789410694,-0.29915550334883484,0.12972622175,-1.070047781601528,-0.1158677518010935,-0.3081121278182659,0.12329010372018413,0.051753120882244014,-0.11129313900455867,0.5258612808892591,2.5079817224880294,0.26492024766230876
389.0,0.8420481789410694,-0.29915550334883484,0.12972622175,-1.070047781601528,-0.1158677518010935,-0.3081121278182659,0.12329010372018413,0.051753120882244014,-0.11129313900455867,0.5258612808892591,2.5079817224880294,0.26492024766230876
390.0,0.8420481789410694,-0.29915550334883484,0.12972622175,-1.070047781601528,-0.1158677518010935,-0.3081121278182659,0.12329010372018413,0.051753120882244014,-0.11129313900455867,0.5258612808892591,2.5079817224880294,0.26492024766230876
391.0,0.8420481789410694,-0.29915550334883484,0.12972622175,-1.070047781601528,-0.1158677518010935,-0.3081121278182659,0.12329010372018413,0.051753120882244014,-0.11129313900455867,0.5258612808892591,2.5079817224880294,0.26492024766230876
392.0,0.8420481789410694,-0.29915550334883484,0.12972622175,-1.070047781601528,-0.1158677518010935,-0.3081121278182659,0.12329010372018413,0.051753120882244014,-0.11129313900455867,0.5258612808892591,2.5079817224880294,0.26492024766230876
393.0,0.8420481789410694,-0.29915550334883484,0.12972622175,-1.070047781601528,-0.1158677518010935,-0.3081121278182659,0.12329010372018413,0.051753120882244014,-0.11129313900455867,0.5258612808892591,2.5079817224880294,0.26492024766230876
394.0,0.8420481789410694,-0.29915550334883484,0.12972622175,-1.070047781601528,-0.1158677518010935,-0.3081121278182659,0.12329010372018413,0.051753120882244014,-0.11129313900455867,0.5258612808892591,2.5079817224880294,0.26492024766230876
395.0,0.8420481789410694,-0.29915550334883484,0.12972622175,-1.070047781601528,-0.1158677518010935,-0.3081121278182659,0.12329010372018413,0.051753120882244014,-0.11129313900455867,0.5258612808892591,2.5079817224880294,0.26492024766230876
396.0,0.8420481789410694,-0.29915550334883484,0.12972622175,-1.070047781601528,-0.1158677518010935,-0.3081121278182659,0.12329010372018413,0.051753120882244014,-0.11129313900455867,0.5258612808892591,2.5079817224880294,0.26492024766230876
397.0,0.8420481789410694,-0.29915550334883484,0.12972622175,-1.070047781601528,-0.1158677518010935,-0.3081121278182659,0.12329010372018413,0.051753120882244014,-0.11129313900455867,0.5258612808892591,2.5079817224880294,0.26492024766230876
398.0,0.8420481789410694,-0.29915550334883484,0.12972622175,-1.070047781601528,-0.1158677518010935,-0.3081121278182659,0.12329010372018413,0.051753120882244014,-0.11129313900455867,0.5258612808892591,2.5079817224880294,0.26492024766230876
399.0,0.8420481789410694,-0.29915550334883484,0.12972622175,-1.070047781601528,-0.1158677518010935,-0.3081121278182659,0.12329010372018413,0.051753120882244014,-0.11129313900455867,0.5258612808892591,2.5079817224880294,0.26492024766230876
400.0,0.8420481789410694,-0.29915550334883484,0.12972622175,-1.070047781601528,-0.1158677518010935,-0.3081121278182659,0.12329010372018413,0.051753120882244014,-0.11129313900455867,0.5258612808892591,2.5079817224880294,0.26492024766230876
401.0,0.8420481789410694,-0.29915550334883484,0.12972622175,-1.070047781601528,-0.1158677518010935,-0.3081121278182659,0.12329010372018413,0.051753120882244014,-0.11129313900455867,0.5258612808892591,2.5079817224880294,0.26492024766230876
402.0,0.8420481789410694,-0.29915550334883484,0.12972622175,-1.070047781601528,-0.1158677518010935,-0.3081121278182659,0.12329010372018413,0.051753120882244014,-0.11129313900455867,0.5258612808892591,2.5079817224880294,0.26492024766230876
403.0,0.8420481789410694,-0.29915550334883484,0.12972622175,-1.070047781601528,-0.1158677518010935,-0.3081121278182659,0.12329010372018413,0.051753120882244014,-0.11129313900455867,0.5258612808892591,2.5079817224880294,0.26492024766230876
404.0,0.8420481789410694,-0.29915550334883484,0.12972622175,-1.070047781601528,-0.1158677518010935,-0.3081121278182659,0.12329010372018413,0.051753120882244014,-0.11129313900455867,0.5258612808892591,2.5079817224880294,0.26492024766230876
405.0,0.8420481789410694,-0.29915550334883484,0.12972622175,-1.070047781601528,-0.1158677518010935,-0.3081121278182659,0.12329010372018413,0.051753120882244014,-0.11129313900455867,0.5258612808892591,2.5079817224880294,0.26492024766230876
406.0,0.8420481789410694,-0.29915550334883484,0.12972622175,-1.070047781601528,-0.1158677518010935,-0.3081121278182659,0.12329010372018413,0.051753120882244014,-0.11129313900455867,0.5258612808892591,2.5079817224880294,0.26492024766230876
407.0,0.8420481789410694,-0.29915550334883484,0.12972622175,-1.070047781601528,-0.1158677518010935,-0.3081121278182659,0.12329010372018413,0.051753120882244014,-0.11129313900455867,0.5258612808892591,2.5079817224880294,0.26492024766230876
408.0,0.8420481789410694,-0.29915550334883484,0.12972622175,-1.070047781601528,-0.1158677518010935,-0.3081121278182659,0.12329010372018413,0.051753120882244014,-0.11129313900455867,0.5258612808892591,2.5079817224880294,0.26492024766230876
409.0,0.8420481789410694,-0.29915550334883484,0.12972622175,-1.070047781601528,-0.1158677518010935,-0.3081121278182659,0.12329010372018413,0.051753120882244014,-0.11129313900455867,0.5258612808892591,2.5079817224880294,0.26492024766230876
410.0,0.8420481789410694,-0.29915550334883484,0.12972622175,-1.070047781601528,-0.1158677518010935,-0.3081121278182659,0.12329010372018413,0.051753120882244014,-0.11129313900455867,0.5258612808892591,2.5079817224880294,0.26492024766230876
411.0,0.8420481789410694,-0.29915550334883484,0.12972622175,-1.070047781601528,-0.1158677518010935,-0.3081121278182659,0.12329010372018413,0.051753120882244014,-0.11129313900455867,0.5258612808892591,2.5079817224880294,0.26492024766230876
412.0,0.8420481789410694,-0.29915550334883484,0.12972622175,-1.070047781601528,-0.1158677518010935,-0.3081121278182659,0.12329010372018413,0.051753120882244014,-0.11129313900455867,0.5258612808892591,2.5079817224880294,0.26492024766230876
413.0,0.8420481789410694,-0.29915550334883484,0.12972622175,-1.070047781601528,-0.1158677518010935,-0.3081121278182659,0.12329010372018413,0.051753120882244014,-0.11129313900455867,0.5258612808892591,2.5079817224880294,0.26492024766230876
414.0,0.8420481789410694,-0.29915550334883484,0.12972622175,-1.070047781601528,-0.1158677518010935,-0.3081121278182659,0.12329010372018413,0.051753120882244014,-0.11129313900455867,0.5258612808892591,2.5079817224880294,0.26492024766230876
415.0,0.8420481789410694,-0.29915550334883484,0.12972622175,-1.070047781601528,-0.1158677518010935,-0.3081121278182659,0.12329010372018413,0.051753120882244014,-0.11129313900455867,0.5258612808892591,2.5079817224880294,0.26492024766230876
416.0,0.8420481789410694,-0.29915550334883484,0.12972622175,-1.070047781601528,-0.1158677518010935,-0.3081121278182659,0.12329010372018413,0.051753120882244014,-0.11129313900455867,0.5258612808892591,2.5079817224880294,0.26492024766230876
417.0,0.8420481789410694,-0.29915550334883484,0.12972622175,-1.070047781601528,-0.1158677518010935,-0.3081121278182659,0.12329010372018413,0.051753120882244014,-0.11129313900455867,0.5258612808892591,2.5079817224880294,0.26492024766230876
